( pcb2gcode 1.1.4 )

G94     ( Inches per minute feed rate. )
G20     ( Units == INCHES.             )
G90     ( Absolute coordinates.        )
S18000  ( RPM spindle speed.           )
M3      ( Spindle on clockwise.        )

G64 P0.00500 ( set maximum deviation from commanded toolpath )

G04 P0 ( dwell for no time -- G64 should not smooth over this point )
G00 Z0.11811 ( retract )

G00 X-2.02600 Y1.97166 ( rapid move to begin. )
G01 Z-0.00197 F31.49606 ( plunge. )
G04 P0 ( dwell for no time -- G64 should not smooth over this point )
X-2.02600 Y1.97166
X-2.03200 Y1.97166
X-2.03200 Y1.97066
X-2.03400 Y1.97066
X-2.03400 Y1.96966
X-2.03600 Y1.96966
X-2.03600 Y1.96866
X-2.03700 Y1.96866
X-2.03700 Y1.96766
X-2.03900 Y1.96766
X-2.03900 Y1.96566
X-2.04000 Y1.96566
X-2.04000 Y1.96466
X-2.04100 Y1.96466
X-2.04100 Y1.96366
X-2.04200 Y1.96366
X-2.04200 Y1.96166
X-2.04300 Y1.96166
X-2.04300 Y1.95866
X-2.04400 Y1.95866
X-2.04400 Y1.95366
X-2.04500 Y1.95366
X-2.04500 Y1.95066
X-2.04400 Y1.95066
X-2.04400 Y1.94566
X-2.04300 Y1.94566
X-2.04300 Y1.94266
X-2.04200 Y1.94266
X-2.04200 Y1.94066
X-2.04100 Y1.94066
X-2.04100 Y1.93966
X-2.04000 Y1.93966
X-2.04000 Y1.93866
X-2.03900 Y1.93866
X-2.03900 Y1.93666
X-2.03700 Y1.93666
X-2.03700 Y1.93566
X-2.03600 Y1.93566
X-2.03600 Y1.93466
X-2.03400 Y1.93466
X-2.03400 Y1.93366
X-2.03200 Y1.93366
X-2.03200 Y1.93266
X-2.02600 Y1.93266
X-2.02600 Y1.93166
X-2.02300 Y1.93166
X-2.02300 Y1.93266
X-2.01700 Y1.93266
X-2.01700 Y1.93366
X-2.01500 Y1.93366
X-2.01500 Y1.93466
X-2.01300 Y1.93466
X-2.01300 Y1.93566
X-2.01200 Y1.93566
X-2.01200 Y1.93666
X-2.01000 Y1.93666
X-2.01000 Y1.93866
X-2.00900 Y1.93866
X-2.00900 Y1.93966
X-2.00800 Y1.93966
X-2.00800 Y1.94066
X-2.00700 Y1.94066
X-2.00700 Y1.94266
X-2.00600 Y1.94266
X-2.00600 Y1.94566
X-2.00500 Y1.94566
X-2.00500 Y1.95066
X-2.00400 Y1.95066
X-2.00400 Y1.95366
X-2.00500 Y1.95366
X-2.00500 Y1.95866
X-2.00600 Y1.95866
X-2.00600 Y1.96166
X-2.00700 Y1.96166
X-2.00700 Y1.96366
X-2.00800 Y1.96366
X-2.00800 Y1.96466
X-2.00900 Y1.96466
X-2.00900 Y1.96566
X-2.01000 Y1.96566
X-2.01000 Y1.96766
X-2.01200 Y1.96766
X-2.01200 Y1.96866
X-2.01300 Y1.96866
X-2.01300 Y1.96966
X-2.01500 Y1.96966
X-2.01500 Y1.97066
X-2.01700 Y1.97066
X-2.01700 Y1.97166
X-2.02300 Y1.97166
X-2.02300 Y1.97266
X-2.02600 Y1.97266
X-2.02600 Y1.97166
G04 P0 ( dwell for no time -- G64 should not smooth over this point )
G00 Z0.11811 ( retract )

G00 X-0.99300 Y1.91166 ( rapid move to begin. )
G01 Z-0.00197 F31.49606 ( plunge. )
G04 P0 ( dwell for no time -- G64 should not smooth over this point )
X-0.99300 Y1.91166
X-0.99700 Y1.91166
X-0.99700 Y1.91066
X-0.99900 Y1.91066
X-0.99900 Y1.90966
X-1.00100 Y1.90966
X-1.00100 Y1.90866
X-1.00200 Y1.90866
X-1.00200 Y1.90766
X-1.00300 Y1.90766
X-1.00300 Y1.90666
X-1.00400 Y1.90666
X-1.00400 Y1.90566
X-1.00500 Y1.90566
X-1.00500 Y1.90466
X-1.00600 Y1.90466
X-1.00600 Y1.90366
X-1.00700 Y1.90366
X-1.00700 Y1.90266
X-1.00800 Y1.90266
X-1.00800 Y1.90166
X-1.00900 Y1.90166
X-1.00900 Y1.90066
X-1.01000 Y1.90066
X-1.01000 Y1.89966
X-1.01100 Y1.89966
X-1.01100 Y1.89866
X-1.01200 Y1.89866
X-1.01200 Y1.89766
X-1.01300 Y1.89766
X-1.01300 Y1.89666
X-1.01400 Y1.89666
X-1.01400 Y1.89566
X-1.01500 Y1.89566
X-1.01500 Y1.89466
X-1.01600 Y1.89466
X-1.01600 Y1.89366
X-1.01700 Y1.89366
X-1.01700 Y1.89266
X-1.01800 Y1.89266
X-1.01800 Y1.89166
X-1.01900 Y1.89166
X-1.01900 Y1.89066
X-1.02000 Y1.89066
X-1.02000 Y1.88966
X-1.02100 Y1.88966
X-1.02100 Y1.88866
X-1.02200 Y1.88866
X-1.02200 Y1.88766
X-1.02300 Y1.88766
X-1.02300 Y1.88666
X-1.02400 Y1.88666
X-1.02400 Y1.88566
X-1.02500 Y1.88566
X-1.02500 Y1.88466
X-1.02600 Y1.88466
X-1.02600 Y1.88366
X-1.02700 Y1.88366
X-1.02700 Y1.88266
X-1.02800 Y1.88266
X-1.02800 Y1.88166
X-1.02900 Y1.88166
X-1.02900 Y1.88066
X-1.03000 Y1.88066
X-1.03000 Y1.87966
X-1.03100 Y1.87966
X-1.03100 Y1.87866
X-1.03200 Y1.87866
X-1.03200 Y1.87766
X-1.03300 Y1.87766
X-1.03300 Y1.87666
X-1.03400 Y1.87666
X-1.03400 Y1.87566
X-1.03500 Y1.87566
X-1.03500 Y1.87466
X-1.03600 Y1.87466
X-1.03600 Y1.87366
X-1.03700 Y1.87366
X-1.03700 Y1.87266
X-1.03800 Y1.87266
X-1.03800 Y1.87166
X-1.03900 Y1.87166
X-1.03900 Y1.87066
X-1.04000 Y1.87066
X-1.04000 Y1.86966
X-1.04100 Y1.86966
X-1.04100 Y1.86866
X-1.04200 Y1.86866
X-1.04200 Y1.86766
X-1.04300 Y1.86766
X-1.04300 Y1.86666
X-1.04400 Y1.86666
X-1.04400 Y1.86566
X-1.04500 Y1.86566
X-1.04500 Y1.86466
X-1.04600 Y1.86466
X-1.04600 Y1.86366
X-1.04700 Y1.86366
X-1.04700 Y1.86266
X-1.04800 Y1.86266
X-1.04800 Y1.86166
X-1.04900 Y1.86166
X-1.04900 Y1.86066
X-1.05000 Y1.86066
X-1.05000 Y1.85966
X-1.05100 Y1.85966
X-1.05100 Y1.85866
X-1.05200 Y1.85866
X-1.05200 Y1.85766
X-1.05300 Y1.85766
X-1.05300 Y1.85666
X-1.05400 Y1.85666
X-1.05400 Y1.85566
X-1.05500 Y1.85566
X-1.05500 Y1.85466
X-1.05600 Y1.85466
X-1.05600 Y1.85366
X-1.05700 Y1.85366
X-1.05700 Y1.85266
X-1.05800 Y1.85266
X-1.05800 Y1.85166
X-1.05900 Y1.85166
X-1.05900 Y1.85066
X-1.06000 Y1.85066
X-1.06000 Y1.84966
X-1.06100 Y1.84966
X-1.06100 Y1.84866
X-1.06200 Y1.84866
X-1.06200 Y1.84766
X-1.06300 Y1.84766
X-1.06300 Y1.84666
X-1.06400 Y1.84666
X-1.06400 Y1.84566
X-1.06500 Y1.84566
X-1.06500 Y1.84466
X-1.06600 Y1.84466
X-1.06600 Y1.84366
X-1.06700 Y1.84366
X-1.06700 Y1.84266
X-1.06800 Y1.84266
X-1.06800 Y1.84166
X-1.06900 Y1.84166
X-1.06900 Y1.84066
X-1.07000 Y1.84066
X-1.07000 Y1.83966
X-1.07100 Y1.83966
X-1.07100 Y1.83866
X-1.07200 Y1.83866
X-1.07200 Y1.83766
X-1.07300 Y1.83766
X-1.07300 Y1.83666
X-1.07400 Y1.83666
X-1.07400 Y1.83566
X-1.07500 Y1.83566
X-1.07500 Y1.83466
X-1.07600 Y1.83466
X-1.07600 Y1.83366
X-1.07700 Y1.83366
X-1.07700 Y1.83266
X-1.07800 Y1.83266
X-1.07800 Y1.83166
X-1.07900 Y1.83166
X-1.07900 Y1.83066
X-1.08000 Y1.83066
X-1.08000 Y1.82966
X-1.08100 Y1.82966
X-1.08100 Y1.82866
X-1.08200 Y1.82866
X-1.08200 Y1.82766
X-1.08300 Y1.82766
X-1.08300 Y1.82666
X-1.08400 Y1.82666
X-1.08400 Y1.82566
X-1.08500 Y1.82566
X-1.08500 Y1.82466
X-1.08600 Y1.82466
X-1.08600 Y1.82366
X-1.08700 Y1.82366
X-1.08700 Y1.82266
X-1.08800 Y1.82266
X-1.08800 Y1.82166
X-1.08900 Y1.82166
X-1.08900 Y1.82066
X-1.09000 Y1.82066
X-1.09000 Y1.81966
X-1.09100 Y1.81966
X-1.09100 Y1.81866
X-1.09200 Y1.81866
X-1.09200 Y1.81766
X-1.09300 Y1.81766
X-1.09300 Y1.81666
X-1.09400 Y1.81666
X-1.09400 Y1.81566
X-1.09500 Y1.81566
X-1.09500 Y1.81466
X-1.09600 Y1.81466
X-1.09600 Y1.81366
X-1.09700 Y1.81366
X-1.09700 Y1.81266
X-1.09800 Y1.81266
X-1.09800 Y1.81166
X-1.09900 Y1.81166
X-1.09900 Y1.81066
X-1.10000 Y1.81066
X-1.10000 Y1.80966
X-1.10100 Y1.80966
X-1.10100 Y1.80866
X-1.10200 Y1.80866
X-1.10200 Y1.80766
X-1.10300 Y1.80766
X-1.10300 Y1.80666
X-1.10400 Y1.80666
X-1.10400 Y1.80566
X-1.10500 Y1.80566
X-1.10500 Y1.80466
X-1.10600 Y1.80466
X-1.10600 Y1.80366
X-1.10800 Y1.80366
X-1.10800 Y1.80266
X-1.10900 Y1.80266
X-1.10900 Y1.80166
X-1.11000 Y1.80166
X-1.11000 Y1.80066
X-1.11100 Y1.80066
X-1.11100 Y1.79966
X-1.11200 Y1.79966
X-1.11200 Y1.79866
X-1.11300 Y1.79866
X-1.11300 Y1.79766
X-1.11400 Y1.79766
X-1.11400 Y1.79666
X-1.11500 Y1.79666
X-1.11500 Y1.79566
X-1.11600 Y1.79566
X-1.11600 Y1.79466
X-1.11700 Y1.79466
X-1.11700 Y1.79366
X-1.11800 Y1.79366
X-1.11800 Y1.79266
X-1.11900 Y1.79266
X-1.11900 Y1.79166
X-1.12000 Y1.79166
X-1.12000 Y1.79066
X-1.12100 Y1.79066
X-1.12100 Y1.78966
X-1.12200 Y1.78966
X-1.12200 Y1.78866
X-1.12300 Y1.78866
X-1.12300 Y1.78766
X-1.12400 Y1.78766
X-1.12400 Y1.78666
X-1.12500 Y1.78666
X-1.12500 Y1.78566
X-1.12600 Y1.78566
X-1.12600 Y1.78466
X-1.12700 Y1.78466
X-1.12700 Y1.78366
X-1.12800 Y1.78366
X-1.12800 Y1.78266
X-1.12900 Y1.78266
X-1.12900 Y1.78166
X-1.13000 Y1.78166
X-1.13000 Y1.78066
X-1.13100 Y1.78066
X-1.13100 Y1.77966
X-1.13200 Y1.77966
X-1.13200 Y1.77866
X-1.13300 Y1.77866
X-1.13300 Y1.77766
X-1.13400 Y1.77766
X-1.13400 Y1.77666
X-1.13500 Y1.77666
X-1.13500 Y1.77566
X-1.13600 Y1.77566
X-1.13600 Y1.77466
X-1.13700 Y1.77466
X-1.13700 Y1.77366
X-1.13800 Y1.77366
X-1.13800 Y1.77266
X-1.13900 Y1.77266
X-1.13900 Y1.77166
X-1.14000 Y1.77166
X-1.14000 Y1.77066
X-1.14100 Y1.77066
X-1.14100 Y1.76966
X-1.14200 Y1.76966
X-1.14200 Y1.76866
X-1.14300 Y1.76866
X-1.14300 Y1.76766
X-1.14400 Y1.76766
X-1.14400 Y1.76666
X-1.14500 Y1.76666
X-1.14500 Y1.76566
X-1.14600 Y1.76566
X-1.14600 Y1.76466
X-1.14700 Y1.76466
X-1.14700 Y1.76366
X-1.14800 Y1.76366
X-1.14800 Y1.76266
X-1.14900 Y1.76266
X-1.14900 Y1.76166
X-1.15000 Y1.76166
X-1.15000 Y1.76066
X-1.15100 Y1.76066
X-1.15100 Y1.75966
X-1.15200 Y1.75966
X-1.15200 Y1.75866
X-1.15300 Y1.75866
X-1.15300 Y1.75766
X-1.15400 Y1.75766
X-1.15400 Y1.75666
X-1.15500 Y1.75666
X-1.15500 Y1.75566
X-1.15600 Y1.75566
X-1.15600 Y1.75466
X-1.15700 Y1.75466
X-1.15700 Y1.75366
X-1.15800 Y1.75366
X-1.15800 Y1.75266
X-1.15900 Y1.75266
X-1.15900 Y1.75166
X-1.16000 Y1.75166
X-1.16000 Y1.75066
X-1.16100 Y1.75066
X-1.16100 Y1.74966
X-1.16200 Y1.74966
X-1.16200 Y1.74866
X-1.16300 Y1.74866
X-1.16300 Y1.74766
X-1.16400 Y1.74766
X-1.16400 Y1.74666
X-1.16500 Y1.74666
X-1.16500 Y1.74566
X-1.16600 Y1.74566
X-1.16600 Y1.74466
X-1.16700 Y1.74466
X-1.16700 Y1.74366
X-1.16800 Y1.74366
X-1.16800 Y1.74266
X-1.16900 Y1.74266
X-1.16900 Y1.74166
X-1.17000 Y1.74166
X-1.17000 Y1.74066
X-1.17100 Y1.74066
X-1.17100 Y1.73966
X-1.17200 Y1.73966
X-1.17200 Y1.73866
X-1.17300 Y1.73866
X-1.17300 Y1.73766
X-1.17400 Y1.73766
X-1.17400 Y1.73666
X-1.17500 Y1.73666
X-1.17500 Y1.73566
X-1.17600 Y1.73566
X-1.17600 Y1.73466
X-1.17700 Y1.73466
X-1.17700 Y1.73366
X-1.17800 Y1.73366
X-1.17800 Y1.73266
X-1.17900 Y1.73266
X-1.17900 Y1.73166
X-1.18000 Y1.73166
X-1.18000 Y1.73066
X-1.18100 Y1.73066
X-1.18100 Y1.72966
X-1.18200 Y1.72966
X-1.18200 Y1.72866
X-1.18300 Y1.72866
X-1.18300 Y1.72766
X-1.18400 Y1.72766
X-1.18400 Y1.72666
X-1.18500 Y1.72666
X-1.18500 Y1.72566
X-1.18600 Y1.72566
X-1.18600 Y1.72466
X-1.18700 Y1.72466
X-1.18700 Y1.72366
X-1.18800 Y1.72366
X-1.18800 Y1.72266
X-1.18900 Y1.72266
X-1.18900 Y1.72166
X-1.19000 Y1.72166
X-1.19000 Y1.72066
X-1.19100 Y1.72066
X-1.19100 Y1.71966
X-1.19200 Y1.71966
X-1.19200 Y1.71866
X-1.19300 Y1.71866
X-1.19300 Y1.71766
X-1.19400 Y1.71766
X-1.19400 Y1.71666
X-1.19500 Y1.71666
X-1.19500 Y1.71566
X-1.19600 Y1.71566
X-1.19600 Y1.71466
X-1.19700 Y1.71466
X-1.19700 Y1.71366
X-1.19800 Y1.71366
X-1.19800 Y1.71266
X-1.19900 Y1.71266
X-1.19900 Y1.71166
X-1.20000 Y1.71166
X-1.20000 Y1.71066
X-1.20100 Y1.71066
X-1.20100 Y1.70966
X-1.20200 Y1.70966
X-1.20200 Y1.70866
X-1.20300 Y1.70866
X-1.20300 Y1.70766
X-1.20400 Y1.70766
X-1.20400 Y1.70666
X-1.20500 Y1.70666
X-1.20500 Y1.70566
X-1.20600 Y1.70566
X-1.20600 Y1.70466
X-1.20700 Y1.70466
X-1.20700 Y1.70366
X-1.20800 Y1.70366
X-1.20800 Y1.70266
X-1.20900 Y1.70266
X-1.20900 Y1.70166
X-1.21000 Y1.70166
X-1.21000 Y1.70066
X-1.21100 Y1.70066
X-1.21100 Y1.69966
X-1.21200 Y1.69966
X-1.21200 Y1.69866
X-1.21300 Y1.69866
X-1.21300 Y1.69766
X-1.21400 Y1.69766
X-1.21400 Y1.69666
X-1.21500 Y1.69666
X-1.21500 Y1.69566
X-1.21600 Y1.69566
X-1.21600 Y1.69466
X-1.21700 Y1.69466
X-1.21700 Y1.69366
X-1.21800 Y1.69366
X-1.21800 Y1.69266
X-1.21900 Y1.69266
X-1.21900 Y1.69166
X-1.22000 Y1.69166
X-1.22000 Y1.69066
X-1.22100 Y1.69066
X-1.22100 Y1.68966
X-1.22200 Y1.68966
X-1.22200 Y1.68866
X-1.22300 Y1.68866
X-1.22300 Y1.68766
X-1.22400 Y1.68766
X-1.22400 Y1.68666
X-1.22500 Y1.68666
X-1.22500 Y1.68566
X-1.22600 Y1.68566
X-1.22600 Y1.68466
X-1.22700 Y1.68466
X-1.22700 Y1.68366
X-1.22800 Y1.68366
X-1.22800 Y1.68266
X-1.22900 Y1.68266
X-1.22900 Y1.68166
X-1.23000 Y1.68166
X-1.23000 Y1.68066
X-1.23100 Y1.68066
X-1.23100 Y1.67966
X-1.23200 Y1.67966
X-1.23200 Y1.67866
X-1.23300 Y1.67866
X-1.23300 Y1.67766
X-1.23400 Y1.67766
X-1.23400 Y1.67666
X-1.23500 Y1.67666
X-1.23500 Y1.67566
X-1.23600 Y1.67566
X-1.23600 Y1.67466
X-1.23700 Y1.67466
X-1.23700 Y1.67366
X-1.23800 Y1.67366
X-1.23800 Y1.67266
X-1.23900 Y1.67266
X-1.23900 Y1.67166
X-2.19100 Y1.67166
X-2.19100 Y1.67266
X-2.19200 Y1.67266
X-2.19200 Y1.67366
X-2.19300 Y1.67366
X-2.19300 Y1.67466
X-2.19400 Y1.67466
X-2.19400 Y1.67566
X-2.19500 Y1.67566
X-2.19500 Y1.67666
X-2.19600 Y1.67666
X-2.19600 Y1.67766
X-2.19700 Y1.67766
X-2.19700 Y1.67866
X-2.19800 Y1.67866
X-2.19800 Y1.67966
X-2.19900 Y1.67966
X-2.19900 Y1.68066
X-2.20000 Y1.68066
X-2.20000 Y1.68166
X-2.20100 Y1.68166
X-2.20100 Y1.68266
X-2.20200 Y1.68266
X-2.20200 Y1.68366
X-2.20300 Y1.68366
X-2.20300 Y1.68466
X-2.20400 Y1.68466
X-2.20400 Y1.68566
X-2.20500 Y1.68566
X-2.20500 Y1.68666
X-2.20600 Y1.68666
X-2.20600 Y1.68766
X-2.20700 Y1.68766
X-2.20700 Y1.68866
X-2.20800 Y1.68866
X-2.20800 Y1.68966
X-2.20900 Y1.68966
X-2.20900 Y1.69066
X-2.21000 Y1.69066
X-2.21000 Y1.69166
X-2.21100 Y1.69166
X-2.21100 Y1.69266
X-2.21200 Y1.69266
X-2.21200 Y1.69366
X-2.21300 Y1.69366
X-2.21300 Y1.69466
X-2.21400 Y1.69466
X-2.21400 Y1.69566
X-2.21500 Y1.69566
X-2.21500 Y1.69666
X-2.21600 Y1.69666
X-2.21600 Y1.69766
X-2.21700 Y1.69766
X-2.21700 Y1.69866
X-2.21800 Y1.69866
X-2.21800 Y1.69966
X-2.21900 Y1.69966
X-2.21900 Y1.70066
X-2.22000 Y1.70066
X-2.22000 Y1.70166
X-2.22100 Y1.70166
X-2.22100 Y1.70266
X-2.22200 Y1.70266
X-2.22200 Y1.70366
X-2.22300 Y1.70366
X-2.22300 Y1.70466
X-2.22400 Y1.70466
X-2.22400 Y1.70566
X-2.22500 Y1.70566
X-2.22500 Y1.70666
X-2.22600 Y1.70666
X-2.22600 Y1.70766
X-2.22700 Y1.70766
X-2.22700 Y1.70866
X-2.22800 Y1.70866
X-2.22800 Y1.70966
X-2.22900 Y1.70966
X-2.22900 Y1.71066
X-2.23000 Y1.71066
X-2.23000 Y1.71166
X-2.23100 Y1.71166
X-2.23100 Y1.71266
X-2.23200 Y1.71266
X-2.23200 Y1.71366
X-2.23300 Y1.71366
X-2.23300 Y1.71466
X-2.23400 Y1.71466
X-2.23400 Y1.71566
X-2.23500 Y1.71566
X-2.23500 Y1.71666
X-2.23600 Y1.71666
X-2.23600 Y1.71766
X-2.23700 Y1.71766
X-2.23700 Y1.71866
X-2.23800 Y1.71866
X-2.23800 Y1.71966
X-2.23900 Y1.71966
X-2.23900 Y1.72066
X-2.24000 Y1.72066
X-2.24000 Y1.72166
X-2.24100 Y1.72166
X-2.24100 Y1.72266
X-2.24200 Y1.72266
X-2.24200 Y1.72366
X-2.24300 Y1.72366
X-2.24300 Y1.72466
X-2.24400 Y1.72466
X-2.24400 Y1.72566
X-2.24500 Y1.72566
X-2.24500 Y1.72666
X-2.24600 Y1.72666
X-2.24600 Y1.72766
X-2.24700 Y1.72766
X-2.24700 Y1.72866
X-2.24800 Y1.72866
X-2.24800 Y1.72966
X-2.24900 Y1.72966
X-2.24900 Y1.73066
X-2.25000 Y1.73066
X-2.25000 Y1.73166
X-2.25100 Y1.73166
X-2.25100 Y1.73266
X-2.25200 Y1.73266
X-2.25200 Y1.73366
X-2.25300 Y1.73366
X-2.25300 Y1.73466
X-2.25400 Y1.73466
X-2.25400 Y1.73566
X-2.25500 Y1.73566
X-2.25500 Y1.73666
X-2.25600 Y1.73666
X-2.25600 Y1.73766
X-2.25700 Y1.73766
X-2.25700 Y1.73866
X-2.25800 Y1.73866
X-2.25800 Y1.73966
X-2.25900 Y1.73966
X-2.25900 Y1.74066
X-2.26000 Y1.74066
X-2.26000 Y1.74166
X-2.26100 Y1.74166
X-2.26100 Y1.74266
X-2.26200 Y1.74266
X-2.26200 Y1.74366
X-2.26300 Y1.74366
X-2.26300 Y1.74466
X-2.26400 Y1.74466
X-2.26400 Y1.74566
X-2.26500 Y1.74566
X-2.26500 Y1.74666
X-2.26600 Y1.74666
X-2.26600 Y1.74766
X-2.26700 Y1.74766
X-2.26700 Y1.74866
X-2.26800 Y1.74866
X-2.26800 Y1.74966
X-2.26900 Y1.74966
X-2.26900 Y1.75066
X-2.27000 Y1.75066
X-2.27000 Y1.75166
X-2.27100 Y1.75166
X-2.27100 Y1.75266
X-2.27300 Y1.75266
X-2.27300 Y1.75366
X-2.27400 Y1.75366
X-2.27400 Y1.75466
X-2.27500 Y1.75466
X-2.27500 Y1.75566
X-2.27600 Y1.75566
X-2.27600 Y1.75666
X-2.27700 Y1.75666
X-2.27700 Y1.75766
X-2.27800 Y1.75766
X-2.27800 Y1.75866
X-2.27900 Y1.75866
X-2.27900 Y1.75966
X-2.28000 Y1.75966
X-2.28000 Y1.76066
X-2.28100 Y1.76066
X-2.28100 Y1.76166
X-2.28200 Y1.76166
X-2.28200 Y1.76266
X-2.28300 Y1.76266
X-2.28300 Y1.76366
X-2.28400 Y1.76366
X-2.28400 Y1.76466
X-2.28500 Y1.76466
X-2.28500 Y1.76566
X-2.28600 Y1.76566
X-2.28600 Y1.76666
X-2.28700 Y1.76666
X-2.28700 Y1.76766
X-2.28800 Y1.76766
X-2.28800 Y1.76866
X-2.28900 Y1.76866
X-2.28900 Y1.76966
X-2.29000 Y1.76966
X-2.29000 Y1.77066
X-2.29100 Y1.77066
X-2.29100 Y1.77166
X-2.29200 Y1.77166
X-2.29200 Y1.77266
X-2.29300 Y1.77266
X-2.29300 Y1.77366
X-2.29400 Y1.77366
X-2.29400 Y1.77466
X-2.29500 Y1.77466
X-2.29500 Y1.77566
X-2.29600 Y1.77566
X-2.29600 Y1.77666
X-2.29500 Y1.77666
X-2.29500 Y1.77866
X-2.29400 Y1.77866
X-2.29400 Y1.78166
X-2.29300 Y1.78166
X-2.29300 Y1.78566
X-2.29200 Y1.78566
X-2.29200 Y1.78866
X-2.29100 Y1.78866
X-2.29100 Y1.79566
X-2.29000 Y1.79566
X-2.29000 Y1.80866
X-2.29100 Y1.80866
X-2.29100 Y1.81566
X-2.29200 Y1.81566
X-2.29200 Y1.81866
X-2.29300 Y1.81866
X-2.29300 Y1.82266
X-2.29400 Y1.82266
X-2.29400 Y1.82566
X-2.29500 Y1.82566
X-2.29500 Y1.82766
X-2.29600 Y1.82766
X-2.29600 Y1.82966
X-2.29700 Y1.82966
X-2.29700 Y1.83066
X-2.29800 Y1.83066
X-2.29800 Y1.83266
X-2.29900 Y1.83266
X-2.29900 Y1.83466
X-2.30000 Y1.83466
X-2.30000 Y1.83666
X-2.30100 Y1.83666
X-2.30100 Y1.83766
X-2.30200 Y1.83766
X-2.30200 Y1.83866
X-2.30300 Y1.83866
X-2.30300 Y1.83966
X-2.30400 Y1.83966
X-2.30400 Y1.84066
X-2.30500 Y1.84066
X-2.30500 Y1.84266
X-2.30600 Y1.84266
X-2.30600 Y1.84366
X-2.30700 Y1.84366
X-2.30700 Y1.84466
X-2.30800 Y1.84466
X-2.30800 Y1.84566
X-2.30900 Y1.84566
X-2.30900 Y1.84666
X-2.31100 Y1.84666
X-2.31100 Y1.84766
X-2.31200 Y1.84766
X-2.31200 Y1.84866
X-2.31300 Y1.84866
X-2.31300 Y1.84966
X-2.31400 Y1.84966
X-2.31400 Y1.85066
X-2.31500 Y1.85066
X-2.31500 Y1.85166
X-2.31700 Y1.85166
X-2.31700 Y1.85266
X-2.31900 Y1.85266
X-2.31900 Y1.85366
X-2.32100 Y1.85366
X-2.32100 Y1.85466
X-2.32200 Y1.85466
X-2.32200 Y1.85566
X-2.32400 Y1.85566
X-2.32400 Y1.85666
X-2.32600 Y1.85666
X-2.32600 Y1.85766
X-2.33000 Y1.85766
X-2.33000 Y1.85866
X-2.33300 Y1.85866
X-2.33300 Y1.85966
X-2.33600 Y1.85966
X-2.33600 Y1.86066
X-2.34400 Y1.86066
X-2.34400 Y1.86166
X-2.35500 Y1.86166
X-2.35500 Y1.86066
X-2.36300 Y1.86066
X-2.36300 Y1.85966
X-2.36600 Y1.85966
X-2.36600 Y1.85866
X-2.36900 Y1.85866
X-2.36900 Y1.85766
X-2.37300 Y1.85766
X-2.37300 Y1.85666
X-2.37500 Y1.85666
X-2.37500 Y1.85566
X-2.37700 Y1.85566
X-2.37700 Y1.85466
X-2.37800 Y1.85466
X-2.37800 Y1.85366
X-2.38000 Y1.85366
X-2.38000 Y1.85266
X-2.38200 Y1.85266
X-2.38200 Y1.85166
X-2.38400 Y1.85166
X-2.38400 Y1.85066
X-2.38500 Y1.85066
X-2.38500 Y1.84966
X-2.38600 Y1.84966
X-2.38600 Y1.84866
X-2.38700 Y1.84866
X-2.38700 Y1.84766
X-2.38800 Y1.84766
X-2.38800 Y1.84666
X-2.39000 Y1.84666
X-2.39000 Y1.84566
X-2.39100 Y1.84566
X-2.39100 Y1.84466
X-2.39200 Y1.84466
X-2.39200 Y1.84366
X-2.39300 Y1.84366
X-2.39300 Y1.84266
X-2.39400 Y1.84266
X-2.39400 Y1.84066
X-2.39500 Y1.84066
X-2.39500 Y1.83966
X-2.39600 Y1.83966
X-2.39600 Y1.83866
X-2.39700 Y1.83866
X-2.39700 Y1.83766
X-2.39800 Y1.83766
X-2.39800 Y1.83666
X-2.39900 Y1.83666
X-2.39900 Y1.83466
X-2.40000 Y1.83466
X-2.40000 Y1.83266
X-2.40100 Y1.83266
X-2.40100 Y1.83066
X-2.40200 Y1.83066
X-2.40200 Y1.82966
X-2.40300 Y1.82966
X-2.40300 Y1.82766
X-2.40400 Y1.82766
X-2.40400 Y1.82566
X-2.40500 Y1.82566
X-2.40500 Y1.82166
X-3.67900 Y1.82166
X-3.67900 Y1.82066
X-3.68300 Y1.82066
X-3.68300 Y1.81966
X-3.68500 Y1.81966
X-3.68500 Y1.81866
X-3.68700 Y1.81866
X-3.68700 Y1.81766
X-3.68800 Y1.81766
X-3.68800 Y1.81666
X-3.68900 Y1.81666
X-3.68900 Y1.81566
X-3.69000 Y1.81566
X-3.69000 Y1.81466
X-3.69100 Y1.81466
X-3.69100 Y1.81366
X-3.69200 Y1.81366
X-3.69200 Y1.81266
X-3.69300 Y1.81266
X-3.69300 Y1.81166
X-3.69400 Y1.81166
X-3.69400 Y1.81066
X-3.69500 Y1.81066
X-3.69500 Y1.80966
X-3.69600 Y1.80966
X-3.69600 Y1.80866
X-3.69700 Y1.80866
X-3.69700 Y1.80766
X-3.69800 Y1.80766
X-3.69800 Y1.80666
X-3.69900 Y1.80666
X-3.69900 Y1.80566
X-3.70000 Y1.80566
X-3.70000 Y1.80466
X-3.70100 Y1.80466
X-3.70100 Y1.80366
X-3.70200 Y1.80366
X-3.70200 Y1.80266
X-3.70300 Y1.80266
X-3.70300 Y1.80166
X-3.70400 Y1.80166
X-3.70400 Y1.80066
X-3.70500 Y1.80066
X-3.70500 Y1.79966
X-3.70600 Y1.79966
X-3.70600 Y1.79866
X-3.70700 Y1.79866
X-3.70700 Y1.79766
X-3.70800 Y1.79766
X-3.70800 Y1.79666
X-3.70900 Y1.79666
X-3.70900 Y1.79566
X-3.71000 Y1.79566
X-3.71000 Y1.79466
X-3.71100 Y1.79466
X-3.71100 Y1.79366
X-3.71200 Y1.79366
X-3.71200 Y1.79266
X-3.71300 Y1.79266
X-3.71300 Y1.79166
X-3.71400 Y1.79166
X-3.71400 Y1.79066
X-3.71500 Y1.79066
X-3.71500 Y1.78966
X-3.71600 Y1.78966
X-3.71600 Y1.78866
X-3.71700 Y1.78866
X-3.71700 Y1.78766
X-3.71800 Y1.78766
X-3.71800 Y1.78666
X-3.71900 Y1.78666
X-3.71900 Y1.78566
X-3.72000 Y1.78566
X-3.72000 Y1.78466
X-3.72100 Y1.78466
X-3.72100 Y1.78366
X-3.72200 Y1.78366
X-3.72200 Y1.78266
X-3.72300 Y1.78266
X-3.72300 Y1.78166
X-3.72400 Y1.78166
X-3.72400 Y1.78066
X-3.72500 Y1.78066
X-3.72500 Y1.77966
X-3.72600 Y1.77966
X-3.72600 Y1.77866
X-3.72700 Y1.77866
X-3.72700 Y1.77766
X-3.72800 Y1.77766
X-3.72800 Y1.77666
X-3.72900 Y1.77666
X-3.72900 Y1.77566
X-3.73000 Y1.77566
X-3.73000 Y1.77466
X-3.73100 Y1.77466
X-3.73100 Y1.77366
X-3.73200 Y1.77366
X-3.73200 Y1.77266
X-3.73300 Y1.77266
X-3.73300 Y1.77166
X-3.75900 Y1.77166
X-3.75900 Y1.78666
X-3.84000 Y1.78666
X-3.84000 Y1.73966
X-3.84100 Y1.73966
X-3.84100 Y1.73866
X-3.84200 Y1.73866
X-3.84200 Y1.73766
X-3.84300 Y1.73766
X-3.84300 Y1.73666
X-3.84400 Y1.73666
X-3.84400 Y1.73566
X-3.84500 Y1.73566
X-3.84500 Y1.73466
X-3.84600 Y1.73466
X-3.84600 Y1.73366
X-3.84700 Y1.73366
X-3.84700 Y1.73266
X-3.84800 Y1.73266
X-3.84800 Y1.73166
X-3.84900 Y1.73166
X-3.84900 Y1.73066
X-3.85000 Y1.73066
X-3.85000 Y1.72966
X-3.85100 Y1.72966
X-3.85100 Y1.72866
X-3.85200 Y1.72866
X-3.85200 Y1.72766
X-3.85300 Y1.72766
X-3.85300 Y1.72666
X-3.85400 Y1.72666
X-3.85400 Y1.72566
X-3.85500 Y1.72566
X-3.85500 Y1.72466
X-3.85600 Y1.72466
X-3.85600 Y1.72366
X-3.85700 Y1.72366
X-3.85700 Y1.72266
X-3.85800 Y1.72266
X-3.85800 Y1.72166
X-3.85900 Y1.72166
X-3.85900 Y1.72066
X-3.86000 Y1.72066
X-3.86000 Y1.71966
X-3.86100 Y1.71966
X-3.86100 Y1.71866
X-3.86200 Y1.71866
X-3.86200 Y1.71766
X-3.86300 Y1.71766
X-3.86300 Y1.71666
X-3.86400 Y1.71666
X-3.86400 Y1.71566
X-3.86500 Y1.71566
X-3.86500 Y1.71466
X-3.86600 Y1.71466
X-3.86600 Y1.71366
X-3.86700 Y1.71366
X-3.86700 Y1.71266
X-3.86800 Y1.71266
X-3.86800 Y1.71166
X-3.86900 Y1.71166
X-3.86900 Y1.71066
X-3.87000 Y1.71066
X-3.87000 Y1.70966
X-3.87100 Y1.70966
X-3.87100 Y1.70866
X-3.87200 Y1.70866
X-3.87200 Y1.70766
X-3.87300 Y1.70766
X-3.87300 Y1.70666
X-3.87400 Y1.70666
X-3.87400 Y1.70566
X-3.87500 Y1.70566
X-3.87500 Y1.70466
X-3.87600 Y1.70466
X-3.87600 Y1.70366
X-3.87700 Y1.70366
X-3.87700 Y1.70266
X-3.87800 Y1.70266
X-3.87800 Y1.70166
X-3.87900 Y1.70166
X-3.87900 Y1.70066
X-3.88000 Y1.70066
X-3.88000 Y1.69966
X-3.88100 Y1.69966
X-3.88100 Y1.69866
X-3.88200 Y1.69866
X-3.88200 Y1.69766
X-3.88300 Y1.69766
X-3.88300 Y1.69666
X-3.88400 Y1.69666
X-3.88400 Y1.69566
X-3.88500 Y1.69566
X-3.88500 Y1.69466
X-3.88600 Y1.69466
X-3.88600 Y1.69366
X-3.88700 Y1.69366
X-3.88700 Y1.69266
X-3.88800 Y1.69266
X-3.88800 Y1.69166
X-3.88900 Y1.69166
X-3.88900 Y1.69066
X-3.89000 Y1.69066
X-3.89000 Y1.68966
X-3.89100 Y1.68966
X-3.89100 Y1.68866
X-3.89200 Y1.68866
X-3.89200 Y1.68766
X-3.89300 Y1.68766
X-3.89300 Y1.68666
X-3.89400 Y1.68666
X-3.89400 Y1.68566
X-3.89500 Y1.68566
X-3.89500 Y1.68466
X-3.89600 Y1.68466
X-3.89600 Y1.68366
X-3.89700 Y1.68366
X-3.89700 Y1.68266
X-3.89800 Y1.68266
X-3.89800 Y1.68166
X-3.89900 Y1.68166
X-3.89900 Y1.68066
X-3.90000 Y1.68066
X-3.90000 Y1.67966
X-3.90100 Y1.67966
X-3.90100 Y1.67866
X-3.90200 Y1.67866
X-3.90200 Y1.67766
X-3.90300 Y1.67766
X-3.90300 Y1.67666
X-3.90400 Y1.67666
X-3.90400 Y1.67566
X-3.90500 Y1.67566
X-3.90500 Y1.67466
X-3.90600 Y1.67466
X-3.90600 Y1.67366
X-3.90700 Y1.67366
X-3.90700 Y1.67266
X-3.90800 Y1.67266
X-3.90800 Y1.67166
X-3.90900 Y1.67166
X-3.90900 Y1.67066
X-3.91000 Y1.67066
X-3.91000 Y1.66966
X-3.91100 Y1.66966
X-3.91100 Y1.66866
X-3.91200 Y1.66866
X-3.91200 Y1.66766
X-3.91300 Y1.66766
X-3.91300 Y1.66666
X-3.91400 Y1.66666
X-3.91400 Y1.66566
X-3.91500 Y1.66566
X-3.91500 Y1.66466
X-3.91600 Y1.66466
X-3.91600 Y1.66366
X-3.91700 Y1.66366
X-3.91700 Y1.66266
X-3.91800 Y1.66266
X-3.91800 Y1.66166
X-3.91900 Y1.66166
X-3.91900 Y1.66066
X-3.92000 Y1.66066
X-3.92000 Y1.65866
X-3.92100 Y1.65866
X-3.92100 Y1.65666
X-3.92200 Y1.65666
X-3.92200 Y1.65266
X-3.92300 Y1.65266
X-3.92300 Y1.01466
X-3.92200 Y1.01466
X-3.92200 Y1.01066
X-3.92100 Y1.01066
X-3.92100 Y1.00866
X-3.92000 Y1.00866
X-3.92000 Y1.00666
X-3.91900 Y1.00666
X-3.91900 Y1.00566
X-3.91800 Y1.00566
X-3.91800 Y1.00466
X-3.91700 Y1.00466
X-3.91700 Y1.00366
X-3.91600 Y1.00366
X-3.91600 Y1.00266
X-3.91500 Y1.00266
X-3.91500 Y1.00166
X-3.91400 Y1.00166
X-3.91400 Y1.00066
X-3.91300 Y1.00066
X-3.91300 Y0.99966
X-3.91200 Y0.99966
X-3.91200 Y0.99866
X-3.91100 Y0.99866
X-3.91100 Y0.99766
X-3.91000 Y0.99766
X-3.91000 Y0.99666
X-3.90900 Y0.99666
X-3.90900 Y0.99566
X-3.90800 Y0.99566
X-3.90800 Y0.99466
X-3.90700 Y0.99466
X-3.90700 Y0.99366
X-3.90600 Y0.99366
X-3.90600 Y0.99266
X-3.90500 Y0.99266
X-3.90500 Y0.99166
X-3.90400 Y0.99166
X-3.90400 Y0.99066
X-3.90300 Y0.99066
X-3.90300 Y0.98966
X-3.90200 Y0.98966
X-3.90200 Y0.98866
X-3.90100 Y0.98866
X-3.90100 Y0.98766
X-3.90000 Y0.98766
X-3.90000 Y0.98666
X-3.89900 Y0.98666
X-3.89900 Y0.98566
X-3.89800 Y0.98566
X-3.89800 Y0.98466
X-3.89700 Y0.98466
X-3.89700 Y0.98366
X-3.89600 Y0.98366
X-3.89600 Y0.98266
X-3.89500 Y0.98266
X-3.89500 Y0.98166
X-3.89400 Y0.98166
X-3.89400 Y0.98066
X-3.89300 Y0.98066
X-3.89300 Y0.97966
X-3.89200 Y0.97966
X-3.89200 Y0.97866
X-3.89100 Y0.97866
X-3.89100 Y0.97766
X-3.89000 Y0.97766
X-3.89000 Y0.97666
X-3.88900 Y0.97666
X-3.88900 Y0.97566
X-3.88800 Y0.97566
X-3.88800 Y0.97466
X-3.88700 Y0.97466
X-3.88700 Y0.97366
X-3.88600 Y0.97366
X-3.88600 Y0.97266
X-3.88500 Y0.97266
X-3.88500 Y0.97166
X-3.88400 Y0.97166
X-3.88400 Y0.97066
X-3.88300 Y0.97066
X-3.88300 Y0.96966
X-3.88200 Y0.96966
X-3.88200 Y0.96866
X-3.88100 Y0.96866
X-3.88100 Y0.96766
X-3.88000 Y0.96766
X-3.88000 Y0.96666
X-3.87900 Y0.96666
X-3.87900 Y0.96566
X-3.87800 Y0.96566
X-3.87800 Y0.96466
X-3.87700 Y0.96466
X-3.87700 Y0.96366
X-3.87600 Y0.96366
X-3.87600 Y0.96266
X-3.87500 Y0.96266
X-3.87500 Y0.96166
X-3.87400 Y0.96166
X-3.87400 Y0.96066
X-3.87300 Y0.96066
X-3.87300 Y0.95966
X-3.87200 Y0.95966
X-3.87200 Y0.95866
X-3.87100 Y0.95866
X-3.87100 Y0.95766
X-3.87000 Y0.95766
X-3.87000 Y0.95666
X-3.86900 Y0.95666
X-3.86900 Y0.95566
X-3.86800 Y0.95566
X-3.86800 Y0.95466
X-3.86700 Y0.95466
X-3.86700 Y0.95366
X-3.86600 Y0.95366
X-3.86600 Y0.95266
X-3.86500 Y0.95266
X-3.86500 Y0.95166
X-3.86400 Y0.95166
X-3.86400 Y0.95066
X-3.86300 Y0.95066
X-3.86300 Y0.94966
X-3.86200 Y0.94966
X-3.86200 Y0.94866
X-3.86100 Y0.94866
X-3.86100 Y0.94766
X-3.86000 Y0.94766
X-3.86000 Y0.94666
X-3.85900 Y0.94666
X-3.85900 Y0.94566
X-3.85800 Y0.94566
X-3.85800 Y0.94466
X-3.85700 Y0.94466
X-3.85700 Y0.94366
X-3.85600 Y0.94366
X-3.85600 Y0.94266
X-3.85500 Y0.94266
X-3.85500 Y0.94166
X-3.85400 Y0.94166
X-3.85400 Y0.94066
X-3.85300 Y0.94066
X-3.85300 Y0.93966
X-3.85200 Y0.93966
X-3.85200 Y0.93866
X-3.85100 Y0.93866
X-3.85100 Y0.93766
X-3.85000 Y0.93766
X-3.85000 Y0.93666
X-3.84900 Y0.93666
X-3.84900 Y0.93566
X-3.84800 Y0.93566
X-3.84800 Y0.93466
X-3.84700 Y0.93466
X-3.84700 Y0.93366
X-3.84600 Y0.93366
X-3.84600 Y0.93266
X-3.84500 Y0.93266
X-3.84500 Y0.93166
X-3.84400 Y0.93166
X-3.84400 Y0.93066
X-3.84300 Y0.93066
X-3.84300 Y0.92966
X-3.84200 Y0.92966
X-3.84200 Y0.92866
X-3.84100 Y0.92866
X-3.84100 Y0.92766
X-3.84000 Y0.92766
X-3.84000 Y0.92666
X-3.83900 Y0.92666
X-3.83900 Y0.92566
X-3.83800 Y0.92566
X-3.83800 Y0.92466
X-3.83700 Y0.92466
X-3.83700 Y0.92366
X-3.83600 Y0.92366
X-3.83600 Y0.92266
X-3.83500 Y0.92266
X-3.83500 Y0.92166
X-3.83400 Y0.92166
X-3.83400 Y0.92066
X-3.83300 Y0.92066
X-3.83300 Y0.91966
X-3.83200 Y0.91966
X-3.83200 Y0.91866
X-3.83100 Y0.91866
X-3.83100 Y0.91766
X-3.83000 Y0.91766
X-3.83000 Y0.91666
X-3.82900 Y0.91666
X-3.82900 Y0.91566
X-3.82800 Y0.91566
X-3.82800 Y0.91466
X-3.82700 Y0.91466
X-3.82700 Y0.91366
X-3.82600 Y0.91366
X-3.82600 Y0.91266
X-3.82500 Y0.91266
X-3.82500 Y0.91166
X-3.82400 Y0.91166
X-3.82400 Y0.91066
X-3.82300 Y0.91066
X-3.82300 Y0.90966
X-3.82200 Y0.90966
X-3.82200 Y0.90866
X-3.82100 Y0.90866
X-3.82100 Y0.90766
X-3.82000 Y0.90766
X-3.82000 Y0.88666
X-3.84000 Y0.88666
X-3.84000 Y0.81766
X-3.75900 Y0.81766
X-3.75900 Y0.88666
X-3.78000 Y0.88666
X-3.78000 Y0.90666
X-3.77900 Y0.90666
X-3.77900 Y0.90766
X-3.77800 Y0.90766
X-3.77800 Y0.90866
X-3.77700 Y0.90866
X-3.77700 Y0.90966
X-3.77600 Y0.90966
X-3.77600 Y0.91066
X-3.77500 Y0.91066
X-3.77500 Y0.91166
X-3.77400 Y0.91166
X-3.77400 Y0.91266
X-3.77300 Y0.91266
X-3.77300 Y0.91366
X-3.77200 Y0.91366
X-3.77200 Y0.91466
X-3.77100 Y0.91466
X-3.77100 Y0.91566
X-3.77000 Y0.91566
X-3.77000 Y0.91666
X-3.76900 Y0.91666
X-3.76900 Y0.91766
X-3.76800 Y0.91766
X-3.76800 Y0.91866
X-3.76700 Y0.91866
X-3.76700 Y0.91966
X-3.76600 Y0.91966
X-3.76600 Y0.92066
X-3.76500 Y0.92066
X-3.76500 Y0.92166
X-3.76400 Y0.92166
X-3.76400 Y0.92266
X-3.76300 Y0.92266
X-3.76300 Y0.92366
X-3.76200 Y0.92366
X-3.76200 Y0.92466
X-3.76100 Y0.92466
X-3.76100 Y0.92566
X-3.76000 Y0.92566
X-3.76000 Y0.92666
X-3.75900 Y0.92666
X-3.75900 Y0.92766
X-3.75800 Y0.92766
X-3.75800 Y0.92866
X-3.75700 Y0.92866
X-3.75700 Y0.92966
X-3.75600 Y0.92966
X-3.75600 Y0.93066
X-3.75500 Y0.93066
X-3.75500 Y0.93166
X-3.75400 Y0.93166
X-3.75400 Y0.93266
X-3.75300 Y0.93266
X-3.75300 Y0.93366
X-3.75200 Y0.93366
X-3.75200 Y0.93466
X-3.75100 Y0.93466
X-3.75100 Y0.93566
X-3.75000 Y0.93566
X-3.75000 Y0.93666
X-3.74900 Y0.93666
X-3.74900 Y0.93766
X-3.74800 Y0.93766
X-3.74800 Y0.93866
X-3.74700 Y0.93866
X-3.74700 Y0.93966
X-3.74600 Y0.93966
X-3.74600 Y0.94066
X-3.74500 Y0.94066
X-3.74500 Y0.94166
X-3.74400 Y0.94166
X-3.74400 Y0.94266
X-3.74300 Y0.94266
X-3.74300 Y0.94366
X-3.74200 Y0.94366
X-3.74200 Y0.94466
X-3.74100 Y0.94466
X-3.74100 Y0.94566
X-3.74000 Y0.94566
X-3.74000 Y0.94666
X-3.73900 Y0.94666
X-3.73900 Y0.94766
X-3.73800 Y0.94766
X-3.73800 Y0.94866
X-3.73700 Y0.94866
X-3.73700 Y0.94966
X-3.73600 Y0.94966
X-3.73600 Y0.95066
X-3.73500 Y0.95066
X-3.73500 Y0.95166
X-3.73400 Y0.95166
X-3.73400 Y0.95266
X-3.73300 Y0.95266
X-3.73300 Y0.95366
X-3.73200 Y0.95366
X-3.73200 Y0.95466
X-3.73100 Y0.95466
X-3.73100 Y0.95666
X-3.73000 Y0.95666
X-3.73000 Y0.95766
X-3.72900 Y0.95766
X-3.72900 Y0.95866
X-3.72800 Y0.95866
X-3.72800 Y0.95966
X-3.72700 Y0.95966
X-3.72700 Y0.96066
X-3.72600 Y0.96066
X-3.72600 Y0.96166
X-3.72500 Y0.96166
X-3.72500 Y0.96266
X-3.72400 Y0.96266
X-3.72400 Y0.96366
X-3.72300 Y0.96366
X-3.72300 Y0.96466
X-3.72200 Y0.96466
X-3.72200 Y0.96566
X-3.72100 Y0.96566
X-3.72100 Y0.96666
X-3.72000 Y0.96666
X-3.72000 Y0.96766
X-3.71900 Y0.96766
X-3.71900 Y0.96866
X-3.71800 Y0.96866
X-3.71800 Y0.96966
X-3.71700 Y0.96966
X-3.71700 Y0.97066
X-3.71600 Y0.97066
X-3.71600 Y0.97166
X-3.71500 Y0.97166
X-3.71500 Y0.97266
X-3.71400 Y0.97266
X-3.71400 Y0.97366
X-3.71300 Y0.97366
X-3.71300 Y0.97466
X-3.71200 Y0.97466
X-3.71200 Y0.97566
X-3.71100 Y0.97566
X-3.71100 Y0.97666
X-3.71000 Y0.97666
X-3.71000 Y0.97766
X-3.70900 Y0.97766
X-3.70900 Y0.97866
X-3.70800 Y0.97866
X-3.70800 Y0.97966
X-3.70700 Y0.97966
X-3.70700 Y0.98066
X-3.70600 Y0.98066
X-3.70600 Y0.98166
X-3.70500 Y0.98166
X-3.70500 Y0.98266
X-3.70400 Y0.98266
X-3.70400 Y0.98366
X-3.70300 Y0.98366
X-3.70300 Y0.98466
X-3.70200 Y0.98466
X-3.70200 Y0.98566
X-3.70100 Y0.98566
X-3.70100 Y0.98666
X-3.70000 Y0.98666
X-3.70000 Y0.98766
X-3.69900 Y0.98766
X-3.69900 Y0.98866
X-3.69800 Y0.98866
X-3.69800 Y0.98966
X-3.69700 Y0.98966
X-3.69700 Y0.99066
X-3.69600 Y0.99066
X-3.69600 Y0.99166
X-3.69500 Y0.99166
X-3.69500 Y0.99266
X-3.69400 Y0.99266
X-3.69400 Y0.99366
X-3.69300 Y0.99366
X-3.69300 Y0.99466
X-3.69200 Y0.99466
X-3.69200 Y0.99666
X-3.69100 Y0.99666
X-3.69100 Y0.99866
X-3.69000 Y0.99866
X-3.69000 Y1.00266
X-3.68900 Y1.00266
X-3.68900 Y1.33466
X-3.68800 Y1.33466
X-3.68800 Y1.33566
X-3.68700 Y1.33566
X-3.68700 Y1.33666
X-3.68600 Y1.33666
X-3.68600 Y1.33766
X-3.68500 Y1.33766
X-3.68500 Y1.33866
X-3.68400 Y1.33866
X-3.68400 Y1.33966
X-3.68300 Y1.33966
X-3.68300 Y1.34066
X-3.68200 Y1.34066
X-3.68200 Y1.34166
X-3.68100 Y1.34166
X-3.68100 Y1.34266
X-3.68000 Y1.34266
X-3.68000 Y1.34366
X-3.67900 Y1.34366
X-3.67900 Y1.34466
X-3.67800 Y1.34466
X-3.67800 Y1.34566
X-3.67700 Y1.34566
X-3.67700 Y1.34666
X-3.67600 Y1.34666
X-3.67600 Y1.34766
X-3.67500 Y1.34766
X-3.67500 Y1.34866
X-3.67400 Y1.34866
X-3.67400 Y1.34966
X-3.67300 Y1.34966
X-3.67300 Y1.35066
X-3.67200 Y1.35066
X-3.67200 Y1.35166
X-3.67100 Y1.35166
X-3.67100 Y1.35266
X-3.67000 Y1.35266
X-3.67000 Y1.35366
X-3.66900 Y1.35366
X-3.66900 Y1.35466
X-3.66800 Y1.35466
X-3.66800 Y1.35566
X-3.66700 Y1.35566
X-3.66700 Y1.35666
X-3.66600 Y1.35666
X-3.66600 Y1.35766
X-3.66500 Y1.35766
X-3.66500 Y1.35866
X-3.66400 Y1.35866
X-3.66400 Y1.35966
X-3.66300 Y1.35966
X-3.66300 Y1.36066
X-3.66200 Y1.36066
X-3.66200 Y1.36166
X-3.66100 Y1.36166
X-3.66100 Y1.36266
X-3.66000 Y1.36266
X-3.66000 Y1.36366
X-3.65900 Y1.36366
X-3.65900 Y1.36466
X-3.65800 Y1.36466
X-3.65800 Y1.36566
X-3.65700 Y1.36566
X-3.65700 Y1.36666
X-3.65600 Y1.36666
X-3.65600 Y1.36766
X-3.65500 Y1.36766
X-3.65500 Y1.36866
X-3.65400 Y1.36866
X-3.65400 Y1.36966
X-3.65300 Y1.36966
X-3.65300 Y1.37066
X-3.65200 Y1.37066
X-3.65200 Y1.37166
X-3.65100 Y1.37166
X-3.65100 Y1.37266
X-3.65000 Y1.37266
X-3.65000 Y1.37366
X-3.64900 Y1.37366
X-3.64900 Y1.37466
X-3.64800 Y1.37466
X-3.64800 Y1.37566
X-3.64700 Y1.37566
X-3.64700 Y1.37666
X-3.64600 Y1.37666
X-3.64600 Y1.37766
X-3.64500 Y1.37766
X-3.64500 Y1.37866
X-3.64400 Y1.37866
X-3.64400 Y1.37966
X-3.64300 Y1.37966
X-3.64300 Y1.38066
X-3.64200 Y1.38066
X-3.64200 Y1.38166
X-3.64100 Y1.38166
X-3.64100 Y1.38266
X-3.64000 Y1.38266
X-3.64000 Y1.38366
X-3.63900 Y1.38366
X-3.63900 Y1.38466
X-3.63800 Y1.38466
X-3.63800 Y1.38566
X-3.63700 Y1.38566
X-3.63700 Y1.38666
X-3.63600 Y1.38666
X-3.63600 Y1.38766
X-3.63500 Y1.38766
X-3.63500 Y1.38866
X-3.63400 Y1.38866
X-3.63400 Y1.38966
X-3.63300 Y1.38966
X-3.63300 Y1.39066
X-3.63200 Y1.39066
X-3.63200 Y1.39166
X-3.63100 Y1.39166
X-3.63100 Y1.39266
X-3.63000 Y1.39266
X-3.63000 Y1.39366
X-3.62900 Y1.39366
X-3.62900 Y1.39466
X-3.62800 Y1.39466
X-3.62800 Y1.39566
X-3.62700 Y1.39566
X-3.62700 Y1.39666
X-3.62600 Y1.39666
X-3.62600 Y1.39766
X-3.62500 Y1.39766
X-3.62500 Y1.39866
X-3.62400 Y1.39866
X-3.62400 Y1.39966
X-3.62300 Y1.39966
X-3.62300 Y1.40066
X-3.62200 Y1.40066
X-3.62200 Y1.40166
X-3.62100 Y1.40166
X-3.62100 Y1.40266
X-3.62000 Y1.40266
X-3.62000 Y1.40366
X-3.61900 Y1.40366
X-3.61900 Y1.40466
X-3.61800 Y1.40466
X-3.61800 Y1.40566
X-3.61700 Y1.40566
X-3.61700 Y1.40666
X-3.61600 Y1.40666
X-3.61600 Y1.40766
X-3.61500 Y1.40766
X-3.61500 Y1.40866
X-3.61400 Y1.40866
X-3.61400 Y1.40966
X-3.61300 Y1.40966
X-3.61300 Y1.41066
X-3.61200 Y1.41066
X-3.61200 Y1.41166
X-3.61100 Y1.41166
X-3.61100 Y1.41266
X-3.61000 Y1.41266
X-3.61000 Y1.41366
X-3.60900 Y1.41366
X-3.60900 Y1.41466
X-3.60800 Y1.41466
X-3.60800 Y1.41566
X-3.60700 Y1.41566
X-3.60700 Y1.41666
X-3.60600 Y1.41666
X-3.60600 Y1.41766
X-3.60500 Y1.41766
X-3.60500 Y1.41866
X-3.60400 Y1.41866
X-3.60400 Y1.41966
X-3.60300 Y1.41966
X-3.60300 Y1.42066
X-3.60200 Y1.42066
X-3.60200 Y1.42166
X-3.60100 Y1.42166
X-3.60100 Y1.42266
X-3.60000 Y1.42266
X-3.60000 Y1.42366
X-3.59900 Y1.42366
X-3.59900 Y1.42466
X-3.59800 Y1.42466
X-3.59800 Y1.42566
X-3.59700 Y1.42566
X-3.59700 Y1.42666
X-3.59600 Y1.42666
X-3.59600 Y1.42766
X-3.59500 Y1.42766
X-3.59500 Y1.42866
X-3.59400 Y1.42866
X-3.59400 Y1.42966
X-3.59300 Y1.42966
X-3.59300 Y1.43066
X-3.59200 Y1.43066
X-3.59200 Y1.43166
X-3.59100 Y1.43166
X-3.59100 Y1.43266
X-3.59000 Y1.43266
X-3.59000 Y1.43366
X-3.58900 Y1.43366
X-3.58900 Y1.43466
X-3.58800 Y1.43466
X-3.58800 Y1.43566
X-3.58700 Y1.43566
X-3.58700 Y1.43666
X-3.58600 Y1.43666
X-3.58600 Y1.43766
X-3.58500 Y1.43766
X-3.58500 Y1.43866
X-3.58400 Y1.43866
X-3.58400 Y1.43966
X-3.58300 Y1.43966
X-3.58300 Y1.44066
X-3.58200 Y1.44066
X-3.58200 Y1.44166
X-3.58100 Y1.44166
X-3.58100 Y1.44266
X-3.58000 Y1.44266
X-3.58000 Y1.44366
X-3.57900 Y1.44366
X-3.57900 Y1.44466
X-3.57800 Y1.44466
X-3.57800 Y1.44566
X-3.57700 Y1.44566
X-3.57700 Y1.44666
X-3.57600 Y1.44666
X-3.57600 Y1.44766
X-3.57500 Y1.44766
X-3.57500 Y1.44866
X-3.57400 Y1.44866
X-3.57400 Y1.44966
X-3.57300 Y1.44966
X-3.57300 Y1.45066
X-3.57200 Y1.45066
X-3.57200 Y1.45166
X-3.57100 Y1.45166
X-3.57100 Y1.45266
X-3.57000 Y1.45266
X-3.57000 Y1.45366
X-3.56900 Y1.45366
X-3.56900 Y1.45466
X-3.56800 Y1.45466
X-3.56800 Y1.45566
X-3.56700 Y1.45566
X-3.56700 Y1.45666
X-3.56600 Y1.45666
X-3.56600 Y1.45766
X-3.56500 Y1.45766
X-3.56500 Y1.45866
X-3.56400 Y1.45866
X-3.56400 Y1.45966
X-3.56300 Y1.45966
X-3.56300 Y1.46066
X-3.56200 Y1.46066
X-3.56200 Y1.46166
X-3.56100 Y1.46166
X-3.56100 Y1.46266
X-3.56000 Y1.46266
X-3.56000 Y1.46366
X-3.55900 Y1.46366
X-3.55900 Y1.46466
X-3.55800 Y1.46466
X-3.55800 Y1.46566
X-3.55700 Y1.46566
X-3.55700 Y1.46666
X-3.55600 Y1.46666
X-3.55600 Y1.46766
X-3.55500 Y1.46766
X-3.55500 Y1.46866
X-3.55400 Y1.46866
X-3.55400 Y1.46966
X-3.55300 Y1.46966
X-3.55300 Y1.47066
X-3.55200 Y1.47066
X-3.55200 Y1.47166
X-3.55100 Y1.47166
X-3.55100 Y1.47266
X-3.55000 Y1.47266
X-3.55000 Y1.47366
X-3.54900 Y1.47366
X-3.54900 Y1.47466
X-3.54800 Y1.47466
X-3.54800 Y1.47566
X-3.54700 Y1.47566
X-3.54700 Y1.47666
X-3.54600 Y1.47666
X-3.54600 Y1.47766
X-3.54500 Y1.47766
X-3.54500 Y1.47866
X-3.54400 Y1.47866
X-3.54400 Y1.47966
X-3.54300 Y1.47966
X-3.54300 Y1.48066
X-3.54200 Y1.48066
X-3.54200 Y1.48166
X-3.54100 Y1.48166
X-3.54100 Y1.48266
X-3.54000 Y1.48266
X-3.54000 Y1.48366
X-3.53900 Y1.48366
X-3.53900 Y1.48466
X-3.53800 Y1.48466
X-3.53800 Y1.48566
X-3.53700 Y1.48566
X-3.53700 Y1.48666
X-3.53600 Y1.48666
X-3.53600 Y1.48766
X-3.53500 Y1.48766
X-3.53500 Y1.48866
X-3.53400 Y1.48866
X-3.53400 Y1.48966
X-3.53300 Y1.48966
X-3.53300 Y1.49066
X-3.53200 Y1.49066
X-3.53200 Y1.49166
X-3.53100 Y1.49166
X-3.53100 Y1.49266
X-3.53000 Y1.49266
X-3.53000 Y1.49366
X-3.52900 Y1.49366
X-3.52900 Y1.49466
X-3.52800 Y1.49466
X-3.52800 Y1.49566
X-3.52700 Y1.49566
X-3.52700 Y1.49666
X-3.52600 Y1.49666
X-3.52600 Y1.49766
X-3.52500 Y1.49766
X-3.52500 Y1.49866
X-3.52400 Y1.49866
X-3.52400 Y1.49966
X-3.52300 Y1.49966
X-3.52300 Y1.50066
X-3.52200 Y1.50066
X-3.52200 Y1.50166
X-3.52100 Y1.50166
X-3.52100 Y1.50266
X-3.52000 Y1.50266
X-3.52000 Y1.50366
X-3.51900 Y1.50366
X-3.51900 Y1.50466
X-3.51800 Y1.50466
X-3.51800 Y1.50566
X-3.51700 Y1.50566
X-3.51700 Y1.50666
X-3.51600 Y1.50666
X-3.51600 Y1.50766
X-3.51500 Y1.50766
X-3.51500 Y1.50866
X-3.51400 Y1.50866
X-3.51400 Y1.50966
X-3.51300 Y1.50966
X-3.51300 Y1.51066
X-3.51200 Y1.51066
X-3.51200 Y1.51166
X-3.51100 Y1.51166
X-3.51100 Y1.51266
X-3.51000 Y1.51266
X-3.51000 Y1.51366
X-3.50900 Y1.51366
X-3.50900 Y1.51466
X-3.50800 Y1.51466
X-3.50800 Y1.51566
X-3.50700 Y1.51566
X-3.50700 Y1.51666
X-3.50600 Y1.51666
X-3.50600 Y1.51766
X-3.50500 Y1.51766
X-3.50500 Y1.51866
X-3.50400 Y1.51866
X-3.50400 Y1.51966
X-3.50300 Y1.51966
X-3.50300 Y1.52066
X-3.50200 Y1.52066
X-3.50200 Y1.52166
X-3.50100 Y1.52166
X-3.50100 Y1.52266
X-3.50000 Y1.52266
X-3.50000 Y1.52366
X-3.49900 Y1.52366
X-3.49900 Y1.52466
X-3.49800 Y1.52466
X-3.49800 Y1.52566
X-3.49700 Y1.52566
X-3.49700 Y1.52666
X-3.49600 Y1.52666
X-3.49600 Y1.52766
X-3.49500 Y1.52766
X-3.49500 Y1.52866
X-3.49400 Y1.52866
X-3.49400 Y1.52966
X-3.49300 Y1.52966
X-3.49300 Y1.53066
X-3.49200 Y1.53066
X-3.49200 Y1.53166
X-3.49100 Y1.53166
X-3.49100 Y1.53266
X-3.49000 Y1.53266
X-3.49000 Y1.53366
X-3.48900 Y1.53366
X-3.48900 Y1.53466
X-3.48800 Y1.53466
X-3.48800 Y1.53566
X-3.48700 Y1.53566
X-3.48700 Y1.53666
X-3.48600 Y1.53666
X-3.48600 Y1.53766
X-3.48500 Y1.53766
X-3.48500 Y1.53866
X-3.48400 Y1.53866
X-3.48400 Y1.53966
X-3.48300 Y1.53966
X-3.48300 Y1.54066
X-3.48200 Y1.54066
X-3.48200 Y1.54166
X-3.48100 Y1.54166
X-3.48100 Y1.54266
X-3.48000 Y1.54266
X-3.48000 Y1.54366
X-3.47900 Y1.54366
X-3.47900 Y1.54466
X-3.47800 Y1.54466
X-3.47800 Y1.54566
X-3.47700 Y1.54566
X-3.47700 Y1.54666
X-3.47600 Y1.54666
X-3.47600 Y1.54766
X-3.47500 Y1.54766
X-3.47500 Y1.54866
X-3.47400 Y1.54866
X-3.47400 Y1.54966
X-3.47300 Y1.54966
X-3.47300 Y1.55066
X-3.47200 Y1.55066
X-3.47200 Y1.55166
X-3.47100 Y1.55166
X-3.47100 Y1.55266
X-3.47000 Y1.55266
X-3.47000 Y1.55366
X-3.46900 Y1.55366
X-3.46900 Y1.55466
X-3.46800 Y1.55466
X-3.46800 Y1.55566
X-3.46700 Y1.55566
X-3.46700 Y1.55666
X-3.46600 Y1.55666
X-3.46600 Y1.55766
X-3.46500 Y1.55766
X-3.46500 Y1.55866
X-3.46400 Y1.55866
X-3.46400 Y1.55966
X-3.46300 Y1.55966
X-3.46300 Y1.56066
X-3.46200 Y1.56066
X-3.46200 Y1.56166
X-3.46100 Y1.56166
X-3.46100 Y1.56266
X-3.46000 Y1.56266
X-3.46000 Y1.56366
X-3.45900 Y1.56366
X-3.45900 Y1.56466
X-3.45800 Y1.56466
X-3.45800 Y1.56566
X-3.45700 Y1.56566
X-3.45700 Y1.56666
X-3.45600 Y1.56666
X-3.45600 Y1.56766
X-3.45500 Y1.56766
X-3.45500 Y1.56866
X-3.45400 Y1.56866
X-3.45400 Y1.56966
X-3.45300 Y1.56966
X-3.45300 Y1.57066
X-3.45200 Y1.57066
X-3.45200 Y1.57166
X-3.45100 Y1.57166
X-3.45100 Y1.57266
X-3.45000 Y1.57266
X-3.45000 Y1.57366
X-3.44900 Y1.57366
X-3.44900 Y1.57466
X-3.44800 Y1.57466
X-3.44800 Y1.57566
X-3.44700 Y1.57566
X-3.44700 Y1.57666
X-3.44600 Y1.57666
X-3.44600 Y1.57766
X-3.44500 Y1.57766
X-3.44500 Y1.57866
X-3.44400 Y1.57866
X-3.44400 Y1.57966
X-3.44300 Y1.57966
X-3.44300 Y1.58066
X-3.44200 Y1.58066
X-3.44200 Y1.58166
X-3.44100 Y1.58166
X-3.44100 Y1.58266
X-3.44000 Y1.58266
X-3.44000 Y1.58366
X-3.43900 Y1.58366
X-3.43900 Y1.58466
X-3.43800 Y1.58466
X-3.43800 Y1.58566
X-3.43700 Y1.58566
X-3.43700 Y1.58666
X-3.43600 Y1.58666
X-3.43600 Y1.58766
X-3.43500 Y1.58766
X-3.43500 Y1.58866
X-3.43400 Y1.58866
X-3.43400 Y1.58966
X-3.43300 Y1.58966
X-3.43300 Y1.59066
X-3.43200 Y1.59066
X-3.43200 Y1.59166
X-3.43100 Y1.59166
X-3.43100 Y1.59266
X-3.43000 Y1.59266
X-3.43000 Y1.59366
X-3.42900 Y1.59366
X-3.42900 Y1.59466
X-3.42800 Y1.59466
X-3.42800 Y1.59566
X-3.42700 Y1.59566
X-3.42700 Y1.59666
X-3.42600 Y1.59666
X-3.42600 Y1.59766
X-3.42500 Y1.59766
X-3.42500 Y1.59866
X-3.42400 Y1.59866
X-3.42400 Y1.59966
X-3.42300 Y1.59966
X-3.42300 Y1.60066
X-3.42200 Y1.60066
X-3.42200 Y1.60166
X-3.42100 Y1.60166
X-3.42100 Y1.60266
X-3.42000 Y1.60266
X-3.42000 Y1.60366
X-3.41900 Y1.60366
X-3.41900 Y1.60466
X-3.41800 Y1.60466
X-3.41800 Y1.60566
X-3.41700 Y1.60566
X-3.41700 Y1.60666
X-3.41600 Y1.60666
X-3.41600 Y1.60766
X-3.41500 Y1.60766
X-3.41500 Y1.60866
X-3.41400 Y1.60866
X-3.41400 Y1.60966
X-3.41300 Y1.60966
X-3.41300 Y1.61066
X-3.41200 Y1.61066
X-3.41200 Y1.61166
X-3.41100 Y1.61166
X-3.41100 Y1.61266
X-3.41000 Y1.61266
X-3.41000 Y1.61366
X-3.40900 Y1.61366
X-3.40900 Y1.61466
X-3.40800 Y1.61466
X-3.40800 Y1.61566
X-3.40700 Y1.61566
X-3.40700 Y1.61666
X-3.40600 Y1.61666
X-3.40600 Y1.61766
X-3.39300 Y1.61766
X-3.39300 Y1.61866
X-3.38800 Y1.61866
X-3.38800 Y1.61966
X-3.38500 Y1.61966
X-3.38500 Y1.62066
X-3.38300 Y1.62066
X-3.38300 Y1.62166
X-3.38200 Y1.62166
X-3.38200 Y1.62266
X-3.38000 Y1.62266
X-3.38000 Y1.62366
X-3.37800 Y1.62366
X-3.37800 Y1.62466
X-3.37600 Y1.62466
X-3.37600 Y1.62566
X-3.37500 Y1.62566
X-3.37500 Y1.62666
X-3.37400 Y1.62666
X-3.37400 Y1.62766
X-3.37300 Y1.62766
X-3.37300 Y1.62866
X-3.37200 Y1.62866
X-3.37200 Y1.62966
X-3.37100 Y1.62966
X-3.37100 Y1.63166
X-3.37000 Y1.63166
X-3.37000 Y1.63266
X-3.36900 Y1.63266
X-3.36900 Y1.63466
X-3.36800 Y1.63466
X-3.36800 Y1.63666
X-3.36700 Y1.63666
X-3.36700 Y1.63966
X-3.36600 Y1.63966
X-3.36600 Y1.64266
X-3.36500 Y1.64266
X-3.36500 Y1.66166
X-3.36600 Y1.66166
X-3.36600 Y1.66466
X-3.36700 Y1.66466
X-3.36700 Y1.66766
X-3.36800 Y1.66766
X-3.36800 Y1.66966
X-3.36900 Y1.66966
X-3.36900 Y1.67166
X-3.37000 Y1.67166
X-3.37000 Y1.67266
X-3.37100 Y1.67266
X-3.37100 Y1.67466
X-3.37200 Y1.67466
X-3.37200 Y1.67566
X-3.37300 Y1.67566
X-3.37300 Y1.67666
X-3.37400 Y1.67666
X-3.37400 Y1.67766
X-3.37500 Y1.67766
X-3.37500 Y1.67866
X-3.37600 Y1.67866
X-3.37600 Y1.67966
X-3.37800 Y1.67966
X-3.37800 Y1.68066
X-3.38000 Y1.68066
X-3.38000 Y1.68166
X-3.38200 Y1.68166
X-3.38200 Y1.68266
X-3.38300 Y1.68266
X-3.38300 Y1.68366
X-3.38500 Y1.68366
X-3.38500 Y1.68466
X-3.38800 Y1.68466
X-3.38800 Y1.68566
X-3.39300 Y1.68566
X-3.39300 Y1.68666
X-3.40600 Y1.68666
X-3.40600 Y1.68566
X-3.41100 Y1.68566
X-3.41100 Y1.68466
X-3.41400 Y1.68466
X-3.41400 Y1.68366
X-3.41600 Y1.68366
X-3.41600 Y1.68266
X-3.41700 Y1.68266
X-3.41700 Y1.68166
X-3.41900 Y1.68166
X-3.41900 Y1.68066
X-3.42100 Y1.68066
X-3.42100 Y1.67966
X-3.42300 Y1.67966
X-3.42300 Y1.67866
X-3.42400 Y1.67866
X-3.42400 Y1.67766
X-3.42500 Y1.67766
X-3.42500 Y1.67666
X-3.42600 Y1.67666
X-3.42600 Y1.67566
X-3.42700 Y1.67566
X-3.42700 Y1.67466
X-3.42800 Y1.67466
X-3.42800 Y1.67266
X-3.42900 Y1.67266
X-3.42900 Y1.67166
X-3.43000 Y1.67166
X-3.43000 Y1.66966
X-3.43100 Y1.66966
X-3.43100 Y1.66766
X-3.43200 Y1.66766
X-3.43200 Y1.66466
X-3.43300 Y1.66466
X-3.43300 Y1.66166
X-3.43400 Y1.66166
X-3.43400 Y1.64566
X-3.43500 Y1.64566
X-3.43500 Y1.64466
X-3.43600 Y1.64466
X-3.43600 Y1.64366
X-3.43700 Y1.64366
X-3.43700 Y1.64266
X-3.43800 Y1.64266
X-3.43800 Y1.64166
X-3.43900 Y1.64166
X-3.43900 Y1.64066
X-3.44000 Y1.64066
X-3.44000 Y1.63966
X-3.44100 Y1.63966
X-3.44100 Y1.63866
X-3.44200 Y1.63866
X-3.44200 Y1.63766
X-3.44300 Y1.63766
X-3.44300 Y1.63666
X-3.44400 Y1.63666
X-3.44400 Y1.63566
X-3.44500 Y1.63566
X-3.44500 Y1.63466
X-3.44600 Y1.63466
X-3.44600 Y1.63366
X-3.44700 Y1.63366
X-3.44700 Y1.63266
X-3.44800 Y1.63266
X-3.44800 Y1.63166
X-3.44900 Y1.63166
X-3.44900 Y1.63066
X-3.45000 Y1.63066
X-3.45000 Y1.62966
X-3.45100 Y1.62966
X-3.45100 Y1.62866
X-3.45200 Y1.62866
X-3.45200 Y1.62766
X-3.45300 Y1.62766
X-3.45300 Y1.62666
X-3.45400 Y1.62666
X-3.45400 Y1.62566
X-3.45500 Y1.62566
X-3.45500 Y1.62466
X-3.45600 Y1.62466
X-3.45600 Y1.62366
X-3.45700 Y1.62366
X-3.45700 Y1.62266
X-3.45800 Y1.62266
X-3.45800 Y1.62166
X-3.45900 Y1.62166
X-3.45900 Y1.62066
X-3.46000 Y1.62066
X-3.46000 Y1.61966
X-3.46100 Y1.61966
X-3.46100 Y1.61866
X-3.46200 Y1.61866
X-3.46200 Y1.61766
X-3.46300 Y1.61766
X-3.46300 Y1.61666
X-3.46400 Y1.61666
X-3.46400 Y1.61566
X-3.46500 Y1.61566
X-3.46500 Y1.61466
X-3.46600 Y1.61466
X-3.46600 Y1.61366
X-3.46700 Y1.61366
X-3.46700 Y1.61266
X-3.46800 Y1.61266
X-3.46800 Y1.61166
X-3.46900 Y1.61166
X-3.46900 Y1.61066
X-3.47000 Y1.61066
X-3.47000 Y1.60966
X-3.47100 Y1.60966
X-3.47100 Y1.60866
X-3.47200 Y1.60866
X-3.47200 Y1.60766
X-3.47300 Y1.60766
X-3.47300 Y1.60666
X-3.47400 Y1.60666
X-3.47400 Y1.60566
X-3.47500 Y1.60566
X-3.47500 Y1.60466
X-3.47600 Y1.60466
X-3.47600 Y1.60366
X-3.47700 Y1.60366
X-3.47700 Y1.60266
X-3.47800 Y1.60266
X-3.47800 Y1.60166
X-3.47900 Y1.60166
X-3.47900 Y1.60066
X-3.48000 Y1.60066
X-3.48000 Y1.59966
X-3.48100 Y1.59966
X-3.48100 Y1.59866
X-3.48200 Y1.59866
X-3.48200 Y1.59766
X-3.48300 Y1.59766
X-3.48300 Y1.59666
X-3.48400 Y1.59666
X-3.48400 Y1.59566
X-3.48500 Y1.59566
X-3.48500 Y1.59466
X-3.48600 Y1.59466
X-3.48600 Y1.59366
X-3.48700 Y1.59366
X-3.48700 Y1.59266
X-3.48800 Y1.59266
X-3.48800 Y1.59166
X-3.48900 Y1.59166
X-3.48900 Y1.59066
X-3.49000 Y1.59066
X-3.49000 Y1.58966
X-3.49100 Y1.58966
X-3.49100 Y1.58866
X-3.49200 Y1.58866
X-3.49200 Y1.58766
X-3.49300 Y1.58766
X-3.49300 Y1.58666
X-3.49400 Y1.58666
X-3.49400 Y1.58566
X-3.49500 Y1.58566
X-3.49500 Y1.58466
X-3.49600 Y1.58466
X-3.49600 Y1.58366
X-3.49700 Y1.58366
X-3.49700 Y1.58266
X-3.49800 Y1.58266
X-3.49800 Y1.58166
X-3.49900 Y1.58166
X-3.49900 Y1.58066
X-3.50000 Y1.58066
X-3.50000 Y1.57966
X-3.50100 Y1.57966
X-3.50100 Y1.57866
X-3.50200 Y1.57866
X-3.50200 Y1.57766
X-3.50300 Y1.57766
X-3.50300 Y1.57666
X-3.50400 Y1.57666
X-3.50400 Y1.57566
X-3.50500 Y1.57566
X-3.50500 Y1.57466
X-3.50600 Y1.57466
X-3.50600 Y1.57366
X-3.50700 Y1.57366
X-3.50700 Y1.57266
X-3.50800 Y1.57266
X-3.50800 Y1.57166
X-3.50900 Y1.57166
X-3.50900 Y1.57066
X-3.51000 Y1.57066
X-3.51000 Y1.56966
X-3.51100 Y1.56966
X-3.51100 Y1.56866
X-3.51200 Y1.56866
X-3.51200 Y1.56766
X-3.51300 Y1.56766
X-3.51300 Y1.56666
X-3.51400 Y1.56666
X-3.51400 Y1.56566
X-3.51500 Y1.56566
X-3.51500 Y1.56466
X-3.51600 Y1.56466
X-3.51600 Y1.56366
X-3.51700 Y1.56366
X-3.51700 Y1.56266
X-3.51800 Y1.56266
X-3.51800 Y1.56166
X-3.51900 Y1.56166
X-3.51900 Y1.56066
X-3.52000 Y1.56066
X-3.52000 Y1.55966
X-3.52100 Y1.55966
X-3.52100 Y1.55866
X-3.52200 Y1.55866
X-3.52200 Y1.55766
X-3.52300 Y1.55766
X-3.52300 Y1.55666
X-3.52400 Y1.55666
X-3.52400 Y1.55566
X-3.52500 Y1.55566
X-3.52500 Y1.55466
X-3.52600 Y1.55466
X-3.52600 Y1.55366
X-3.52700 Y1.55366
X-3.52700 Y1.55266
X-3.52800 Y1.55266
X-3.52800 Y1.55166
X-3.52900 Y1.55166
X-3.52900 Y1.55066
X-3.53000 Y1.55066
X-3.53000 Y1.54966
X-3.53100 Y1.54966
X-3.53100 Y1.54866
X-3.53200 Y1.54866
X-3.53200 Y1.54766
X-3.53300 Y1.54766
X-3.53300 Y1.54666
X-3.53400 Y1.54666
X-3.53400 Y1.54566
X-3.53500 Y1.54566
X-3.53500 Y1.54466
X-3.53600 Y1.54466
X-3.53600 Y1.54366
X-3.53700 Y1.54366
X-3.53700 Y1.54266
X-3.53800 Y1.54266
X-3.53800 Y1.54166
X-3.53900 Y1.54166
X-3.53900 Y1.54066
X-3.54000 Y1.54066
X-3.54000 Y1.53966
X-3.54100 Y1.53966
X-3.54100 Y1.53866
X-3.54200 Y1.53866
X-3.54200 Y1.53766
X-3.54300 Y1.53766
X-3.54300 Y1.53666
X-3.54400 Y1.53666
X-3.54400 Y1.53566
X-3.54500 Y1.53566
X-3.54500 Y1.53466
X-3.54600 Y1.53466
X-3.54600 Y1.53366
X-3.54700 Y1.53366
X-3.54700 Y1.53266
X-3.54800 Y1.53266
X-3.54800 Y1.53166
X-3.54900 Y1.53166
X-3.54900 Y1.53066
X-3.55000 Y1.53066
X-3.55000 Y1.52966
X-3.55100 Y1.52966
X-3.55100 Y1.52866
X-3.55200 Y1.52866
X-3.55200 Y1.52766
X-3.55300 Y1.52766
X-3.55300 Y1.52666
X-3.55400 Y1.52666
X-3.55400 Y1.52566
X-3.55500 Y1.52566
X-3.55500 Y1.52466
X-3.55600 Y1.52466
X-3.55600 Y1.52366
X-3.55700 Y1.52366
X-3.55700 Y1.52266
X-3.55800 Y1.52266
X-3.55800 Y1.52166
X-3.55900 Y1.52166
X-3.55900 Y1.52066
X-3.56000 Y1.52066
X-3.56000 Y1.51966
X-3.56100 Y1.51966
X-3.56100 Y1.51866
X-3.56200 Y1.51866
X-3.56200 Y1.51766
X-3.56300 Y1.51766
X-3.56300 Y1.51666
X-3.56400 Y1.51666
X-3.56400 Y1.51566
X-3.56500 Y1.51566
X-3.56500 Y1.51466
X-3.56600 Y1.51466
X-3.56600 Y1.51366
X-3.56700 Y1.51366
X-3.56700 Y1.51266
X-3.56800 Y1.51266
X-3.56800 Y1.51166
X-3.56900 Y1.51166
X-3.56900 Y1.51066
X-3.57000 Y1.51066
X-3.57000 Y1.50966
X-3.57100 Y1.50966
X-3.57100 Y1.50866
X-3.57200 Y1.50866
X-3.57200 Y1.50766
X-3.57300 Y1.50766
X-3.57300 Y1.50666
X-3.57400 Y1.50666
X-3.57400 Y1.50566
X-3.57500 Y1.50566
X-3.57500 Y1.50466
X-3.57600 Y1.50466
X-3.57600 Y1.50366
X-3.57700 Y1.50366
X-3.57700 Y1.50266
X-3.57800 Y1.50266
X-3.57800 Y1.50166
X-3.57900 Y1.50166
X-3.57900 Y1.50066
X-3.58000 Y1.50066
X-3.58000 Y1.49966
X-3.58100 Y1.49966
X-3.58100 Y1.49866
X-3.58200 Y1.49866
X-3.58200 Y1.49766
X-3.58300 Y1.49766
X-3.58300 Y1.49666
X-3.58400 Y1.49666
X-3.58400 Y1.49566
X-3.58500 Y1.49566
X-3.58500 Y1.49466
X-3.58600 Y1.49466
X-3.58600 Y1.49366
X-3.58700 Y1.49366
X-3.58700 Y1.49266
X-3.58800 Y1.49266
X-3.58800 Y1.49166
X-3.58900 Y1.49166
X-3.58900 Y1.49066
X-3.59000 Y1.49066
X-3.59000 Y1.48966
X-3.59100 Y1.48966
X-3.59100 Y1.48866
X-3.59200 Y1.48866
X-3.59200 Y1.48766
X-3.59300 Y1.48766
X-3.59300 Y1.48666
X-3.59400 Y1.48666
X-3.59400 Y1.48566
X-3.59500 Y1.48566
X-3.59500 Y1.48466
X-3.59600 Y1.48466
X-3.59600 Y1.48366
X-3.59700 Y1.48366
X-3.59700 Y1.48266
X-3.59800 Y1.48266
X-3.59800 Y1.48166
X-3.59900 Y1.48166
X-3.59900 Y1.48066
X-3.60000 Y1.48066
X-3.60000 Y1.47966
X-3.60100 Y1.47966
X-3.60100 Y1.47866
X-3.60200 Y1.47866
X-3.60200 Y1.47766
X-3.60300 Y1.47766
X-3.60300 Y1.47666
X-3.60400 Y1.47666
X-3.60400 Y1.47566
X-3.60500 Y1.47566
X-3.60500 Y1.47466
X-3.60600 Y1.47466
X-3.60600 Y1.47366
X-3.60700 Y1.47366
X-3.60700 Y1.47266
X-3.60800 Y1.47266
X-3.60800 Y1.47166
X-3.60900 Y1.47166
X-3.60900 Y1.47066
X-3.61000 Y1.47066
X-3.61000 Y1.46966
X-3.61100 Y1.46966
X-3.61100 Y1.46866
X-3.61200 Y1.46866
X-3.61200 Y1.46766
X-3.61300 Y1.46766
X-3.61300 Y1.46666
X-3.61400 Y1.46666
X-3.61400 Y1.46566
X-3.61500 Y1.46566
X-3.61500 Y1.46466
X-3.61600 Y1.46466
X-3.61600 Y1.46366
X-3.61700 Y1.46366
X-3.61700 Y1.46266
X-3.61800 Y1.46266
X-3.61800 Y1.46166
X-3.61900 Y1.46166
X-3.61900 Y1.46066
X-3.62000 Y1.46066
X-3.62000 Y1.45966
X-3.62100 Y1.45966
X-3.62100 Y1.45866
X-3.62200 Y1.45866
X-3.62200 Y1.45766
X-3.62300 Y1.45766
X-3.62300 Y1.45666
X-3.62400 Y1.45666
X-3.62400 Y1.45566
X-3.62500 Y1.45566
X-3.62500 Y1.45466
X-3.62600 Y1.45466
X-3.62600 Y1.45366
X-3.62700 Y1.45366
X-3.62700 Y1.45266
X-3.62800 Y1.45266
X-3.62800 Y1.45166
X-3.62900 Y1.45166
X-3.62900 Y1.45066
X-3.63000 Y1.45066
X-3.63000 Y1.44966
X-3.63100 Y1.44966
X-3.63100 Y1.44866
X-3.63200 Y1.44866
X-3.63200 Y1.44766
X-3.63300 Y1.44766
X-3.63300 Y1.44666
X-3.63400 Y1.44666
X-3.63400 Y1.44566
X-3.63500 Y1.44566
X-3.63500 Y1.44466
X-3.63600 Y1.44466
X-3.63600 Y1.44366
X-3.63700 Y1.44366
X-3.63700 Y1.44266
X-3.63800 Y1.44266
X-3.63800 Y1.44166
X-3.63900 Y1.44166
X-3.63900 Y1.44066
X-3.64000 Y1.44066
X-3.64000 Y1.43966
X-3.64100 Y1.43966
X-3.64100 Y1.43866
X-3.64200 Y1.43866
X-3.64200 Y1.43766
X-3.64300 Y1.43766
X-3.64300 Y1.43666
X-3.64400 Y1.43666
X-3.64400 Y1.43566
X-3.64500 Y1.43566
X-3.64500 Y1.43466
X-3.64600 Y1.43466
X-3.64600 Y1.43366
X-3.64700 Y1.43366
X-3.64700 Y1.43266
X-3.64800 Y1.43266
X-3.64800 Y1.43166
X-3.64900 Y1.43166
X-3.64900 Y1.43066
X-3.65000 Y1.43066
X-3.65000 Y1.42966
X-3.65100 Y1.42966
X-3.65100 Y1.42866
X-3.65200 Y1.42866
X-3.65200 Y1.42766
X-3.65300 Y1.42766
X-3.65300 Y1.42666
X-3.65400 Y1.42666
X-3.65400 Y1.42566
X-3.65500 Y1.42566
X-3.65500 Y1.42466
X-3.65600 Y1.42466
X-3.65600 Y1.42366
X-3.65700 Y1.42366
X-3.65700 Y1.42266
X-3.65800 Y1.42266
X-3.65800 Y1.42166
X-3.65900 Y1.42166
X-3.65900 Y1.42066
X-3.66000 Y1.42066
X-3.66000 Y1.41966
X-3.66100 Y1.41966
X-3.66100 Y1.41866
X-3.66200 Y1.41866
X-3.66200 Y1.41766
X-3.66300 Y1.41766
X-3.66300 Y1.41666
X-3.66400 Y1.41666
X-3.66400 Y1.41566
X-3.66500 Y1.41566
X-3.66500 Y1.41466
X-3.66600 Y1.41466
X-3.66600 Y1.41366
X-3.66700 Y1.41366
X-3.66700 Y1.41266
X-3.66800 Y1.41266
X-3.66800 Y1.41166
X-3.66900 Y1.41166
X-3.66900 Y1.41066
X-3.67000 Y1.41066
X-3.67000 Y1.40966
X-3.67100 Y1.40966
X-3.67100 Y1.40866
X-3.67200 Y1.40866
X-3.67200 Y1.40766
X-3.67300 Y1.40766
X-3.67300 Y1.40666
X-3.67400 Y1.40666
X-3.67400 Y1.40566
X-3.67500 Y1.40566
X-3.67500 Y1.40466
X-3.67600 Y1.40466
X-3.67600 Y1.40366
X-3.67700 Y1.40366
X-3.67700 Y1.40266
X-3.67800 Y1.40266
X-3.67800 Y1.40166
X-3.67900 Y1.40166
X-3.67900 Y1.40066
X-3.68000 Y1.40066
X-3.68000 Y1.39966
X-3.68100 Y1.39966
X-3.68100 Y1.39866
X-3.68200 Y1.39866
X-3.68200 Y1.39766
X-3.68300 Y1.39766
X-3.68300 Y1.39666
X-3.68400 Y1.39666
X-3.68400 Y1.39566
X-3.68500 Y1.39566
X-3.68500 Y1.39466
X-3.68600 Y1.39466
X-3.68600 Y1.39366
X-3.68700 Y1.39366
X-3.68700 Y1.39266
X-3.68800 Y1.39266
X-3.68800 Y1.39166
X-3.68900 Y1.39166
X-3.68900 Y1.39066
X-3.69000 Y1.39066
X-3.69000 Y1.38966
X-3.69100 Y1.38966
X-3.69100 Y1.38866
X-3.69200 Y1.38866
X-3.69200 Y1.38766
X-3.69300 Y1.38766
X-3.69300 Y1.38666
X-3.69400 Y1.38666
X-3.69400 Y1.38566
X-3.69500 Y1.38566
X-3.69500 Y1.38466
X-3.69600 Y1.38466
X-3.69600 Y1.38366
X-3.69700 Y1.38366
X-3.69700 Y1.38266
X-3.69800 Y1.38266
X-3.69800 Y1.38166
X-3.69900 Y1.38166
X-3.69900 Y1.38066
X-3.70000 Y1.38066
X-3.70000 Y1.37966
X-3.70100 Y1.37966
X-3.70100 Y1.37866
X-3.70200 Y1.37866
X-3.70200 Y1.37766
X-3.70300 Y1.37766
X-3.70300 Y1.37666
X-3.70400 Y1.37666
X-3.70400 Y1.37566
X-3.70500 Y1.37566
X-3.70500 Y1.37466
X-3.70600 Y1.37466
X-3.70600 Y1.37366
X-3.70700 Y1.37366
X-3.70700 Y1.37266
X-3.70800 Y1.37266
X-3.70800 Y1.37166
X-3.70900 Y1.37166
X-3.70900 Y1.37066
X-3.71000 Y1.37066
X-3.71000 Y1.36966
X-3.71100 Y1.36966
X-3.71100 Y1.36866
X-3.71200 Y1.36866
X-3.71200 Y1.36766
X-3.71300 Y1.36766
X-3.71300 Y1.36666
X-3.71400 Y1.36666
X-3.71400 Y1.36566
X-3.71500 Y1.36566
X-3.71500 Y1.36466
X-3.71600 Y1.36466
X-3.71600 Y1.36366
X-3.71700 Y1.36366
X-3.71700 Y1.36266
X-3.71800 Y1.36266
X-3.71800 Y1.36166
X-3.71900 Y1.36166
X-3.71900 Y1.36066
X-3.72000 Y1.36066
X-3.72000 Y1.35966
X-3.72100 Y1.35966
X-3.72100 Y1.35866
X-3.72200 Y1.35866
X-3.72200 Y1.35766
X-3.72300 Y1.35766
X-3.72300 Y1.35666
X-3.72400 Y1.35666
X-3.72400 Y1.35566
X-3.72500 Y1.35566
X-3.72500 Y1.35466
X-3.72600 Y1.35466
X-3.72600 Y1.35266
X-3.72700 Y1.35266
X-3.72700 Y1.35066
X-3.72800 Y1.35066
X-3.72800 Y1.34666
X-3.72900 Y1.34666
X-3.72900 Y1.01466
X-3.73000 Y1.01466
X-3.73000 Y1.01366
X-3.73100 Y1.01366
X-3.73100 Y1.01266
X-3.73200 Y1.01266
X-3.73200 Y1.01166
X-3.73300 Y1.01166
X-3.73300 Y1.01066
X-3.73400 Y1.01066
X-3.73400 Y1.00966
X-3.73500 Y1.00966
X-3.73500 Y1.00866
X-3.73600 Y1.00866
X-3.73600 Y1.00766
X-3.73700 Y1.00766
X-3.73700 Y1.00666
X-3.73800 Y1.00666
X-3.73800 Y1.00566
X-3.73900 Y1.00566
X-3.73900 Y1.00466
X-3.74000 Y1.00466
X-3.74000 Y1.00366
X-3.74100 Y1.00366
X-3.74100 Y1.00266
X-3.74200 Y1.00266
X-3.74200 Y1.00166
X-3.74300 Y1.00166
X-3.74300 Y1.00066
X-3.74400 Y1.00066
X-3.74400 Y0.99966
X-3.74500 Y0.99966
X-3.74500 Y0.99866
X-3.74600 Y0.99866
X-3.74600 Y0.99766
X-3.74700 Y0.99766
X-3.74700 Y0.99666
X-3.74800 Y0.99666
X-3.74800 Y0.99566
X-3.74900 Y0.99566
X-3.74900 Y0.99466
X-3.75000 Y0.99466
X-3.75000 Y0.99366
X-3.75100 Y0.99366
X-3.75100 Y0.99266
X-3.75200 Y0.99266
X-3.75200 Y0.99166
X-3.75300 Y0.99166
X-3.75300 Y0.99066
X-3.75400 Y0.99066
X-3.75400 Y0.98966
X-3.75500 Y0.98966
X-3.75500 Y0.98866
X-3.75600 Y0.98866
X-3.75600 Y0.98766
X-3.75700 Y0.98766
X-3.75700 Y0.98666
X-3.75800 Y0.98666
X-3.75800 Y0.98566
X-3.75900 Y0.98566
X-3.75900 Y0.98466
X-3.76000 Y0.98466
X-3.76000 Y0.98366
X-3.76100 Y0.98366
X-3.76100 Y0.98266
X-3.76200 Y0.98266
X-3.76200 Y0.98166
X-3.76300 Y0.98166
X-3.76300 Y0.98066
X-3.76400 Y0.98066
X-3.76400 Y0.97966
X-3.76500 Y0.97966
X-3.76500 Y0.97866
X-3.76600 Y0.97866
X-3.76600 Y0.97766
X-3.76700 Y0.97766
X-3.76700 Y0.97666
X-3.76800 Y0.97666
X-3.76800 Y0.97566
X-3.76900 Y0.97566
X-3.76900 Y0.97466
X-3.77000 Y0.97466
X-3.77000 Y0.97366
X-3.77100 Y0.97366
X-3.77100 Y0.97266
X-3.77200 Y0.97266
X-3.77200 Y0.97066
X-3.77300 Y0.97066
X-3.77300 Y0.96966
X-3.77400 Y0.96966
X-3.77400 Y0.96866
X-3.77500 Y0.96866
X-3.77500 Y0.96766
X-3.77600 Y0.96766
X-3.77600 Y0.96666
X-3.77700 Y0.96666
X-3.77700 Y0.96566
X-3.77800 Y0.96566
X-3.77800 Y0.96466
X-3.77900 Y0.96466
X-3.77900 Y0.96366
X-3.78000 Y0.96366
X-3.78000 Y0.96266
X-3.78100 Y0.96266
X-3.78100 Y0.96166
X-3.78200 Y0.96166
X-3.78200 Y0.96066
X-3.78300 Y0.96066
X-3.78300 Y0.95966
X-3.78400 Y0.95966
X-3.78400 Y0.95866
X-3.78500 Y0.95866
X-3.78500 Y0.95766
X-3.78600 Y0.95766
X-3.78600 Y0.95666
X-3.78700 Y0.95666
X-3.78700 Y0.95566
X-3.78800 Y0.95566
X-3.78800 Y0.95466
X-3.78900 Y0.95466
X-3.78900 Y0.95366
X-3.79000 Y0.95366
X-3.79000 Y0.95266
X-3.79100 Y0.95266
X-3.79100 Y0.95166
X-3.79200 Y0.95166
X-3.79200 Y0.95066
X-3.79300 Y0.95066
X-3.79300 Y0.94966
X-3.79400 Y0.94966
X-3.79400 Y0.94866
X-3.79500 Y0.94866
X-3.79500 Y0.94766
X-3.79600 Y0.94766
X-3.79600 Y0.94666
X-3.79700 Y0.94666
X-3.79700 Y0.94566
X-3.79800 Y0.94566
X-3.79800 Y0.94466
X-3.79900 Y0.94466
X-3.79900 Y0.94366
X-3.80000 Y0.94366
X-3.80000 Y0.94466
X-3.80100 Y0.94466
X-3.80100 Y0.94566
X-3.80200 Y0.94566
X-3.80200 Y0.94666
X-3.80300 Y0.94666
X-3.80300 Y0.94766
X-3.80400 Y0.94766
X-3.80400 Y0.94866
X-3.80500 Y0.94866
X-3.80500 Y0.94966
X-3.80600 Y0.94966
X-3.80600 Y0.95066
X-3.80700 Y0.95066
X-3.80700 Y0.95166
X-3.80800 Y0.95166
X-3.80800 Y0.95266
X-3.80900 Y0.95266
X-3.80900 Y0.95366
X-3.81000 Y0.95366
X-3.81000 Y0.95466
X-3.81100 Y0.95466
X-3.81100 Y0.95566
X-3.81200 Y0.95566
X-3.81200 Y0.95666
X-3.81300 Y0.95666
X-3.81300 Y0.95766
X-3.81400 Y0.95766
X-3.81400 Y0.95866
X-3.81500 Y0.95866
X-3.81500 Y0.95966
X-3.81600 Y0.95966
X-3.81600 Y0.96066
X-3.81700 Y0.96066
X-3.81700 Y0.96166
X-3.81800 Y0.96166
X-3.81800 Y0.96266
X-3.81900 Y0.96266
X-3.81900 Y0.96366
X-3.82000 Y0.96366
X-3.82000 Y0.96466
X-3.82100 Y0.96466
X-3.82100 Y0.96566
X-3.82200 Y0.96566
X-3.82200 Y0.96666
X-3.82300 Y0.96666
X-3.82300 Y0.96766
X-3.82400 Y0.96766
X-3.82400 Y0.96866
X-3.82500 Y0.96866
X-3.82500 Y0.96966
X-3.82600 Y0.96966
X-3.82600 Y0.97066
X-3.82700 Y0.97066
X-3.82700 Y0.97166
X-3.82800 Y0.97166
X-3.82800 Y0.97266
X-3.82900 Y0.97266
X-3.82900 Y0.97366
X-3.83000 Y0.97366
X-3.83000 Y0.97466
X-3.83100 Y0.97466
X-3.83100 Y0.97566
X-3.83200 Y0.97566
X-3.83200 Y0.97666
X-3.83300 Y0.97666
X-3.83300 Y0.97766
X-3.83400 Y0.97766
X-3.83400 Y0.97866
X-3.83500 Y0.97866
X-3.83500 Y0.97966
X-3.83600 Y0.97966
X-3.83600 Y0.98066
X-3.83700 Y0.98066
X-3.83700 Y0.98166
X-3.83800 Y0.98166
X-3.83800 Y0.98266
X-3.83900 Y0.98266
X-3.83900 Y0.98366
X-3.84000 Y0.98366
X-3.84000 Y0.98466
X-3.84100 Y0.98466
X-3.84100 Y0.98566
X-3.84200 Y0.98566
X-3.84200 Y0.98666
X-3.84300 Y0.98666
X-3.84300 Y0.98766
X-3.84400 Y0.98766
X-3.84400 Y0.98866
X-3.84500 Y0.98866
X-3.84500 Y0.98966
X-3.84600 Y0.98966
X-3.84600 Y0.99066
X-3.84700 Y0.99066
X-3.84700 Y0.99166
X-3.84800 Y0.99166
X-3.84800 Y0.99266
X-3.84900 Y0.99266
X-3.84900 Y0.99366
X-3.85000 Y0.99366
X-3.85000 Y0.99466
X-3.85100 Y0.99466
X-3.85100 Y0.99566
X-3.85200 Y0.99566
X-3.85200 Y0.99666
X-3.85300 Y0.99666
X-3.85300 Y0.99766
X-3.85400 Y0.99766
X-3.85400 Y0.99866
X-3.85500 Y0.99866
X-3.85500 Y0.99966
X-3.85600 Y0.99966
X-3.85600 Y1.00066
X-3.85700 Y1.00066
X-3.85700 Y1.00166
X-3.85800 Y1.00166
X-3.85800 Y1.00266
X-3.85900 Y1.00266
X-3.85900 Y1.00366
X-3.86000 Y1.00366
X-3.86000 Y1.00466
X-3.86100 Y1.00466
X-3.86100 Y1.00566
X-3.86200 Y1.00566
X-3.86200 Y1.00666
X-3.86300 Y1.00666
X-3.86300 Y1.00766
X-3.86400 Y1.00766
X-3.86400 Y1.00866
X-3.86500 Y1.00866
X-3.86500 Y1.00966
X-3.86600 Y1.00966
X-3.86600 Y1.01066
X-3.86700 Y1.01066
X-3.86700 Y1.01166
X-3.86800 Y1.01166
X-3.86800 Y1.01266
X-3.86900 Y1.01266
X-3.86900 Y1.01366
X-3.87000 Y1.01366
X-3.87000 Y1.01466
X-3.87100 Y1.01466
X-3.87100 Y1.01566
X-3.87200 Y1.01566
X-3.87200 Y1.01666
X-3.87300 Y1.01666
X-3.87300 Y1.01766
X-3.87400 Y1.01766
X-3.87400 Y1.01866
X-3.87500 Y1.01866
X-3.87500 Y1.01966
X-3.87600 Y1.01966
X-3.87600 Y1.02066
X-3.87700 Y1.02066
X-3.87700 Y1.02166
X-3.87800 Y1.02166
X-3.87800 Y1.02266
X-3.87900 Y1.02266
X-3.87900 Y1.02366
X-3.88000 Y1.02366
X-3.88000 Y1.02466
X-3.88100 Y1.02466
X-3.88100 Y1.02566
X-3.88200 Y1.02566
X-3.88200 Y1.02666
X-3.88300 Y1.02666
X-3.88300 Y1.64066
X-3.88200 Y1.64066
X-3.88200 Y1.64166
X-3.88100 Y1.64166
X-3.88100 Y1.64266
X-3.88000 Y1.64266
X-3.88000 Y1.64366
X-3.87900 Y1.64366
X-3.87900 Y1.64466
X-3.87800 Y1.64466
X-3.87800 Y1.64566
X-3.87700 Y1.64566
X-3.87700 Y1.64666
X-3.87600 Y1.64666
X-3.87600 Y1.64766
X-3.87500 Y1.64766
X-3.87500 Y1.64866
X-3.87400 Y1.64866
X-3.87400 Y1.64966
X-3.87300 Y1.64966
X-3.87300 Y1.65066
X-3.87200 Y1.65066
X-3.87200 Y1.65166
X-3.87100 Y1.65166
X-3.87100 Y1.65266
X-3.87000 Y1.65266
X-3.87000 Y1.65366
X-3.86900 Y1.65366
X-3.86900 Y1.65466
X-3.86800 Y1.65466
X-3.86800 Y1.65566
X-3.86700 Y1.65566
X-3.86700 Y1.65666
X-3.86600 Y1.65666
X-3.86600 Y1.65766
X-3.86500 Y1.65766
X-3.86500 Y1.65866
X-3.86400 Y1.65866
X-3.86400 Y1.65966
X-3.86300 Y1.65966
X-3.86300 Y1.66066
X-3.86200 Y1.66066
X-3.86200 Y1.66166
X-3.86100 Y1.66166
X-3.86100 Y1.66266
X-3.86000 Y1.66266
X-3.86000 Y1.66366
X-3.85900 Y1.66366
X-3.85900 Y1.66466
X-3.85800 Y1.66466
X-3.85800 Y1.66566
X-3.85700 Y1.66566
X-3.85700 Y1.66666
X-3.85600 Y1.66666
X-3.85600 Y1.66766
X-3.85500 Y1.66766
X-3.85500 Y1.66866
X-3.85400 Y1.66866
X-3.85400 Y1.66966
X-3.85300 Y1.66966
X-3.85300 Y1.67066
X-3.85200 Y1.67066
X-3.85200 Y1.67166
X-3.85100 Y1.67166
X-3.85100 Y1.67266
X-3.85000 Y1.67266
X-3.85000 Y1.67366
X-3.84900 Y1.67366
X-3.84900 Y1.67466
X-3.84800 Y1.67466
X-3.84800 Y1.67566
X-3.84700 Y1.67566
X-3.84700 Y1.67666
X-3.84600 Y1.67666
X-3.84600 Y1.67766
X-3.84500 Y1.67766
X-3.84500 Y1.67866
X-3.84400 Y1.67866
X-3.84400 Y1.67966
X-3.84300 Y1.67966
X-3.84300 Y1.68066
X-3.84200 Y1.68066
X-3.84200 Y1.68166
X-3.84100 Y1.68166
X-3.84100 Y1.68266
X-3.84000 Y1.68266
X-3.84000 Y1.68366
X-3.83900 Y1.68366
X-3.83900 Y1.68466
X-3.83800 Y1.68466
X-3.83800 Y1.68566
X-3.83700 Y1.68566
X-3.83700 Y1.68666
X-3.83600 Y1.68666
X-3.83600 Y1.68766
X-3.83500 Y1.68766
X-3.83500 Y1.68866
X-3.83400 Y1.68866
X-3.83400 Y1.68966
X-3.83300 Y1.68966
X-3.83300 Y1.69066
X-3.83200 Y1.69066
X-3.83200 Y1.69166
X-3.83100 Y1.69166
X-3.83100 Y1.69266
X-3.83000 Y1.69266
X-3.83000 Y1.69366
X-3.82900 Y1.69366
X-3.82900 Y1.69466
X-3.82800 Y1.69466
X-3.82800 Y1.69566
X-3.82700 Y1.69566
X-3.82700 Y1.69666
X-3.82600 Y1.69666
X-3.82600 Y1.69766
X-3.82500 Y1.69766
X-3.82500 Y1.69866
X-3.82400 Y1.69866
X-3.82400 Y1.69966
X-3.82300 Y1.69966
X-3.82300 Y1.70066
X-3.82200 Y1.70066
X-3.82200 Y1.70166
X-3.82100 Y1.70166
X-3.82100 Y1.70266
X-3.82000 Y1.70266
X-3.82000 Y1.70366
X-3.81900 Y1.70366
X-3.81900 Y1.70466
X-3.81800 Y1.70466
X-3.81800 Y1.70566
X-3.81700 Y1.70566
X-3.81700 Y1.70666
X-3.81600 Y1.70666
X-3.81600 Y1.70766
X-3.81500 Y1.70766
X-3.81500 Y1.70866
X-3.81400 Y1.70866
X-3.81400 Y1.70966
X-3.81300 Y1.70966
X-3.81300 Y1.71066
X-3.81200 Y1.71066
X-3.81200 Y1.71166
X-3.81100 Y1.71166
X-3.81100 Y1.71266
X-3.81000 Y1.71266
X-3.81000 Y1.71366
X-3.80900 Y1.71366
X-3.80900 Y1.71466
X-3.80800 Y1.71466
X-3.80800 Y1.71566
X-3.80700 Y1.71566
X-3.80700 Y1.71666
X-3.80600 Y1.71666
X-3.80600 Y1.71766
X-3.75900 Y1.71766
X-3.75900 Y1.73166
X-3.72100 Y1.73166
X-3.72100 Y1.73266
X-3.71700 Y1.73266
X-3.71700 Y1.73366
X-3.71500 Y1.73366
X-3.71500 Y1.73466
X-3.71300 Y1.73466
X-3.71300 Y1.73566
X-3.71200 Y1.73566
X-3.71200 Y1.73666
X-3.71100 Y1.73666
X-3.71100 Y1.73766
X-3.71000 Y1.73766
X-3.71000 Y1.73866
X-3.70900 Y1.73866
X-3.70900 Y1.73966
X-3.70800 Y1.73966
X-3.70800 Y1.74066
X-3.70700 Y1.74066
X-3.70700 Y1.74166
X-3.70600 Y1.74166
X-3.70600 Y1.74266
X-3.70500 Y1.74266
X-3.70500 Y1.74366
X-3.70400 Y1.74366
X-3.70400 Y1.74466
X-3.70300 Y1.74466
X-3.70300 Y1.74566
X-3.70200 Y1.74566
X-3.70200 Y1.74666
X-3.70100 Y1.74666
X-3.70100 Y1.74766
X-3.70000 Y1.74766
X-3.70000 Y1.74866
X-3.69900 Y1.74866
X-3.69900 Y1.74966
X-3.69800 Y1.74966
X-3.69800 Y1.75066
X-3.69700 Y1.75066
X-3.69700 Y1.75166
X-3.69600 Y1.75166
X-3.69600 Y1.75266
X-3.69500 Y1.75266
X-3.69500 Y1.75366
X-3.69400 Y1.75366
X-3.69400 Y1.75466
X-3.69300 Y1.75466
X-3.69300 Y1.75566
X-3.69200 Y1.75566
X-3.69200 Y1.75666
X-3.69100 Y1.75666
X-3.69100 Y1.75766
X-3.69000 Y1.75766
X-3.69000 Y1.75866
X-3.68900 Y1.75866
X-3.68900 Y1.75966
X-3.68800 Y1.75966
X-3.68800 Y1.76066
X-3.68700 Y1.76066
X-3.68700 Y1.76166
X-3.68600 Y1.76166
X-3.68600 Y1.76266
X-3.68500 Y1.76266
X-3.68500 Y1.76366
X-3.68400 Y1.76366
X-3.68400 Y1.76466
X-3.68300 Y1.76466
X-3.68300 Y1.76566
X-3.68200 Y1.76566
X-3.68200 Y1.76666
X-3.68100 Y1.76666
X-3.68100 Y1.76766
X-3.68000 Y1.76766
X-3.68000 Y1.76866
X-3.67900 Y1.76866
X-3.67900 Y1.76966
X-3.67800 Y1.76966
X-3.67800 Y1.77066
X-3.67700 Y1.77066
X-3.67700 Y1.77166
X-3.67600 Y1.77166
X-3.67600 Y1.77266
X-3.67500 Y1.77266
X-3.67500 Y1.77366
X-3.67400 Y1.77366
X-3.67400 Y1.77466
X-3.67300 Y1.77466
X-3.67300 Y1.77566
X-3.67200 Y1.77566
X-3.67200 Y1.77666
X-3.67100 Y1.77666
X-3.67100 Y1.77766
X-3.67000 Y1.77766
X-3.67000 Y1.77866
X-3.66900 Y1.77866
X-3.66900 Y1.77966
X-3.66800 Y1.77966
X-3.66800 Y1.78066
X-3.66700 Y1.78066
X-3.66700 Y1.78166
X-2.40500 Y1.78166
X-2.40500 Y1.77866
X-2.40400 Y1.77866
X-2.40400 Y1.77666
X-2.40300 Y1.77666
X-2.40300 Y1.77466
X-2.40200 Y1.77466
X-2.40200 Y1.77366
X-2.40100 Y1.77366
X-2.40100 Y1.77166
X-2.40000 Y1.77166
X-2.40000 Y1.76966
X-2.39900 Y1.76966
X-2.39900 Y1.76766
X-2.39800 Y1.76766
X-2.39800 Y1.76666
X-2.39700 Y1.76666
X-2.39700 Y1.76566
X-2.39600 Y1.76566
X-2.39600 Y1.76466
X-2.39500 Y1.76466
X-2.39500 Y1.76366
X-2.39400 Y1.76366
X-2.39400 Y1.76166
X-2.39300 Y1.76166
X-2.39300 Y1.76066
X-2.39200 Y1.76066
X-2.39200 Y1.75966
X-2.39100 Y1.75966
X-2.39100 Y1.75866
X-2.39000 Y1.75866
X-2.39000 Y1.75766
X-2.38800 Y1.75766
X-2.38800 Y1.75666
X-2.38700 Y1.75666
X-2.38700 Y1.75566
X-2.38600 Y1.75566
X-2.38600 Y1.75466
X-2.38500 Y1.75466
X-2.38500 Y1.75366
X-2.38400 Y1.75366
X-2.38400 Y1.75266
X-2.38200 Y1.75266
X-2.38200 Y1.75166
X-2.38000 Y1.75166
X-2.38000 Y1.75066
X-2.37800 Y1.75066
X-2.37800 Y1.74966
X-2.37700 Y1.74966
X-2.37700 Y1.74866
X-2.37500 Y1.74866
X-2.37500 Y1.74766
X-2.37300 Y1.74766
X-2.37300 Y1.74666
X-2.36900 Y1.74666
X-2.36900 Y1.74566
X-2.36600 Y1.74566
X-2.36600 Y1.74466
X-2.36300 Y1.74466
X-2.36300 Y1.74366
X-2.35600 Y1.74366
X-2.35600 Y1.74266
X-2.34300 Y1.74266
X-2.34300 Y1.74366
X-2.33600 Y1.74366
X-2.33600 Y1.74466
X-2.33300 Y1.74466
X-2.33300 Y1.74566
X-2.32900 Y1.74566
X-2.32900 Y1.74666
X-2.32600 Y1.74666
X-2.32600 Y1.74766
X-2.32400 Y1.74766
X-2.32400 Y1.74666
X-2.32300 Y1.74666
X-2.32300 Y1.74566
X-2.32200 Y1.74566
X-2.32200 Y1.74466
X-2.32100 Y1.74466
X-2.32100 Y1.74366
X-2.32000 Y1.74366
X-2.32000 Y1.74266
X-2.31900 Y1.74266
X-2.31900 Y1.74166
X-2.31800 Y1.74166
X-2.31800 Y1.74066
X-2.31700 Y1.74066
X-2.31700 Y1.73966
X-2.31600 Y1.73966
X-2.31600 Y1.73866
X-2.31500 Y1.73866
X-2.31500 Y1.73766
X-2.31400 Y1.73766
X-2.31400 Y1.73666
X-2.31300 Y1.73666
X-2.31300 Y1.73566
X-2.31200 Y1.73566
X-2.31200 Y1.73466
X-2.31100 Y1.73466
X-2.31100 Y1.73366
X-2.31000 Y1.73366
X-2.31000 Y1.73266
X-2.30900 Y1.73266
X-2.30900 Y1.73166
X-2.30800 Y1.73166
X-2.30800 Y1.73066
X-2.30700 Y1.73066
X-2.30700 Y1.72966
X-2.30600 Y1.72966
X-2.30600 Y1.72866
X-2.30500 Y1.72866
X-2.30500 Y1.72766
X-2.30400 Y1.72766
X-2.30400 Y1.72666
X-2.30300 Y1.72666
X-2.30300 Y1.72566
X-2.30200 Y1.72566
X-2.30200 Y1.72466
X-2.30100 Y1.72466
X-2.30100 Y1.72366
X-2.30000 Y1.72366
X-2.30000 Y1.72266
X-2.29900 Y1.72266
X-2.29900 Y1.72166
X-2.29800 Y1.72166
X-2.29800 Y1.72066
X-2.29700 Y1.72066
X-2.29700 Y1.71966
X-2.29600 Y1.71966
X-2.29600 Y1.71866
X-2.29500 Y1.71866
X-2.29500 Y1.71766
X-2.29400 Y1.71766
X-2.29400 Y1.71666
X-2.29300 Y1.71666
X-2.29300 Y1.71566
X-2.29200 Y1.71566
X-2.29200 Y1.71466
X-2.29100 Y1.71466
X-2.29100 Y1.71366
X-2.29000 Y1.71366
X-2.29000 Y1.71266
X-2.28900 Y1.71266
X-2.28900 Y1.71166
X-2.28800 Y1.71166
X-2.28800 Y1.71066
X-2.28700 Y1.71066
X-2.28700 Y1.70966
X-2.28600 Y1.70966
X-2.28600 Y1.70866
X-2.28500 Y1.70866
X-2.28500 Y1.70766
X-2.28400 Y1.70766
X-2.28400 Y1.70666
X-2.28300 Y1.70666
X-2.28300 Y1.70566
X-2.28200 Y1.70566
X-2.28200 Y1.70466
X-2.28100 Y1.70466
X-2.28100 Y1.70366
X-2.28000 Y1.70366
X-2.28000 Y1.70266
X-2.27900 Y1.70266
X-2.27900 Y1.70166
X-2.27800 Y1.70166
X-2.27800 Y1.70066
X-2.27600 Y1.70066
X-2.27600 Y1.69966
X-2.27500 Y1.69966
X-2.27500 Y1.69866
X-2.27400 Y1.69866
X-2.27400 Y1.69766
X-2.27300 Y1.69766
X-2.27300 Y1.69666
X-2.27200 Y1.69666
X-2.27200 Y1.69566
X-2.27100 Y1.69566
X-2.27100 Y1.69466
X-2.27000 Y1.69466
X-2.27000 Y1.69366
X-2.26900 Y1.69366
X-2.26900 Y1.69266
X-2.26800 Y1.69266
X-2.26800 Y1.69166
X-2.26700 Y1.69166
X-2.26700 Y1.69066
X-2.26600 Y1.69066
X-2.26600 Y1.68966
X-2.26500 Y1.68966
X-2.26500 Y1.68866
X-2.26400 Y1.68866
X-2.26400 Y1.68766
X-2.26300 Y1.68766
X-2.26300 Y1.68666
X-2.26200 Y1.68666
X-2.26200 Y1.68566
X-2.26100 Y1.68566
X-2.26100 Y1.68466
X-2.26000 Y1.68466
X-2.26000 Y1.68366
X-2.25900 Y1.68366
X-2.25900 Y1.68266
X-2.25800 Y1.68266
X-2.25800 Y1.68166
X-2.25700 Y1.68166
X-2.25700 Y1.68066
X-2.25600 Y1.68066
X-2.25600 Y1.67966
X-2.25500 Y1.67966
X-2.25500 Y1.67866
X-2.25400 Y1.67866
X-2.25400 Y1.67766
X-2.25300 Y1.67766
X-2.25300 Y1.67666
X-2.25200 Y1.67666
X-2.25200 Y1.67566
X-2.25100 Y1.67566
X-2.25100 Y1.67466
X-2.25000 Y1.67466
X-2.25000 Y1.67366
X-2.24900 Y1.67366
X-2.24900 Y1.67266
X-2.24800 Y1.67266
X-2.24800 Y1.67166
X-2.24700 Y1.67166
X-2.24700 Y1.67066
X-2.24600 Y1.67066
X-2.24600 Y1.66966
X-2.24500 Y1.66966
X-2.24500 Y1.66866
X-2.24400 Y1.66866
X-2.24400 Y1.66766
X-2.24300 Y1.66766
X-2.24300 Y1.66666
X-2.24200 Y1.66666
X-2.24200 Y1.66566
X-2.24100 Y1.66566
X-2.24100 Y1.66466
X-2.24000 Y1.66466
X-2.24000 Y1.66366
X-2.23900 Y1.66366
X-2.23900 Y1.66266
X-2.23800 Y1.66266
X-2.23800 Y1.66166
X-2.23700 Y1.66166
X-2.23700 Y1.66066
X-2.23600 Y1.66066
X-2.23600 Y1.65966
X-2.23500 Y1.65966
X-2.23500 Y1.65866
X-2.23400 Y1.65866
X-2.23400 Y1.65766
X-2.23300 Y1.65766
X-2.23300 Y1.65666
X-2.23200 Y1.65666
X-2.23200 Y1.65566
X-2.23100 Y1.65566
X-2.23100 Y1.65466
X-2.23000 Y1.65466
X-2.23000 Y1.65366
X-2.22900 Y1.65366
X-2.22900 Y1.65266
X-2.22800 Y1.65266
X-2.22800 Y1.65166
X-2.22700 Y1.65166
X-2.22700 Y1.65066
X-2.22600 Y1.65066
X-2.22600 Y1.64966
X-2.22500 Y1.64966
X-2.22500 Y1.64866
X-2.22400 Y1.64866
X-2.22400 Y1.64766
X-2.22300 Y1.64766
X-2.22300 Y1.64666
X-2.22200 Y1.64666
X-2.22200 Y1.64566
X-2.22100 Y1.64566
X-2.22100 Y1.64466
X-2.22000 Y1.64466
X-2.22000 Y1.64366
X-2.21900 Y1.64366
X-2.21900 Y1.64266
X-2.21800 Y1.64266
X-2.21800 Y1.64166
X-2.21700 Y1.64166
X-2.21700 Y1.64066
X-2.21600 Y1.64066
X-2.21600 Y1.63966
X-2.21500 Y1.63966
X-2.21500 Y1.63866
X-2.21400 Y1.63866
X-2.21400 Y1.63766
X-2.21300 Y1.63766
X-2.21300 Y1.63666
X-2.21200 Y1.63666
X-2.21200 Y1.63566
X-2.21100 Y1.63566
X-2.21100 Y1.63466
X-2.20900 Y1.63466
X-2.20900 Y1.63366
X-2.20700 Y1.63366
X-2.20700 Y1.63266
X-2.20300 Y1.63266
X-2.20300 Y1.63166
X-1.25100 Y1.63166
X-1.25100 Y1.45266
X-1.25000 Y1.45266
X-1.25000 Y1.44866
X-1.24900 Y1.44866
X-1.24900 Y1.44666
X-1.24800 Y1.44666
X-1.24800 Y1.44466
X-1.24700 Y1.44466
X-1.24700 Y1.44366
X-1.24600 Y1.44366
X-1.24600 Y1.44266
X-1.24500 Y1.44266
X-1.24500 Y1.44166
X-1.24400 Y1.44166
X-1.24400 Y1.44066
X-1.24300 Y1.44066
X-1.24300 Y1.43966
X-1.24200 Y1.43966
X-1.24200 Y1.43866
X-1.24100 Y1.43866
X-1.24100 Y1.43766
X-1.24000 Y1.43766
X-1.24000 Y1.43666
X-1.23900 Y1.43666
X-1.23900 Y1.43566
X-1.23800 Y1.43566
X-1.23800 Y1.43466
X-1.23700 Y1.43466
X-1.23700 Y1.43366
X-1.23600 Y1.43366
X-1.23600 Y1.43266
X-1.23500 Y1.43266
X-1.23500 Y1.43166
X-1.23400 Y1.43166
X-1.23400 Y1.43066
X-1.23300 Y1.43066
X-1.23300 Y1.42966
X-1.23200 Y1.42966
X-1.23200 Y1.42866
X-1.23100 Y1.42866
X-1.23100 Y1.42766
X-1.23000 Y1.42766
X-1.23000 Y1.42666
X-1.22900 Y1.42666
X-1.22900 Y1.42566
X-1.22800 Y1.42566
X-1.22800 Y1.42466
X-1.22700 Y1.42466
X-1.22700 Y1.42366
X-1.22600 Y1.42366
X-1.22600 Y1.42266
X-1.22500 Y1.42266
X-1.22500 Y1.42166
X-1.22400 Y1.42166
X-1.22400 Y1.42066
X-1.22300 Y1.42066
X-1.22300 Y1.41966
X-1.22200 Y1.41966
X-1.22200 Y1.41866
X-1.22100 Y1.41866
X-1.22100 Y1.41766
X-1.22000 Y1.41766
X-1.22000 Y1.39266
X-1.23400 Y1.39266
X-1.23400 Y1.31166
X-1.22000 Y1.31166
X-1.22000 Y1.24266
X-1.23400 Y1.24266
X-1.23400 Y1.16166
X-1.22000 Y1.16166
X-1.22000 Y1.04266
X-1.23400 Y1.04266
X-1.23400 Y0.96166
X-1.22000 Y0.96166
X-1.22000 Y0.84266
X-1.23400 Y0.84266
X-1.23400 Y0.76166
X-1.22000 Y0.76166
X-1.22000 Y0.69266
X-1.23400 Y0.69266
X-1.23400 Y0.61166
X-1.16500 Y0.61166
X-1.16500 Y0.69266
X-1.18000 Y0.69266
X-1.18000 Y0.76166
X-1.16500 Y0.76166
X-1.16500 Y0.84266
X-1.18000 Y0.84266
X-1.18000 Y0.96166
X-1.16500 Y0.96166
X-1.16500 Y1.04266
X-1.18000 Y1.04266
X-1.18000 Y1.16166
X-1.16500 Y1.16166
X-1.16500 Y1.24266
X-1.18000 Y1.24266
X-1.18000 Y1.31166
X-1.16500 Y1.31166
X-1.16500 Y1.39266
X-1.18000 Y1.39266
X-1.18000 Y1.42966
X-1.18100 Y1.42966
X-1.18100 Y1.43366
X-1.18200 Y1.43366
X-1.18200 Y1.43566
X-1.18300 Y1.43566
X-1.18300 Y1.43766
X-1.18400 Y1.43766
X-1.18400 Y1.43866
X-1.18500 Y1.43866
X-1.18500 Y1.43966
X-1.18600 Y1.43966
X-1.18600 Y1.44066
X-1.18700 Y1.44066
X-1.18700 Y1.44166
X-1.18800 Y1.44166
X-1.18800 Y1.44266
X-1.18900 Y1.44266
X-1.18900 Y1.44366
X-1.19000 Y1.44366
X-1.19000 Y1.44466
X-1.19100 Y1.44466
X-1.19100 Y1.44566
X-1.19200 Y1.44566
X-1.19200 Y1.44666
X-1.19300 Y1.44666
X-1.19300 Y1.44766
X-1.19400 Y1.44766
X-1.19400 Y1.44866
X-1.19500 Y1.44866
X-1.19500 Y1.44966
X-1.19600 Y1.44966
X-1.19600 Y1.45066
X-1.19700 Y1.45066
X-1.19700 Y1.45166
X-1.19800 Y1.45166
X-1.19800 Y1.45266
X-1.19900 Y1.45266
X-1.19900 Y1.45366
X-1.20000 Y1.45366
X-1.20000 Y1.45466
X-1.20100 Y1.45466
X-1.20100 Y1.45566
X-1.20200 Y1.45566
X-1.20200 Y1.45666
X-1.20300 Y1.45666
X-1.20300 Y1.45766
X-1.20400 Y1.45766
X-1.20400 Y1.45866
X-1.20500 Y1.45866
X-1.20500 Y1.45966
X-1.20600 Y1.45966
X-1.20600 Y1.46066
X-1.20700 Y1.46066
X-1.20700 Y1.46166
X-1.20800 Y1.46166
X-1.20800 Y1.46266
X-1.20900 Y1.46266
X-1.20900 Y1.46366
X-1.21000 Y1.46366
X-1.21000 Y1.46466
X-1.21100 Y1.46466
X-1.21100 Y1.64366
X-1.21000 Y1.64366
X-1.21000 Y1.64466
X-1.20900 Y1.64466
X-1.20900 Y1.64566
X-1.20800 Y1.64566
X-1.20800 Y1.64666
X-1.20700 Y1.64666
X-1.20700 Y1.64766
X-1.20600 Y1.64766
X-1.20600 Y1.64866
X-1.20500 Y1.64866
X-1.20500 Y1.64966
X-1.20400 Y1.64966
X-1.20400 Y1.65066
X-1.20300 Y1.65066
X-1.20300 Y1.65166
X-1.20200 Y1.65166
X-1.20200 Y1.65266
X-1.20100 Y1.65266
X-1.20100 Y1.65366
X-1.20000 Y1.65366
X-1.20000 Y1.65466
X-1.19900 Y1.65466
X-1.19900 Y1.65566
X-1.19800 Y1.65566
X-1.19800 Y1.65666
X-1.19700 Y1.65666
X-1.19700 Y1.65766
X-1.19600 Y1.65766
X-1.19600 Y1.65866
X-1.19500 Y1.65866
X-1.19500 Y1.65966
X-1.19400 Y1.65966
X-1.19400 Y1.66066
X-1.19300 Y1.66066
X-1.19300 Y1.66166
X-1.19200 Y1.66166
X-1.19200 Y1.66266
X-1.19100 Y1.66266
X-1.19100 Y1.66366
X-1.19000 Y1.66366
X-1.19000 Y1.66466
X-1.18900 Y1.66466
X-1.18900 Y1.66566
X-1.18800 Y1.66566
X-1.18800 Y1.66666
X-1.18700 Y1.66666
X-1.18700 Y1.66766
X-1.18600 Y1.66766
X-1.18600 Y1.66866
X-1.18500 Y1.66866
X-1.18500 Y1.66966
X-1.18400 Y1.66966
X-1.18400 Y1.67066
X-1.18300 Y1.67066
X-1.18300 Y1.67166
X-1.18200 Y1.67166
X-1.18200 Y1.67266
X-1.18100 Y1.67266
X-1.18100 Y1.67366
X-1.18000 Y1.67366
X-1.18000 Y1.67466
X-1.17900 Y1.67466
X-1.17900 Y1.67566
X-1.17800 Y1.67566
X-1.17800 Y1.67666
X-1.17700 Y1.67666
X-1.17700 Y1.67766
X-1.17600 Y1.67766
X-1.17600 Y1.67866
X-1.17500 Y1.67866
X-1.17500 Y1.67966
X-1.17400 Y1.67966
X-1.17400 Y1.68066
X-1.17300 Y1.68066
X-1.17300 Y1.68166
X-1.17200 Y1.68166
X-1.17200 Y1.68266
X-1.17100 Y1.68266
X-1.17100 Y1.68366
X-1.17000 Y1.68366
X-1.17000 Y1.68466
X-1.16900 Y1.68466
X-1.16900 Y1.68566
X-1.16800 Y1.68566
X-1.16800 Y1.68666
X-1.16700 Y1.68666
X-1.16700 Y1.68766
X-1.16600 Y1.68766
X-1.16600 Y1.68866
X-1.16500 Y1.68866
X-1.16500 Y1.68966
X-1.16400 Y1.68966
X-1.16400 Y1.69066
X-1.16300 Y1.69066
X-1.16300 Y1.69166
X-1.16200 Y1.69166
X-1.16200 Y1.69266
X-1.16100 Y1.69266
X-1.16100 Y1.69366
X-1.16000 Y1.69366
X-1.16000 Y1.69466
X-1.15900 Y1.69466
X-1.15900 Y1.69566
X-1.15800 Y1.69566
X-1.15800 Y1.69666
X-1.15700 Y1.69666
X-1.15700 Y1.69766
X-1.15600 Y1.69766
X-1.15600 Y1.69866
X-1.15500 Y1.69866
X-1.15500 Y1.69966
X-1.15400 Y1.69966
X-1.15400 Y1.70066
X-1.15300 Y1.70066
X-1.15300 Y1.70166
X-1.15200 Y1.70166
X-1.15200 Y1.70266
X-1.15100 Y1.70266
X-1.15100 Y1.70366
X-1.15000 Y1.70366
X-1.15000 Y1.70466
X-1.14900 Y1.70466
X-1.14900 Y1.70566
X-1.14800 Y1.70566
X-1.14800 Y1.70666
X-1.14700 Y1.70666
X-1.14700 Y1.70766
X-1.14600 Y1.70766
X-1.14600 Y1.70866
X-1.14500 Y1.70866
X-1.14500 Y1.70966
X-1.14400 Y1.70966
X-1.14400 Y1.71066
X-1.14300 Y1.71066
X-1.14300 Y1.71166
X-1.14200 Y1.71166
X-1.14200 Y1.71266
X-1.14100 Y1.71266
X-1.14100 Y1.71366
X-1.14000 Y1.71366
X-1.14000 Y1.71466
X-1.13900 Y1.71466
X-1.13900 Y1.71566
X-1.13800 Y1.71566
X-1.13800 Y1.71666
X-1.13700 Y1.71666
X-1.13700 Y1.71766
X-1.13600 Y1.71766
X-1.13600 Y1.71866
X-1.13500 Y1.71866
X-1.13500 Y1.71966
X-1.13400 Y1.71966
X-1.13400 Y1.72066
X-1.13300 Y1.72066
X-1.13300 Y1.72166
X-1.13200 Y1.72166
X-1.13200 Y1.72266
X-1.13100 Y1.72266
X-1.13100 Y1.72366
X-1.13000 Y1.72366
X-1.13000 Y1.72466
X-1.12900 Y1.72466
X-1.12900 Y1.72566
X-1.12800 Y1.72566
X-1.12800 Y1.72666
X-1.12700 Y1.72666
X-1.12700 Y1.72766
X-1.12600 Y1.72766
X-1.12600 Y1.72866
X-1.12500 Y1.72866
X-1.12500 Y1.72966
X-1.12400 Y1.72966
X-1.12400 Y1.73066
X-1.12300 Y1.73066
X-1.12300 Y1.73166
X-1.12200 Y1.73166
X-1.12200 Y1.73266
X-1.12100 Y1.73266
X-1.12100 Y1.73366
X-1.12000 Y1.73366
X-1.12000 Y1.73466
X-1.11900 Y1.73466
X-1.11900 Y1.73566
X-1.11800 Y1.73566
X-1.11800 Y1.73666
X-1.11600 Y1.73666
X-1.11600 Y1.73766
X-1.11500 Y1.73766
X-1.11500 Y1.73866
X-1.11400 Y1.73866
X-1.11400 Y1.73966
X-1.11300 Y1.73966
X-1.11300 Y1.74066
X-1.11200 Y1.74066
X-1.11200 Y1.74166
X-1.11100 Y1.74166
X-1.11100 Y1.74266
X-1.11000 Y1.74266
X-1.11000 Y1.74366
X-1.10900 Y1.74366
X-1.10900 Y1.74466
X-1.10800 Y1.74466
X-1.10800 Y1.74566
X-1.10700 Y1.74566
X-1.10700 Y1.74666
X-1.10600 Y1.74666
X-1.10600 Y1.74766
X-1.10500 Y1.74766
X-1.10500 Y1.74866
X-1.10400 Y1.74866
X-1.10400 Y1.74966
X-1.10300 Y1.74966
X-1.10300 Y1.75066
X-1.10200 Y1.75066
X-1.10200 Y1.75166
X-1.10100 Y1.75166
X-1.10100 Y1.75266
X-1.10000 Y1.75266
X-1.10000 Y1.75366
X-1.09900 Y1.75366
X-1.09900 Y1.75466
X-1.09800 Y1.75466
X-1.09800 Y1.75566
X-1.09700 Y1.75566
X-1.09700 Y1.75666
X-1.09600 Y1.75666
X-1.09600 Y1.75766
X-1.09500 Y1.75766
X-1.09500 Y1.75866
X-1.09400 Y1.75866
X-1.09400 Y1.75966
X-1.09300 Y1.75966
X-1.09300 Y1.76066
X-1.09200 Y1.76066
X-1.09200 Y1.76166
X-1.09100 Y1.76166
X-1.09100 Y1.76266
X-1.09000 Y1.76266
X-1.09000 Y1.76366
X-1.08900 Y1.76366
X-1.08900 Y1.76466
X-1.08800 Y1.76466
X-1.08800 Y1.76566
X-1.08700 Y1.76566
X-1.08700 Y1.76666
X-1.08600 Y1.76666
X-1.08600 Y1.76766
X-1.08500 Y1.76766
X-1.08500 Y1.76866
X-1.08400 Y1.76866
X-1.08400 Y1.76966
X-1.08300 Y1.76966
X-1.08300 Y1.77066
X-1.08200 Y1.77066
X-1.08200 Y1.77166
X-1.08100 Y1.77166
X-1.08100 Y1.77266
X-1.08000 Y1.77266
X-1.08000 Y1.77366
X-1.07900 Y1.77366
X-1.07900 Y1.77466
X-1.07800 Y1.77466
X-1.07800 Y1.77566
X-1.07700 Y1.77566
X-1.07700 Y1.77666
X-1.07600 Y1.77666
X-1.07600 Y1.77766
X-1.07500 Y1.77766
X-1.07500 Y1.77866
X-1.07400 Y1.77866
X-1.07400 Y1.77966
X-1.07300 Y1.77966
X-1.07300 Y1.78066
X-1.07200 Y1.78066
X-1.07200 Y1.78166
X-1.07100 Y1.78166
X-1.07100 Y1.78266
X-1.07000 Y1.78266
X-1.07000 Y1.78366
X-1.06900 Y1.78366
X-1.06900 Y1.78466
X-1.06800 Y1.78466
X-1.06800 Y1.78566
X-1.06700 Y1.78566
X-1.06700 Y1.78666
X-1.06600 Y1.78666
X-1.06600 Y1.78766
X-1.06500 Y1.78766
X-1.06500 Y1.78866
X-1.06400 Y1.78866
X-1.06400 Y1.78966
X-1.06300 Y1.78966
X-1.06300 Y1.79066
X-1.06200 Y1.79066
X-1.06200 Y1.79166
X-1.06100 Y1.79166
X-1.06100 Y1.79266
X-1.06000 Y1.79266
X-1.06000 Y1.79366
X-1.05900 Y1.79366
X-1.05900 Y1.79466
X-1.05800 Y1.79466
X-1.05800 Y1.79566
X-1.05700 Y1.79566
X-1.05700 Y1.79666
X-1.05600 Y1.79666
X-1.05600 Y1.79766
X-1.05500 Y1.79766
X-1.05500 Y1.79866
X-1.05400 Y1.79866
X-1.05400 Y1.79966
X-1.05300 Y1.79966
X-1.05300 Y1.80066
X-1.05200 Y1.80066
X-1.05200 Y1.80166
X-1.05100 Y1.80166
X-1.05100 Y1.80266
X-1.05000 Y1.80266
X-1.05000 Y1.80366
X-1.04900 Y1.80366
X-1.04900 Y1.80466
X-1.04800 Y1.80466
X-1.04800 Y1.80566
X-1.04700 Y1.80566
X-1.04700 Y1.80666
X-1.04600 Y1.80666
X-1.04600 Y1.80766
X-1.04500 Y1.80766
X-1.04500 Y1.80866
X-1.04400 Y1.80866
X-1.04400 Y1.80966
X-1.04300 Y1.80966
X-1.04300 Y1.81066
X-1.04200 Y1.81066
X-1.04200 Y1.81166
X-1.04100 Y1.81166
X-1.04100 Y1.81266
X-1.04000 Y1.81266
X-1.04000 Y1.81366
X-1.03900 Y1.81366
X-1.03900 Y1.81466
X-1.03800 Y1.81466
X-1.03800 Y1.81566
X-1.03700 Y1.81566
X-1.03700 Y1.81666
X-1.03600 Y1.81666
X-1.03600 Y1.81766
X-1.03500 Y1.81766
X-1.03500 Y1.81866
X-1.03400 Y1.81866
X-1.03400 Y1.81966
X-1.03300 Y1.81966
X-1.03300 Y1.82066
X-1.03200 Y1.82066
X-1.03200 Y1.82166
X-1.03100 Y1.82166
X-1.03100 Y1.82266
X-1.03000 Y1.82266
X-1.03000 Y1.82366
X-1.02900 Y1.82366
X-1.02900 Y1.82466
X-1.02800 Y1.82466
X-1.02800 Y1.82566
X-1.02700 Y1.82566
X-1.02700 Y1.82666
X-1.02600 Y1.82666
X-1.02600 Y1.82766
X-1.02500 Y1.82766
X-1.02500 Y1.82866
X-1.02400 Y1.82866
X-1.02400 Y1.82966
X-1.02300 Y1.82966
X-1.02300 Y1.83066
X-1.02200 Y1.83066
X-1.02200 Y1.83166
X-1.02100 Y1.83166
X-1.02100 Y1.83266
X-1.02000 Y1.83266
X-1.02000 Y1.83366
X-1.01900 Y1.83366
X-1.01900 Y1.83466
X-1.01800 Y1.83466
X-1.01800 Y1.83566
X-1.01700 Y1.83566
X-1.01700 Y1.83666
X-1.01600 Y1.83666
X-1.01600 Y1.83766
X-1.01500 Y1.83766
X-1.01500 Y1.83866
X-1.01400 Y1.83866
X-1.01400 Y1.83966
X-1.01300 Y1.83966
X-1.01300 Y1.84066
X-1.01200 Y1.84066
X-1.01200 Y1.84166
X-1.01100 Y1.84166
X-1.01100 Y1.84266
X-1.01000 Y1.84266
X-1.01000 Y1.84366
X-1.00900 Y1.84366
X-1.00900 Y1.84466
X-1.00800 Y1.84466
X-1.00800 Y1.84566
X-1.00700 Y1.84566
X-1.00700 Y1.84666
X-1.00600 Y1.84666
X-1.00600 Y1.84766
X-1.00500 Y1.84766
X-1.00500 Y1.84866
X-1.00400 Y1.84866
X-1.00400 Y1.84966
X-1.00300 Y1.84966
X-1.00300 Y1.85066
X-1.00200 Y1.85066
X-1.00200 Y1.85166
X-1.00100 Y1.85166
X-1.00100 Y1.85266
X-1.00000 Y1.85266
X-1.00000 Y1.85366
X-0.99900 Y1.85366
X-0.99900 Y1.85466
X-0.99800 Y1.85466
X-0.99800 Y1.85566
X-0.99700 Y1.85566
X-0.99700 Y1.85666
X-0.99600 Y1.85666
X-0.99600 Y1.85766
X-0.99500 Y1.85766
X-0.99500 Y1.85866
X-0.99400 Y1.85866
X-0.99400 Y1.85966
X-0.99300 Y1.85966
X-0.99300 Y1.86066
X-0.99200 Y1.86066
X-0.99200 Y1.86166
X-0.99100 Y1.86166
X-0.99100 Y1.86266
X-0.99000 Y1.86266
X-0.99000 Y1.86366
X-0.98900 Y1.86366
X-0.98900 Y1.86466
X-0.98800 Y1.86466
X-0.98800 Y1.86566
X-0.98700 Y1.86566
X-0.98700 Y1.86666
X-0.98600 Y1.86666
X-0.98600 Y1.86766
X-0.98500 Y1.86766
X-0.98500 Y1.86866
X-0.98400 Y1.86866
X-0.98400 Y1.86966
X-0.98300 Y1.86966
X-0.98300 Y1.87066
X-0.98200 Y1.87066
X-0.98200 Y1.87166
X-0.98100 Y1.87166
X-0.98100 Y1.87266
X-0.34900 Y1.87266
X-0.34900 Y1.87166
X-0.34800 Y1.87166
X-0.34800 Y1.87066
X-0.34700 Y1.87066
X-0.34700 Y1.86966
X-0.34600 Y1.86966
X-0.34600 Y1.86866
X-0.34500 Y1.86866
X-0.34500 Y1.86766
X-0.34400 Y1.86766
X-0.34400 Y1.86666
X-0.34300 Y1.86666
X-0.34300 Y1.86566
X-0.34200 Y1.86566
X-0.34200 Y1.86466
X-0.34100 Y1.86466
X-0.34100 Y1.86366
X-0.34000 Y1.86366
X-0.34000 Y1.86266
X-0.33900 Y1.86266
X-0.33900 Y1.86166
X-0.33800 Y1.86166
X-0.33800 Y1.86066
X-0.33700 Y1.86066
X-0.33700 Y1.85966
X-0.33600 Y1.85966
X-0.33600 Y1.85866
X-0.33500 Y1.85866
X-0.33500 Y1.85766
X-0.33400 Y1.85766
X-0.33400 Y1.85666
X-0.33300 Y1.85666
X-0.33300 Y1.85566
X-0.33200 Y1.85566
X-0.33200 Y1.85466
X-0.33100 Y1.85466
X-0.33100 Y1.85366
X-0.33000 Y1.85366
X-0.33000 Y1.85266
X-0.32900 Y1.85266
X-0.32900 Y1.85166
X-0.32800 Y1.85166
X-0.32800 Y1.85066
X-0.32700 Y1.85066
X-0.32700 Y1.84966
X-0.32600 Y1.84966
X-0.32600 Y1.84866
X-0.32500 Y1.84866
X-0.32500 Y1.84766
X-0.32400 Y1.84766
X-0.32400 Y1.84666
X-0.32300 Y1.84666
X-0.32300 Y1.84566
X-0.32200 Y1.84566
X-0.32200 Y1.84466
X-0.32100 Y1.84466
X-0.32100 Y1.84366
X-0.32000 Y1.84366
X-0.32000 Y1.84266
X-0.31900 Y1.84266
X-0.31900 Y1.84166
X-0.31800 Y1.84166
X-0.31800 Y1.84066
X-0.31700 Y1.84066
X-0.31700 Y1.83966
X-0.31600 Y1.83966
X-0.31600 Y1.83866
X-0.31500 Y1.83866
X-0.31500 Y1.83766
X-0.31400 Y1.83766
X-0.31400 Y1.83666
X-0.31300 Y1.83666
X-0.31300 Y1.83566
X-0.31200 Y1.83566
X-0.31200 Y1.83466
X-0.31100 Y1.83466
X-0.31100 Y1.83366
X-0.31000 Y1.83366
X-0.31000 Y1.83266
X-0.30900 Y1.83266
X-0.30900 Y1.83166
X-0.30800 Y1.83166
X-0.30800 Y1.83066
X-0.30700 Y1.83066
X-0.30700 Y1.82966
X-0.30600 Y1.82966
X-0.30600 Y1.82866
X-0.30500 Y1.82866
X-0.30500 Y1.82766
X-0.30400 Y1.82766
X-0.30400 Y1.82566
X-0.30500 Y1.82566
X-0.30500 Y1.82166
X-0.30600 Y1.82166
X-0.30600 Y1.81866
X-0.30700 Y1.81866
X-0.30700 Y1.81566
X-0.30800 Y1.81566
X-0.30800 Y1.80766
X-0.30900 Y1.80766
X-0.30900 Y1.79666
X-0.30800 Y1.79666
X-0.30800 Y1.78866
X-0.30700 Y1.78866
X-0.30700 Y1.78566
X-0.30600 Y1.78566
X-0.30600 Y1.78266
X-0.30500 Y1.78266
X-0.30500 Y1.77866
X-0.30400 Y1.77866
X-0.30400 Y1.77666
X-0.30300 Y1.77666
X-0.30300 Y1.77466
X-0.30200 Y1.77466
X-0.30200 Y1.77366
X-0.30100 Y1.77366
X-0.30100 Y1.77166
X-0.30000 Y1.77166
X-0.30000 Y1.76966
X-0.29900 Y1.76966
X-0.29900 Y1.76766
X-0.29800 Y1.76766
X-0.29800 Y1.76666
X-0.29700 Y1.76666
X-0.29700 Y1.76566
X-0.29600 Y1.76566
X-0.29600 Y1.76466
X-0.29500 Y1.76466
X-0.29500 Y1.76366
X-0.29400 Y1.76366
X-0.29400 Y1.76166
X-0.29300 Y1.76166
X-0.29300 Y1.76066
X-0.29200 Y1.76066
X-0.29200 Y1.75966
X-0.29100 Y1.75966
X-0.29100 Y1.75866
X-0.29000 Y1.75866
X-0.29000 Y1.75766
X-0.28800 Y1.75766
X-0.28800 Y1.75666
X-0.28700 Y1.75666
X-0.28700 Y1.75566
X-0.28600 Y1.75566
X-0.28600 Y1.75466
X-0.28500 Y1.75466
X-0.28500 Y1.75366
X-0.28400 Y1.75366
X-0.28400 Y1.75266
X-0.28200 Y1.75266
X-0.28200 Y1.75166
X-0.28000 Y1.75166
X-0.28000 Y1.75066
X-0.27800 Y1.75066
X-0.27800 Y1.74966
X-0.27700 Y1.74966
X-0.27700 Y1.74866
X-0.27500 Y1.74866
X-0.27500 Y1.74766
X-0.27300 Y1.74766
X-0.27300 Y1.74666
X-0.27000 Y1.74666
X-0.27000 Y0.25766
X-0.27300 Y0.25766
X-0.27300 Y0.25666
X-0.27500 Y0.25666
X-0.27500 Y0.25566
X-0.27700 Y0.25566
X-0.27700 Y0.25466
X-0.27800 Y0.25466
X-0.27800 Y0.25366
X-0.28000 Y0.25366
X-0.28000 Y0.25266
X-0.28200 Y0.25266
X-0.28200 Y0.25166
X-0.28400 Y0.25166
X-0.28400 Y0.25066
X-0.28500 Y0.25066
X-0.28500 Y0.24966
X-0.28600 Y0.24966
X-0.28600 Y0.24866
X-0.28700 Y0.24866
X-0.28700 Y0.24766
X-0.28800 Y0.24766
X-0.28800 Y0.24666
X-0.29000 Y0.24666
X-0.29000 Y0.24566
X-0.29100 Y0.24566
X-0.29100 Y0.24466
X-0.29200 Y0.24466
X-0.29200 Y0.24366
X-0.29300 Y0.24366
X-0.29300 Y0.24266
X-0.29400 Y0.24266
X-0.29400 Y0.24066
X-0.29500 Y0.24066
X-0.29500 Y0.23966
X-0.29600 Y0.23966
X-0.29600 Y0.23866
X-0.29700 Y0.23866
X-0.29700 Y0.23766
X-0.29800 Y0.23766
X-0.29800 Y0.23666
X-0.29900 Y0.23666
X-0.29900 Y0.23466
X-0.30000 Y0.23466
X-0.30000 Y0.23266
X-0.30100 Y0.23266
X-0.30100 Y0.23066
X-0.30200 Y0.23066
X-0.30200 Y0.22966
X-0.30300 Y0.22966
X-0.30300 Y0.22766
X-0.30400 Y0.22766
X-0.30400 Y0.22566
X-0.30500 Y0.22566
X-0.30500 Y0.22166
X-0.30600 Y0.22166
X-0.30600 Y0.21866
X-0.30700 Y0.21866
X-0.30700 Y0.21566
X-0.30800 Y0.21566
X-0.30800 Y0.20766
X-0.30900 Y0.20766
X-0.30900 Y0.19666
X-0.30800 Y0.19666
X-0.30800 Y0.18866
X-0.30700 Y0.18866
X-0.30700 Y0.18566
X-0.30600 Y0.18566
X-0.30600 Y0.18266
X-0.30500 Y0.18266
X-0.30500 Y0.17866
X-0.30400 Y0.17866
X-0.30400 Y0.17666
X-0.30300 Y0.17666
X-0.30300 Y0.17466
X-0.30200 Y0.17466
X-0.30200 Y0.17366
X-0.30100 Y0.17366
X-0.30100 Y0.17166
X-0.30000 Y0.17166
X-0.30000 Y0.16966
X-0.29900 Y0.16966
X-0.29900 Y0.16766
X-0.29800 Y0.16766
X-0.29800 Y0.16666
X-0.29700 Y0.16666
X-0.29700 Y0.16566
X-0.29600 Y0.16566
X-0.29600 Y0.16466
X-0.29500 Y0.16466
X-0.29500 Y0.16366
X-0.29400 Y0.16366
X-0.29400 Y0.16166
X-0.29300 Y0.16166
X-0.29300 Y0.16066
X-0.29200 Y0.16066
X-0.29200 Y0.15966
X-0.29100 Y0.15966
X-0.29100 Y0.15866
X-0.29000 Y0.15866
X-0.29000 Y0.15766
X-0.28800 Y0.15766
X-0.28800 Y0.15666
X-0.28700 Y0.15666
X-0.28700 Y0.15566
X-0.28600 Y0.15566
X-0.28600 Y0.15466
X-0.28500 Y0.15466
X-0.28500 Y0.15366
X-0.28400 Y0.15366
X-0.28400 Y0.15266
X-0.28200 Y0.15266
X-0.28200 Y0.15166
X-0.28000 Y0.15166
X-0.28000 Y0.15066
X-0.27800 Y0.15066
X-0.27800 Y0.14966
X-0.27700 Y0.14966
X-0.27700 Y0.14866
X-0.27500 Y0.14866
X-0.27500 Y0.14766
X-0.27300 Y0.14766
X-0.27300 Y0.14666
X-0.26900 Y0.14666
X-0.26900 Y0.14566
X-0.26600 Y0.14566
X-0.26600 Y0.14466
X-0.26300 Y0.14466
X-0.26300 Y0.14366
X-0.25600 Y0.14366
X-0.25600 Y0.14266
X-0.24300 Y0.14266
X-0.24300 Y0.14366
X-0.23600 Y0.14366
X-0.23600 Y0.14466
X-0.23300 Y0.14466
X-0.23300 Y0.14566
X-0.22900 Y0.14566
X-0.22900 Y0.14666
X-0.22600 Y0.14666
X-0.22600 Y0.14766
X-0.22400 Y0.14766
X-0.22400 Y0.14866
X-0.22200 Y0.14866
X-0.22200 Y0.14966
X-0.22100 Y0.14966
X-0.22100 Y0.15066
X-0.21900 Y0.15066
X-0.21900 Y0.15166
X-0.21700 Y0.15166
X-0.21700 Y0.15266
X-0.21500 Y0.15266
X-0.21500 Y0.15366
X-0.21400 Y0.15366
X-0.21400 Y0.15466
X-0.21300 Y0.15466
X-0.21300 Y0.15566
X-0.21200 Y0.15566
X-0.21200 Y0.15666
X-0.21100 Y0.15666
X-0.21100 Y0.15766
X-0.20900 Y0.15766
X-0.20900 Y0.15866
X-0.20800 Y0.15866
X-0.20800 Y0.15966
X-0.20700 Y0.15966
X-0.20700 Y0.16066
X-0.20600 Y0.16066
X-0.20600 Y0.16166
X-0.20500 Y0.16166
X-0.20500 Y0.16366
X-0.20400 Y0.16366
X-0.20400 Y0.16466
X-0.20300 Y0.16466
X-0.20300 Y0.16566
X-0.20200 Y0.16566
X-0.20200 Y0.16666
X-0.20100 Y0.16666
X-0.20100 Y0.16766
X-0.20000 Y0.16766
X-0.20000 Y0.16966
X-0.19900 Y0.16966
X-0.19900 Y0.17166
X-0.19800 Y0.17166
X-0.19800 Y0.17366
X-0.19700 Y0.17366
X-0.19700 Y0.17466
X-0.19600 Y0.17466
X-0.19600 Y0.17666
X-0.19500 Y0.17666
X-0.19500 Y0.17866
X-0.19400 Y0.17866
X-0.19400 Y0.18166
X-0.19300 Y0.18166
X-0.19300 Y0.18566
X-0.19200 Y0.18566
X-0.19200 Y0.18866
X-0.19100 Y0.18866
X-0.19100 Y0.19566
X-0.19000 Y0.19566
X-0.19000 Y0.20866
X-0.19100 Y0.20866
X-0.19100 Y0.21566
X-0.19200 Y0.21566
X-0.19200 Y0.21866
X-0.19300 Y0.21866
X-0.19300 Y0.22266
X-0.19400 Y0.22266
X-0.19400 Y0.22566
X-0.19500 Y0.22566
X-0.19500 Y0.22766
X-0.19600 Y0.22766
X-0.19600 Y0.22966
X-0.19700 Y0.22966
X-0.19700 Y0.23066
X-0.19800 Y0.23066
X-0.19800 Y0.23266
X-0.19900 Y0.23266
X-0.19900 Y0.23466
X-0.20000 Y0.23466
X-0.20000 Y0.23666
X-0.20100 Y0.23666
X-0.20100 Y0.23766
X-0.20200 Y0.23766
X-0.20200 Y0.23866
X-0.20300 Y0.23866
X-0.20300 Y0.23966
X-0.20400 Y0.23966
X-0.20400 Y0.24066
X-0.20500 Y0.24066
X-0.20500 Y0.24266
X-0.20600 Y0.24266
X-0.20600 Y0.24366
X-0.20700 Y0.24366
X-0.20700 Y0.24466
X-0.20800 Y0.24466
X-0.20800 Y0.24566
X-0.20900 Y0.24566
X-0.20900 Y0.24666
X-0.21100 Y0.24666
X-0.21100 Y0.24766
X-0.21200 Y0.24766
X-0.21200 Y0.24866
X-0.21300 Y0.24866
X-0.21300 Y0.24966
X-0.21400 Y0.24966
X-0.21400 Y0.25066
X-0.21500 Y0.25066
X-0.21500 Y0.25166
X-0.21700 Y0.25166
X-0.21700 Y0.25266
X-0.21900 Y0.25266
X-0.21900 Y0.25366
X-0.22100 Y0.25366
X-0.22100 Y0.25466
X-0.22200 Y0.25466
X-0.22200 Y0.25566
X-0.22400 Y0.25566
X-0.22400 Y0.25666
X-0.22600 Y0.25666
X-0.22600 Y0.25766
X-0.23000 Y0.25766
X-0.23000 Y1.74566
X-0.22900 Y1.74566
X-0.22900 Y1.74666
X-0.22600 Y1.74666
X-0.22600 Y1.74766
X-0.22400 Y1.74766
X-0.22400 Y1.74866
X-0.22200 Y1.74866
X-0.22200 Y1.74966
X-0.22100 Y1.74966
X-0.22100 Y1.75066
X-0.21900 Y1.75066
X-0.21900 Y1.75166
X-0.21700 Y1.75166
X-0.21700 Y1.75266
X-0.21500 Y1.75266
X-0.21500 Y1.75366
X-0.21400 Y1.75366
X-0.21400 Y1.75466
X-0.21300 Y1.75466
X-0.21300 Y1.75566
X-0.21200 Y1.75566
X-0.21200 Y1.75666
X-0.21100 Y1.75666
X-0.21100 Y1.75766
X-0.20900 Y1.75766
X-0.20900 Y1.75866
X-0.20800 Y1.75866
X-0.20800 Y1.75966
X-0.20700 Y1.75966
X-0.20700 Y1.76066
X-0.20600 Y1.76066
X-0.20600 Y1.76166
X-0.20500 Y1.76166
X-0.20500 Y1.76366
X-0.20400 Y1.76366
X-0.20400 Y1.76466
X-0.20300 Y1.76466
X-0.20300 Y1.76566
X-0.20200 Y1.76566
X-0.20200 Y1.76666
X-0.20100 Y1.76666
X-0.20100 Y1.76766
X-0.20000 Y1.76766
X-0.20000 Y1.76966
X-0.19900 Y1.76966
X-0.19900 Y1.77166
X-0.19800 Y1.77166
X-0.19800 Y1.77366
X-0.19700 Y1.77366
X-0.19700 Y1.77466
X-0.19600 Y1.77466
X-0.19600 Y1.77666
X-0.19500 Y1.77666
X-0.19500 Y1.77866
X-0.19400 Y1.77866
X-0.19400 Y1.78166
X-0.19300 Y1.78166
X-0.19300 Y1.78566
X-0.19200 Y1.78566
X-0.19200 Y1.78866
X-0.19100 Y1.78866
X-0.19100 Y1.79566
X-0.19000 Y1.79566
X-0.19000 Y1.80866
X-0.19100 Y1.80866
X-0.19100 Y1.81566
X-0.19200 Y1.81566
X-0.19200 Y1.81866
X-0.19300 Y1.81866
X-0.19300 Y1.82266
X-0.19400 Y1.82266
X-0.19400 Y1.82566
X-0.19500 Y1.82566
X-0.19500 Y1.82766
X-0.19600 Y1.82766
X-0.19600 Y1.82966
X-0.19700 Y1.82966
X-0.19700 Y1.83066
X-0.19800 Y1.83066
X-0.19800 Y1.83266
X-0.19900 Y1.83266
X-0.19900 Y1.83466
X-0.20000 Y1.83466
X-0.20000 Y1.83666
X-0.20100 Y1.83666
X-0.20100 Y1.83766
X-0.20200 Y1.83766
X-0.20200 Y1.83866
X-0.20300 Y1.83866
X-0.20300 Y1.83966
X-0.20400 Y1.83966
X-0.20400 Y1.84066
X-0.20500 Y1.84066
X-0.20500 Y1.84266
X-0.20600 Y1.84266
X-0.20600 Y1.84366
X-0.20700 Y1.84366
X-0.20700 Y1.84466
X-0.20800 Y1.84466
X-0.20800 Y1.84566
X-0.20900 Y1.84566
X-0.20900 Y1.84666
X-0.21100 Y1.84666
X-0.21100 Y1.84766
X-0.21200 Y1.84766
X-0.21200 Y1.84866
X-0.21300 Y1.84866
X-0.21300 Y1.84966
X-0.21400 Y1.84966
X-0.21400 Y1.85066
X-0.21500 Y1.85066
X-0.21500 Y1.85166
X-0.21700 Y1.85166
X-0.21700 Y1.85266
X-0.21900 Y1.85266
X-0.21900 Y1.85366
X-0.22100 Y1.85366
X-0.22100 Y1.85466
X-0.22200 Y1.85466
X-0.22200 Y1.85566
X-0.22400 Y1.85566
X-0.22400 Y1.85666
X-0.22600 Y1.85666
X-0.22600 Y1.85766
X-0.23000 Y1.85766
X-0.23000 Y1.85866
X-0.23300 Y1.85866
X-0.23300 Y1.85966
X-0.23600 Y1.85966
X-0.23600 Y1.86066
X-0.24400 Y1.86066
X-0.24400 Y1.86166
X-0.25500 Y1.86166
X-0.25500 Y1.86066
X-0.26300 Y1.86066
X-0.26300 Y1.85966
X-0.26600 Y1.85966
X-0.26600 Y1.85866
X-0.26900 Y1.85866
X-0.26900 Y1.85766
X-0.27300 Y1.85766
X-0.27300 Y1.85666
X-0.27500 Y1.85666
X-0.27500 Y1.85566
X-0.27600 Y1.85566
X-0.27600 Y1.85666
X-0.27700 Y1.85666
X-0.27700 Y1.85766
X-0.27800 Y1.85766
X-0.27800 Y1.85866
X-0.27900 Y1.85866
X-0.27900 Y1.85966
X-0.28000 Y1.85966
X-0.28000 Y1.86066
X-0.28100 Y1.86066
X-0.28100 Y1.86166
X-0.28200 Y1.86166
X-0.28200 Y1.86266
X-0.28300 Y1.86266
X-0.28300 Y1.86366
X-0.28400 Y1.86366
X-0.28400 Y1.86466
X-0.28500 Y1.86466
X-0.28500 Y1.86566
X-0.28600 Y1.86566
X-0.28600 Y1.86666
X-0.28700 Y1.86666
X-0.28700 Y1.86766
X-0.28800 Y1.86766
X-0.28800 Y1.86866
X-0.28900 Y1.86866
X-0.28900 Y1.86966
X-0.29000 Y1.86966
X-0.29000 Y1.87066
X-0.29100 Y1.87066
X-0.29100 Y1.87166
X-0.29200 Y1.87166
X-0.29200 Y1.87266
X-0.29300 Y1.87266
X-0.29300 Y1.87366
X-0.29400 Y1.87366
X-0.29400 Y1.87466
X-0.29500 Y1.87466
X-0.29500 Y1.87566
X-0.29600 Y1.87566
X-0.29600 Y1.87666
X-0.29700 Y1.87666
X-0.29700 Y1.87766
X-0.29800 Y1.87766
X-0.29800 Y1.87866
X-0.29900 Y1.87866
X-0.29900 Y1.87966
X-0.30000 Y1.87966
X-0.30000 Y1.88066
X-0.30100 Y1.88066
X-0.30100 Y1.88166
X-0.30200 Y1.88166
X-0.30200 Y1.88266
X-0.30300 Y1.88266
X-0.30300 Y1.88366
X-0.30400 Y1.88366
X-0.30400 Y1.88466
X-0.30500 Y1.88466
X-0.30500 Y1.88566
X-0.30600 Y1.88566
X-0.30600 Y1.88666
X-0.30700 Y1.88666
X-0.30700 Y1.88766
X-0.30800 Y1.88766
X-0.30800 Y1.88866
X-0.30900 Y1.88866
X-0.30900 Y1.88966
X-0.31000 Y1.88966
X-0.31000 Y1.89066
X-0.31100 Y1.89066
X-0.31100 Y1.89166
X-0.31200 Y1.89166
X-0.31200 Y1.89266
X-0.31300 Y1.89266
X-0.31300 Y1.89366
X-0.31400 Y1.89366
X-0.31400 Y1.89466
X-0.31500 Y1.89466
X-0.31500 Y1.89566
X-0.31600 Y1.89566
X-0.31600 Y1.89666
X-0.31700 Y1.89666
X-0.31700 Y1.89766
X-0.31800 Y1.89766
X-0.31800 Y1.89866
X-0.31900 Y1.89866
X-0.31900 Y1.89966
X-0.32000 Y1.89966
X-0.32000 Y1.90066
X-0.32100 Y1.90066
X-0.32100 Y1.90166
X-0.32200 Y1.90166
X-0.32200 Y1.90266
X-0.32300 Y1.90266
X-0.32300 Y1.90366
X-0.32400 Y1.90366
X-0.32400 Y1.90466
X-0.32500 Y1.90466
X-0.32500 Y1.90566
X-0.32600 Y1.90566
X-0.32600 Y1.90666
X-0.32700 Y1.90666
X-0.32700 Y1.90766
X-0.32800 Y1.90766
X-0.32800 Y1.90866
X-0.32900 Y1.90866
X-0.32900 Y1.90966
X-0.33100 Y1.90966
X-0.33100 Y1.91066
X-0.33300 Y1.91066
X-0.33300 Y1.91166
X-0.33700 Y1.91166
X-0.33700 Y1.91266
X-0.99300 Y1.91266
X-0.99300 Y1.91166
G04 P0 ( dwell for no time -- G64 should not smooth over this point )
G00 Z0.11811 ( retract )

G00 X-0.95500 Y1.86066 ( rapid move to begin. )
G01 Z-0.00197 F31.49606 ( plunge. )
G04 P0 ( dwell for no time -- G64 should not smooth over this point )
X-0.95500 Y1.86066
X-0.96300 Y1.86066
X-0.96300 Y1.85966
X-0.96600 Y1.85966
X-0.96600 Y1.85866
X-0.96900 Y1.85866
X-0.96900 Y1.85766
X-0.97300 Y1.85766
X-0.97300 Y1.85666
X-0.97500 Y1.85666
X-0.97500 Y1.85566
X-0.97700 Y1.85566
X-0.97700 Y1.85466
X-0.97800 Y1.85466
X-0.97800 Y1.85366
X-0.98000 Y1.85366
X-0.98000 Y1.85266
X-0.98200 Y1.85266
X-0.98200 Y1.85166
X-0.98400 Y1.85166
X-0.98400 Y1.85066
X-0.98500 Y1.85066
X-0.98500 Y1.84966
X-0.98600 Y1.84966
X-0.98600 Y1.84866
X-0.98700 Y1.84866
X-0.98700 Y1.84766
X-0.98800 Y1.84766
X-0.98800 Y1.84666
X-0.99000 Y1.84666
X-0.99000 Y1.84566
X-0.99100 Y1.84566
X-0.99100 Y1.84466
X-0.99200 Y1.84466
X-0.99200 Y1.84366
X-0.99300 Y1.84366
X-0.99300 Y1.84266
X-0.99400 Y1.84266
X-0.99400 Y1.84066
X-0.99500 Y1.84066
X-0.99500 Y1.83966
X-0.99600 Y1.83966
X-0.99600 Y1.83866
X-0.99700 Y1.83866
X-0.99700 Y1.83766
X-0.99800 Y1.83766
X-0.99800 Y1.83666
X-0.99900 Y1.83666
X-0.99900 Y1.83466
X-1.00000 Y1.83466
X-1.00000 Y1.83266
X-1.00100 Y1.83266
X-1.00100 Y1.83066
X-1.00200 Y1.83066
X-1.00200 Y1.82966
X-1.00300 Y1.82966
X-1.00300 Y1.82766
X-1.00400 Y1.82766
X-1.00400 Y1.82566
X-1.00500 Y1.82566
X-1.00500 Y1.82166
X-1.00600 Y1.82166
X-1.00600 Y1.81866
X-1.00700 Y1.81866
X-1.00700 Y1.81566
X-1.00800 Y1.81566
X-1.00800 Y1.80766
X-1.00900 Y1.80766
X-1.00900 Y1.79666
X-1.00800 Y1.79666
X-1.00800 Y1.78866
X-1.00700 Y1.78866
X-1.00700 Y1.78566
X-1.00600 Y1.78566
X-1.00600 Y1.78266
X-1.00500 Y1.78266
X-1.00500 Y1.77866
X-1.00400 Y1.77866
X-1.00400 Y1.77666
X-1.00300 Y1.77666
X-1.00300 Y1.77466
X-1.00200 Y1.77466
X-1.00200 Y1.77366
X-1.00100 Y1.77366
X-1.00100 Y1.77166
X-1.00000 Y1.77166
X-1.00000 Y1.76966
X-0.99900 Y1.76966
X-0.99900 Y1.76766
X-0.99800 Y1.76766
X-0.99800 Y1.76666
X-0.99700 Y1.76666
X-0.99700 Y1.76566
X-0.99600 Y1.76566
X-0.99600 Y1.76466
X-0.99500 Y1.76466
X-0.99500 Y1.76366
X-0.99400 Y1.76366
X-0.99400 Y1.76166
X-0.99300 Y1.76166
X-0.99300 Y1.76066
X-0.99200 Y1.76066
X-0.99200 Y1.75966
X-0.99100 Y1.75966
X-0.99100 Y1.75866
X-0.99000 Y1.75866
X-0.99000 Y1.75766
X-0.98800 Y1.75766
X-0.98800 Y1.75666
X-0.98700 Y1.75666
X-0.98700 Y1.75566
X-0.98600 Y1.75566
X-0.98600 Y1.75466
X-0.98500 Y1.75466
X-0.98500 Y1.75366
X-0.98400 Y1.75366
X-0.98400 Y1.75266
X-0.98200 Y1.75266
X-0.98200 Y1.75166
X-0.98000 Y1.75166
X-0.98000 Y1.75066
X-0.97800 Y1.75066
X-0.97800 Y1.74966
X-0.97700 Y1.74966
X-0.97700 Y1.74866
X-0.97500 Y1.74866
X-0.97500 Y1.74766
X-0.97300 Y1.74766
X-0.97300 Y1.74666
X-0.97000 Y1.74666
X-0.97000 Y0.77866
X-0.97100 Y0.77866
X-0.97100 Y0.77766
X-0.97200 Y0.77766
X-0.97200 Y0.77666
X-0.97300 Y0.77666
X-0.97300 Y0.77566
X-0.97400 Y0.77566
X-0.97400 Y0.77466
X-0.97500 Y0.77466
X-0.97500 Y0.77366
X-0.97600 Y0.77366
X-0.97600 Y0.77266
X-0.97700 Y0.77266
X-0.97700 Y0.77166
X-0.97800 Y0.77166
X-0.97800 Y0.77066
X-0.97900 Y0.77066
X-0.97900 Y0.76966
X-0.98000 Y0.76966
X-0.98000 Y0.76866
X-0.98100 Y0.76866
X-0.98100 Y0.76766
X-0.98200 Y0.76766
X-0.98200 Y0.76666
X-0.98300 Y0.76666
X-0.98300 Y0.76566
X-0.98400 Y0.76566
X-0.98400 Y0.76466
X-0.98500 Y0.76466
X-0.98500 Y0.76366
X-0.98600 Y0.76366
X-0.98600 Y0.76266
X-0.98700 Y0.76266
X-0.98700 Y0.76166
X-0.98800 Y0.76166
X-0.98800 Y0.76066
X-0.98900 Y0.76066
X-0.98900 Y0.75966
X-0.99000 Y0.75966
X-0.99000 Y0.75866
X-0.99100 Y0.75866
X-0.99100 Y0.75766
X-0.99200 Y0.75766
