( pcb2gcode 1.1.4 )

G94     ( Inches per minute feed rate. )
G20     ( Units == INCHES.             )
G90     ( Absolute coordinates.        )
S18000  ( RPM spindle speed.           )
M3      ( Spindle on clockwise.        )

G64 P0.00500 ( set maximum deviation from commanded toolpath )

G04 P0 ( dwell for no time -- G64 should not smooth over this point )
G00 Z0.11811 ( retract )

G00 X2.02600 Y1.97169 ( rapid move to begin. )
G01 Z-0.00197 F31.49606 ( plunge. )
G04 P0 ( dwell for no time -- G64 should not smooth over this point )
X2.02600 Y1.97169
X2.03200 Y1.97169
X2.03200 Y1.97069
X2.03400 Y1.97069
X2.03400 Y1.96969
X2.03600 Y1.96969
X2.03600 Y1.96869
X2.03700 Y1.96869
X2.03700 Y1.96769
X2.03900 Y1.96769
X2.03900 Y1.96569
X2.04000 Y1.96569
X2.04000 Y1.96469
X2.04100 Y1.96469
X2.04100 Y1.96369
X2.04200 Y1.96369
X2.04200 Y1.96169
X2.04300 Y1.96169
X2.04300 Y1.95869
X2.04400 Y1.95869
X2.04400 Y1.95369
X2.04500 Y1.95369
X2.04500 Y1.95069
X2.04400 Y1.95069
X2.04400 Y1.94569
X2.04300 Y1.94569
X2.04300 Y1.94269
X2.04200 Y1.94269
X2.04200 Y1.94069
X2.04100 Y1.94069
X2.04100 Y1.93969
X2.04000 Y1.93969
X2.04000 Y1.93869
X2.03900 Y1.93869
X2.03900 Y1.93669
X2.03700 Y1.93669
X2.03700 Y1.93569
X2.03600 Y1.93569
X2.03600 Y1.93469
X2.03400 Y1.93469
X2.03400 Y1.93369
X2.03200 Y1.93369
X2.03200 Y1.93269
X2.02600 Y1.93269
X2.02600 Y1.93169
X2.02300 Y1.93169
X2.02300 Y1.93269
X2.01700 Y1.93269
X2.01700 Y1.93369
X2.01500 Y1.93369
X2.01500 Y1.93469
X2.01300 Y1.93469
X2.01300 Y1.93569
X2.01200 Y1.93569
X2.01200 Y1.93669
X2.01000 Y1.93669
X2.01000 Y1.93869
X2.00900 Y1.93869
X2.00900 Y1.93969
X2.00800 Y1.93969
X2.00800 Y1.94069
X2.00700 Y1.94069
X2.00700 Y1.94269
X2.00600 Y1.94269
X2.00600 Y1.94569
X2.00500 Y1.94569
X2.00500 Y1.95069
X2.00400 Y1.95069
X2.00400 Y1.95369
X2.00500 Y1.95369
X2.00500 Y1.95869
X2.00600 Y1.95869
X2.00600 Y1.96169
X2.00700 Y1.96169
X2.00700 Y1.96369
X2.00800 Y1.96369
X2.00800 Y1.96469
X2.00900 Y1.96469
X2.00900 Y1.96569
X2.01000 Y1.96569
X2.01000 Y1.96769
X2.01200 Y1.96769
X2.01200 Y1.96869
X2.01300 Y1.96869
X2.01300 Y1.96969
X2.01500 Y1.96969
X2.01500 Y1.97069
X2.01700 Y1.97069
X2.01700 Y1.97169
X2.02300 Y1.97169
X2.02300 Y1.97269
X2.02600 Y1.97269
X2.02600 Y1.97169
G04 P0 ( dwell for no time -- G64 should not smooth over this point )
G00 Z0.11811 ( retract )

G00 X0.25500 Y1.86069 ( rapid move to begin. )
G01 Z-0.00197 F31.49606 ( plunge. )
G04 P0 ( dwell for no time -- G64 should not smooth over this point )
X0.25500 Y1.86069
X0.26300 Y1.86069
X0.26300 Y1.85969
X0.26600 Y1.85969
X0.26600 Y1.85869
X0.26900 Y1.85869
X0.26900 Y1.85769
X0.27300 Y1.85769
X0.27300 Y1.85669
X0.27500 Y1.85669
X0.27500 Y1.85569
X0.27700 Y1.85569
X0.27700 Y1.85469
X0.27800 Y1.85469
X0.27800 Y1.85369
X0.28000 Y1.85369
X0.28000 Y1.85269
X0.28200 Y1.85269
X0.28200 Y1.85169
X0.28400 Y1.85169
X0.28400 Y1.85069
X0.28500 Y1.85069
X0.28500 Y1.84969
X0.28600 Y1.84969
X0.28600 Y1.84869
X0.28700 Y1.84869
X0.28700 Y1.84769
X0.28800 Y1.84769
X0.28800 Y1.84669
X0.29000 Y1.84669
X0.29000 Y1.84569
X0.29100 Y1.84569
X0.29100 Y1.84469
X0.29200 Y1.84469
X0.29200 Y1.84369
X0.29300 Y1.84369
X0.29300 Y1.84269
X0.29400 Y1.84269
X0.29400 Y1.84069
X0.29500 Y1.84069
X0.29500 Y1.83969
X0.29600 Y1.83969
X0.29600 Y1.83869
X0.29700 Y1.83869
X0.29700 Y1.83769
X0.29800 Y1.83769
X0.29800 Y1.83669
X0.29900 Y1.83669
X0.29900 Y1.83469
X0.30000 Y1.83469
X0.30000 Y1.83269
X0.30100 Y1.83269
X0.30100 Y1.83069
X0.30200 Y1.83069
X0.30200 Y1.82969
X0.30300 Y1.82969
X0.30300 Y1.82769
X0.30400 Y1.82769
X0.30400 Y1.82569
X0.30500 Y1.82569
X0.30500 Y1.82169
X0.30600 Y1.82169
X0.30600 Y1.81869
X0.30700 Y1.81869
X0.30700 Y1.81569
X0.30800 Y1.81569
X0.30800 Y1.80769
X0.30900 Y1.80769
X0.30900 Y1.79669
X0.30800 Y1.79669
X0.30800 Y1.78869
X0.30700 Y1.78869
X0.30700 Y1.78569
X0.30600 Y1.78569
X0.30600 Y1.78269
X0.30500 Y1.78269
X0.30500 Y1.77869
X0.30400 Y1.77869
X0.30400 Y1.77669
X0.30300 Y1.77669
X0.30300 Y1.77469
X0.30200 Y1.77469
X0.30200 Y1.77369
X0.30100 Y1.77369
X0.30100 Y1.77169
X0.30000 Y1.77169
X0.30000 Y1.76969
X0.29900 Y1.76969
X0.29900 Y1.76769
X0.29800 Y1.76769
X0.29800 Y1.76669
X0.29700 Y1.76669
X0.29700 Y1.76569
X0.29600 Y1.76569
X0.29600 Y1.76469
X0.29500 Y1.76469
X0.29500 Y1.76369
X0.29400 Y1.76369
X0.29400 Y1.76169
X0.29300 Y1.76169
X0.29300 Y1.76069
X0.29200 Y1.76069
X0.29200 Y1.75969
X0.29100 Y1.75969
X0.29100 Y1.75869
X0.29000 Y1.75869
X0.29000 Y1.75769
X0.28800 Y1.75769
X0.28800 Y1.75669
X0.28700 Y1.75669
X0.28700 Y1.75569
X0.28600 Y1.75569
X0.28600 Y1.75469
X0.28500 Y1.75469
X0.28500 Y1.75369
X0.28400 Y1.75369
X0.28400 Y1.75269
X0.28200 Y1.75269
X0.28200 Y1.75169
X0.28000 Y1.75169
X0.28000 Y1.75069
X0.27800 Y1.75069
X0.27800 Y1.74969
X0.27700 Y1.74969
X0.27700 Y1.74869
X0.27500 Y1.74869
X0.27500 Y1.74769
X0.27300 Y1.74769
X0.27300 Y1.74669
X0.26900 Y1.74669
X0.26900 Y1.74569
X0.26600 Y1.74569
X0.26600 Y1.74469
X0.26300 Y1.74469
X0.26300 Y1.74369
X0.25600 Y1.74369
X0.25600 Y1.74269
X0.24300 Y1.74269
X0.24300 Y1.74369
X0.23600 Y1.74369
X0.23600 Y1.74469
X0.23300 Y1.74469
X0.23300 Y1.74569
X0.22900 Y1.74569
X0.22900 Y1.74669
X0.22600 Y1.74669
X0.22600 Y1.74769
X0.22400 Y1.74769
X0.22400 Y1.74869
X0.22200 Y1.74869
X0.22200 Y1.74969
X0.22100 Y1.74969
X0.22100 Y1.75069
X0.21900 Y1.75069
X0.21900 Y1.75169
X0.21700 Y1.75169
X0.21700 Y1.75269
X0.21500 Y1.75269
X0.21500 Y1.75369
X0.21400 Y1.75369
X0.21400 Y1.75469
X0.21300 Y1.75469
X0.21300 Y1.75569
X0.21200 Y1.75569
X0.21200 Y1.75669
X0.21100 Y1.75669
X0.21100 Y1.75769
X0.20900 Y1.75769
X0.20900 Y1.75869
X0.20800 Y1.75869
X0.20800 Y1.75969
X0.20700 Y1.75969
X0.20700 Y1.76069
X0.20600 Y1.76069
X0.20600 Y1.76169
X0.20500 Y1.76169
X0.20500 Y1.76369
X0.20400 Y1.76369
X0.20400 Y1.76469
X0.20300 Y1.76469
X0.20300 Y1.76569
X0.20200 Y1.76569
X0.20200 Y1.76669
X0.20100 Y1.76669
X0.20100 Y1.76769
X0.20000 Y1.76769
X0.20000 Y1.76969
X0.19900 Y1.76969
X0.19900 Y1.77169
X0.19800 Y1.77169
X0.19800 Y1.77369
X0.19700 Y1.77369
X0.19700 Y1.77469
X0.19600 Y1.77469
X0.19600 Y1.77669
X0.19500 Y1.77669
X0.19500 Y1.77869
X0.19400 Y1.77869
X0.19400 Y1.78169
X0.19300 Y1.78169
X0.19300 Y1.78569
X0.19200 Y1.78569
X0.19200 Y1.78869
X0.19100 Y1.78869
X0.19100 Y1.79569
X0.19000 Y1.79569
X0.19000 Y1.80869
X0.19100 Y1.80869
X0.19100 Y1.81569
X0.19200 Y1.81569
X0.19200 Y1.81869
X0.19300 Y1.81869
X0.19300 Y1.82269
X0.19400 Y1.82269
X0.19400 Y1.82569
X0.19500 Y1.82569
X0.19500 Y1.82769
X0.19600 Y1.82769
X0.19600 Y1.82969
X0.19700 Y1.82969
X0.19700 Y1.83069
X0.19800 Y1.83069
X0.19800 Y1.83269
X0.19900 Y1.83269
X0.19900 Y1.83469
X0.20000 Y1.83469
X0.20000 Y1.83669
X0.20100 Y1.83669
X0.20100 Y1.83769
X0.20200 Y1.83769
X0.20200 Y1.83869
X0.20300 Y1.83869
X0.20300 Y1.83969
X0.20400 Y1.83969
X0.20400 Y1.84069
X0.20500 Y1.84069
X0.20500 Y1.84269
X0.20600 Y1.84269
X0.20600 Y1.84369
X0.20700 Y1.84369
X0.20700 Y1.84469
X0.20800 Y1.84469
X0.20800 Y1.84569
X0.20900 Y1.84569
X0.20900 Y1.84669
X0.21100 Y1.84669
X0.21100 Y1.84769
X0.21200 Y1.84769
X0.21200 Y1.84869
X0.21300 Y1.84869
X0.21300 Y1.84969
X0.21400 Y1.84969
X0.21400 Y1.85069
X0.21500 Y1.85069
X0.21500 Y1.85169
X0.21700 Y1.85169
X0.21700 Y1.85269
X0.21900 Y1.85269
X0.21900 Y1.85369
X0.22100 Y1.85369
X0.22100 Y1.85469
X0.22200 Y1.85469
X0.22200 Y1.85569
X0.22400 Y1.85569
X0.22400 Y1.85669
X0.22600 Y1.85669
X0.22600 Y1.85769
X0.23000 Y1.85769
X0.23000 Y1.85869
X0.23300 Y1.85869
X0.23300 Y1.85969
X0.23600 Y1.85969
X0.23600 Y1.86069
X0.24400 Y1.86069
X0.24400 Y1.86169
X0.25500 Y1.86169
X0.25500 Y1.86069
G04 P0 ( dwell for no time -- G64 should not smooth over this point )
G00 Z0.11811 ( retract )

G00 X0.95500 Y1.86069 ( rapid move to begin. )
G01 Z-0.00197 F31.49606 ( plunge. )
G04 P0 ( dwell for no time -- G64 should not smooth over this point )
X0.95500 Y1.86069
X0.96300 Y1.86069
X0.96300 Y1.85969
X0.96600 Y1.85969
X0.96600 Y1.85869
X0.96900 Y1.85869
X0.96900 Y1.85769
X0.97300 Y1.85769
X0.97300 Y1.85669
X0.97500 Y1.85669
X0.97500 Y1.85569
X0.97700 Y1.85569
X0.97700 Y1.85469
X0.97800 Y1.85469
X0.97800 Y1.85369
X0.98000 Y1.85369
X0.98000 Y1.85269
X0.98200 Y1.85269
X0.98200 Y1.85169
X0.98400 Y1.85169
X0.98400 Y1.85069
X0.98500 Y1.85069
X0.98500 Y1.84969
X0.98600 Y1.84969
X0.98600 Y1.84869
X0.98700 Y1.84869
X0.98700 Y1.84769
X0.98800 Y1.84769
X0.98800 Y1.84669
X0.99000 Y1.84669
X0.99000 Y1.84569
X0.99100 Y1.84569
X0.99100 Y1.84469
X0.99200 Y1.84469
X0.99200 Y1.84369
X0.99300 Y1.84369
X0.99300 Y1.84269
X0.99400 Y1.84269
X0.99400 Y1.84069
X0.99500 Y1.84069
X0.99500 Y1.83969
X0.99600 Y1.83969
X0.99600 Y1.83869
X0.99700 Y1.83869
X0.99700 Y1.83769
X0.99800 Y1.83769
X0.99800 Y1.83669
X0.99900 Y1.83669
X0.99900 Y1.83469
X1.00000 Y1.83469
X1.00000 Y1.83269
X1.00100 Y1.83269
X1.00100 Y1.83069
X1.00200 Y1.83069
X1.00200 Y1.82969
X1.00300 Y1.82969
X1.00300 Y1.82769
X1.00400 Y1.82769
X1.00400 Y1.82569
X1.00500 Y1.82569
X1.00500 Y1.82169
X1.00600 Y1.82169
X1.00600 Y1.81869
X1.00700 Y1.81869
X1.00700 Y1.81569
X1.00800 Y1.81569
X1.00800 Y1.80769
X1.00900 Y1.80769
X1.00900 Y1.79669
X1.00800 Y1.79669
X1.00800 Y1.78869
X1.00700 Y1.78869
X1.00700 Y1.78569
X1.00600 Y1.78569
X1.00600 Y1.78269
X1.00500 Y1.78269
X1.00500 Y1.77869
X1.00400 Y1.77869
X1.00400 Y1.77669
X1.00300 Y1.77669
X1.00300 Y1.77469
X1.00200 Y1.77469
X1.00200 Y1.77369
X1.00100 Y1.77369
X1.00100 Y1.77169
X1.00000 Y1.77169
X1.00000 Y1.76969
X0.99900 Y1.76969
X0.99900 Y1.76769
X0.99800 Y1.76769
X0.99800 Y1.76669
X0.99700 Y1.76669
X0.99700 Y1.76569
X0.99600 Y1.76569
X0.99600 Y1.76469
X0.99500 Y1.76469
X0.99500 Y1.76369
X0.99400 Y1.76369
X0.99400 Y1.76169
X0.99300 Y1.76169
X0.99300 Y1.76069
X0.99200 Y1.76069
X0.99200 Y1.75969
X0.99100 Y1.75969
X0.99100 Y1.75869
X0.99000 Y1.75869
X0.99000 Y1.75769
X0.98800 Y1.75769
X0.98800 Y1.75669
X0.98700 Y1.75669
X0.98700 Y1.75569
X0.98600 Y1.75569
X0.98600 Y1.75469
X0.98500 Y1.75469
X0.98500 Y1.75369
X0.98400 Y1.75369
X0.98400 Y1.75269
X0.98200 Y1.75269
X0.98200 Y1.75169
X0.98000 Y1.75169
X0.98000 Y1.75069
X0.97800 Y1.75069
X0.97800 Y1.74969
X0.97700 Y1.74969
X0.97700 Y1.74869
X0.97500 Y1.74869
X0.97500 Y1.74769
X0.97300 Y1.74769
X0.97300 Y1.74669
X0.96900 Y1.74669
X0.96900 Y1.74569
X0.96600 Y1.74569
X0.96600 Y1.74469
X0.96300 Y1.74469
X0.96300 Y1.74369
X0.95600 Y1.74369
X0.95600 Y1.74269
X0.94300 Y1.74269
X0.94300 Y1.74369
X0.93600 Y1.74369
X0.93600 Y1.74469
X0.93300 Y1.74469
X0.93300 Y1.74569
X0.92900 Y1.74569
X0.92900 Y1.74669
X0.92600 Y1.74669
X0.92600 Y1.74769
X0.92400 Y1.74769
X0.92400 Y1.74869
X0.92200 Y1.74869
X0.92200 Y1.74969
X0.92100 Y1.74969
X0.92100 Y1.75069
X0.91900 Y1.75069
X0.91900 Y1.75169
X0.91700 Y1.75169
X0.91700 Y1.75269
X0.91500 Y1.75269
X0.91500 Y1.75369
X0.91400 Y1.75369
X0.91400 Y1.75469
X0.91300 Y1.75469
X0.91300 Y1.75569
X0.91200 Y1.75569
X0.91200 Y1.75669
X0.91100 Y1.75669
X0.91100 Y1.75769
X0.90900 Y1.75769
X0.90900 Y1.75869
X0.90800 Y1.75869
X0.90800 Y1.75969
X0.90700 Y1.75969
X0.90700 Y1.76069
X0.90600 Y1.76069
X0.90600 Y1.76169
X0.90500 Y1.76169
X0.90500 Y1.76369
X0.90400 Y1.76369
X0.90400 Y1.76469
X0.90300 Y1.76469
X0.90300 Y1.76569
X0.90200 Y1.76569
X0.90200 Y1.76669
X0.90100 Y1.76669
X0.90100 Y1.76769
X0.90000 Y1.76769
X0.90000 Y1.76969
X0.89900 Y1.76969
X0.89900 Y1.77169
X0.89800 Y1.77169
X0.89800 Y1.77369
X0.89700 Y1.77369
X0.89700 Y1.77469
X0.89600 Y1.77469
X0.89600 Y1.77669
X0.89500 Y1.77669
X0.89500 Y1.77869
X0.89400 Y1.77869
X0.89400 Y1.78169
X0.89300 Y1.78169
X0.89300 Y1.78569
X0.89200 Y1.78569
X0.89200 Y1.78869
X0.89100 Y1.78869
X0.89100 Y1.79569
X0.89000 Y1.79569
X0.89000 Y1.80869
X0.89100 Y1.80869
X0.89100 Y1.81569
X0.89200 Y1.81569
X0.89200 Y1.81869
X0.89300 Y1.81869
X0.89300 Y1.82269
X0.89400 Y1.82269
X0.89400 Y1.82569
X0.89500 Y1.82569
X0.89500 Y1.82769
X0.89600 Y1.82769
X0.89600 Y1.82969
X0.89700 Y1.82969
X0.89700 Y1.83069
X0.89800 Y1.83069
X0.89800 Y1.83269
X0.89900 Y1.83269
X0.89900 Y1.83469
X0.90000 Y1.83469
X0.90000 Y1.83669
X0.90100 Y1.83669
X0.90100 Y1.83769
X0.90200 Y1.83769
X0.90200 Y1.83869
X0.90300 Y1.83869
X0.90300 Y1.83969
X0.90400 Y1.83969
X0.90400 Y1.84069
X0.90500 Y1.84069
X0.90500 Y1.84269
X0.90600 Y1.84269
X0.90600 Y1.84369
X0.90700 Y1.84369
X0.90700 Y1.84469
X0.90800 Y1.84469
X0.90800 Y1.84569
X0.90900 Y1.84569
X0.90900 Y1.84669
X0.91100 Y1.84669
X0.91100 Y1.84769
X0.91200 Y1.84769
X0.91200 Y1.84869
X0.91300 Y1.84869
X0.91300 Y1.84969
X0.91400 Y1.84969
X0.91400 Y1.85069
X0.91500 Y1.85069
X0.91500 Y1.85169
X0.91700 Y1.85169
X0.91700 Y1.85269
X0.91900 Y1.85269
X0.91900 Y1.85369
X0.92100 Y1.85369
X0.92100 Y1.85469
X0.92200 Y1.85469
X0.92200 Y1.85569
X0.92400 Y1.85569
X0.92400 Y1.85669
X0.92600 Y1.85669
X0.92600 Y1.85769
X0.93000 Y1.85769
X0.93000 Y1.85869
X0.93300 Y1.85869
X0.93300 Y1.85969
X0.93600 Y1.85969
X0.93600 Y1.86069
X0.94400 Y1.86069
X0.94400 Y1.86169
X0.95500 Y1.86169
X0.95500 Y1.86069
G04 P0 ( dwell for no time -- G64 should not smooth over this point )
G00 Z0.11811 ( retract )

G00 X1.65500 Y1.86069 ( rapid move to begin. )
G01 Z-0.00197 F31.49606 ( plunge. )
G04 P0 ( dwell for no time -- G64 should not smooth over this point )
X1.65500 Y1.86069
X1.66300 Y1.86069
X1.66300 Y1.85969
X1.66600 Y1.85969
X1.66600 Y1.85869
X1.66900 Y1.85869
X1.66900 Y1.85769
X1.67300 Y1.85769
X1.67300 Y1.85669
X1.67500 Y1.85669
X1.67500 Y1.85569
X1.67700 Y1.85569
X1.67700 Y1.85469
X1.67800 Y1.85469
X1.67800 Y1.85369
X1.68000 Y1.85369
X1.68000 Y1.85269
X1.68200 Y1.85269
X1.68200 Y1.85169
X1.68400 Y1.85169
X1.68400 Y1.85069
X1.68500 Y1.85069
X1.68500 Y1.84969
X1.68600 Y1.84969
X1.68600 Y1.84869
X1.68700 Y1.84869
X1.68700 Y1.84769
X1.68800 Y1.84769
X1.68800 Y1.84669
X1.69000 Y1.84669
X1.69000 Y1.84569
X1.69100 Y1.84569
X1.69100 Y1.84469
X1.69200 Y1.84469
X1.69200 Y1.84369
X1.69300 Y1.84369
X1.69300 Y1.84269
X1.69400 Y1.84269
X1.69400 Y1.84069
X1.69500 Y1.84069
X1.69500 Y1.83969
X1.69600 Y1.83969
X1.69600 Y1.83869
X1.69700 Y1.83869
X1.69700 Y1.83769
X1.69800 Y1.83769
X1.69800 Y1.83669
X1.69900 Y1.83669
X1.69900 Y1.83469
X1.70000 Y1.83469
X1.70000 Y1.83269
X1.70100 Y1.83269
X1.70100 Y1.83069
X1.70200 Y1.83069
X1.70200 Y1.82969
X1.70300 Y1.82969
X1.70300 Y1.82769
X1.70400 Y1.82769
X1.70400 Y1.82569
X1.70500 Y1.82569
X1.70500 Y1.82169
X1.70600 Y1.82169
X1.70600 Y1.81869
X1.70700 Y1.81869
X1.70700 Y1.81569
X1.70800 Y1.81569
X1.70800 Y1.80769
X1.70900 Y1.80769
X1.70900 Y1.79669
X1.70800 Y1.79669
X1.70800 Y1.78869
X1.70700 Y1.78869
X1.70700 Y1.78569
X1.70600 Y1.78569
X1.70600 Y1.78269
X1.70500 Y1.78269
X1.70500 Y1.77869
X1.70400 Y1.77869
X1.70400 Y1.77669
X1.70400 Y1.77669
X1.70400 Y1.77569
X1.70500 Y1.77569
X1.70500 Y1.77469
X1.70600 Y1.77469
X1.70600 Y1.77369
X1.70700 Y1.77369
X1.70700 Y1.77269
X1.70800 Y1.77269
X1.70800 Y1.77169
X1.70900 Y1.77169
X1.70900 Y1.77069
X1.71000 Y1.77069
X1.71000 Y1.76969
X1.71100 Y1.76969
X1.71100 Y1.76869
X1.71200 Y1.76869
X1.71200 Y1.76769
X1.71300 Y1.76769
X1.71300 Y1.76669
X1.71400 Y1.76669
X1.71400 Y1.76569
X1.71500 Y1.76569
X1.71500 Y1.76469
X1.71600 Y1.76469
X1.71600 Y1.76369
X1.71700 Y1.76369
X1.71700 Y1.76269
X1.71800 Y1.76269
X1.71800 Y1.76169
X1.71900 Y1.76169
X1.71900 Y1.76069
X1.72000 Y1.76069
X1.72000 Y1.75969
X1.72100 Y1.75969
X1.72100 Y1.75869
X1.72200 Y1.75869
X1.72200 Y1.75769
X1.72300 Y1.75769
X1.72300 Y1.75669
X1.72400 Y1.75669
X1.72400 Y1.75569
X1.72500 Y1.75569
X1.72500 Y1.75469
X1.72600 Y1.75469
X1.72600 Y1.75369
X1.72700 Y1.75369
X1.72700 Y1.75269
X1.72800 Y1.75269
X1.72800 Y1.75169
X1.72900 Y1.75169
X1.72900 Y1.75069
X1.73000 Y1.75069
X1.73000 Y1.74969
X1.73100 Y1.74969
X1.73100 Y1.74869
X1.73200 Y1.74869
X1.73200 Y1.74769
X1.73300 Y1.74769
X1.73300 Y1.74669
X1.73400 Y1.74669
X1.73400 Y1.74569
X1.73500 Y1.74569
X1.73500 Y1.74469
X1.73600 Y1.74469
X1.73600 Y1.74369
X1.73700 Y1.74369
X1.73700 Y1.74269
X1.73800 Y1.74269
X1.73800 Y1.74169
X1.73900 Y1.74169
X1.73900 Y1.74069
X1.74000 Y1.74069
X1.74000 Y1.73969
X1.74100 Y1.73969
X1.74100 Y1.73869
X1.74200 Y1.73869
X1.74200 Y1.73769
X1.74300 Y1.73769
X1.74300 Y1.73669
X1.74400 Y1.73669
X1.74400 Y1.73569
X1.74500 Y1.73569
X1.74500 Y1.73469
X1.74600 Y1.73469
X1.74600 Y1.73369
X1.74700 Y1.73369
X1.74700 Y1.73269
X1.74800 Y1.73269
X1.74800 Y1.73169
X1.74900 Y1.73169
X1.74900 Y1.73069
X1.75000 Y1.73069
X1.75000 Y1.72969
X1.75100 Y1.72969
X1.75100 Y1.72869
X1.75200 Y1.72869
X1.75200 Y1.72769
X1.75300 Y1.72769
X1.75300 Y1.72669
X1.75400 Y1.72669
X1.75400 Y1.72569
X1.75500 Y1.72569
X1.75500 Y1.72469
X1.75600 Y1.72469
X1.75600 Y1.72369
X1.75700 Y1.72369
X1.75700 Y1.72269
X1.75800 Y1.72269
X1.75800 Y1.72169
X1.75900 Y1.72169
X1.75900 Y1.72069
X1.76000 Y1.72069
X1.76000 Y1.71969
X1.76100 Y1.71969
X1.76100 Y1.71869
X1.76200 Y1.71869
X1.76200 Y1.71769
X1.76300 Y1.71769
X1.76300 Y1.71669
X1.76400 Y1.71669
X1.76400 Y1.71569
X1.76500 Y1.71569
X1.76500 Y1.71469
X1.76600 Y1.71469
X1.76600 Y1.71369
X1.76700 Y1.71369
X1.76700 Y1.71269
X1.76800 Y1.71269
X1.76800 Y1.71169
X1.76900 Y1.71169
X1.76900 Y1.71069
X1.77000 Y1.71069
X1.77000 Y1.70969
X1.77100 Y1.70969
X1.77100 Y1.70869
X1.77200 Y1.70869
X1.77200 Y1.70769
X1.77300 Y1.70769
X1.77300 Y1.70669
X1.77400 Y1.70669
X1.77400 Y1.70569
X1.77500 Y1.70569
X1.77500 Y1.70469
X1.77600 Y1.70469
X1.77600 Y1.70369
X1.77700 Y1.70369
X1.77700 Y1.70269
X1.77800 Y1.70269
X1.77800 Y1.70169
X1.77900 Y1.70169
X1.77900 Y1.70069
X1.78000 Y1.70069
X1.78000 Y1.69969
X1.78100 Y1.69969
X1.78100 Y1.69869
X1.78200 Y1.69869
X1.78200 Y1.69769
X1.78300 Y1.69769
X1.78300 Y1.69669
X1.78400 Y1.69669
X1.78400 Y1.69569
X1.78500 Y1.69569
X1.78500 Y1.69469
X1.78600 Y1.69469
X1.78600 Y1.69369
X1.78700 Y1.69369
X1.78700 Y1.69269
X1.78800 Y1.69269
X1.78800 Y1.69169
X1.78900 Y1.69169
X1.78900 Y1.69069
X1.79000 Y1.69069
X1.79000 Y1.68969
X1.79100 Y1.68969
X1.79100 Y1.68869
X1.79200 Y1.68869
X1.79200 Y1.68769
X1.79300 Y1.68769
X1.79300 Y1.68669
X1.79400 Y1.68669
X1.79400 Y1.68569
X1.79500 Y1.68569
X1.79500 Y1.68469
X1.79600 Y1.68469
X1.79600 Y1.68369
X1.79700 Y1.68369
X1.79700 Y1.68269
X1.79800 Y1.68269
X1.79800 Y1.68169
X1.79900 Y1.68169
X1.79900 Y1.68069
X1.80000 Y1.68069
X1.80000 Y1.67969
X1.80100 Y1.67969
X1.80100 Y1.67869
X1.80200 Y1.67869
X1.80200 Y1.67769
X1.80300 Y1.67769
X1.80300 Y1.67669
X1.80400 Y1.67669
X1.80400 Y1.67569
X1.80500 Y1.67569
X1.80500 Y1.67469
X1.80600 Y1.67469
X1.80600 Y1.67369
X1.80700 Y1.67369
X1.80700 Y1.67269
X1.80800 Y1.67269
X1.80800 Y1.67169
X1.80900 Y1.67169
X1.80900 Y1.67069
X1.81000 Y1.67069
X1.81000 Y1.66969
X1.81100 Y1.66969
X1.81100 Y1.66869
X1.81200 Y1.66869
X1.81200 Y1.66769
X1.81300 Y1.66769
X1.81300 Y1.66669
X1.81400 Y1.66669
X1.81400 Y1.66569
X1.81500 Y1.66569
X1.81500 Y1.66469
X1.81600 Y1.66469
X1.81600 Y1.66369
X1.81700 Y1.66369
X1.81700 Y1.66269
X1.81800 Y1.66269
X1.81800 Y1.66169
X1.81900 Y1.66169
X1.81900 Y1.66069
X1.82000 Y1.66069
X1.82000 Y1.65969
X1.82100 Y1.65969
X1.82100 Y1.65869
X1.82200 Y1.65869
X1.82200 Y1.65769
X1.82300 Y1.65769
X1.82300 Y1.65669
X1.82400 Y1.65669
X1.82400 Y1.65569
X1.82500 Y1.65569
X1.82500 Y1.65469
X1.82600 Y1.65469
X1.82600 Y1.65369
X1.82700 Y1.65369
X1.82700 Y1.65269
X1.82800 Y1.65269
X1.82800 Y1.65169
X1.82900 Y1.65169
X1.82900 Y1.65069
X1.83000 Y1.65069
X1.83000 Y1.64969
X1.83100 Y1.64969
X1.83100 Y1.64869
X1.83200 Y1.64869
X1.83200 Y1.64769
X1.83300 Y1.64769
X1.83300 Y1.64669
X1.83400 Y1.64669
X1.83400 Y1.64569
X1.83500 Y1.64569
X1.83500 Y1.64469
X1.83600 Y1.64469
X1.83600 Y1.64369
X1.83700 Y1.64369
X1.83700 Y1.64269
X1.83800 Y1.64269
X1.83800 Y1.64169
X1.83900 Y1.64169
X1.83900 Y1.64069
X1.84000 Y1.64069
X1.84000 Y1.63969
X1.84100 Y1.63969
X1.84100 Y1.63869
X1.84200 Y1.63869
X1.84200 Y1.63769
X1.84300 Y1.63769
X1.84300 Y1.63669
X1.84400 Y1.63669
X1.84400 Y1.63569
X1.84500 Y1.63569
X1.84500 Y1.63469
X1.84600 Y1.63469
X1.84600 Y1.63369
X1.84700 Y1.63369
X1.84700 Y1.63269
X1.84800 Y1.63269
X1.84800 Y1.63169
X1.84900 Y1.63169
X1.84900 Y1.63069
X1.85000 Y1.63069
X1.85000 Y1.62969
X1.85100 Y1.62969
X1.85100 Y1.62869
X1.85200 Y1.62869
X1.85200 Y1.62769
X1.85300 Y1.62769
X1.85300 Y1.62669
X1.85400 Y1.62669
X1.85400 Y1.62569
X1.85500 Y1.62569
X1.85500 Y1.62469
X1.85600 Y1.62469
X1.85600 Y1.62369
X1.85700 Y1.62369
X1.85700 Y1.62269
X1.85800 Y1.62269
X1.85800 Y1.62169
X1.85900 Y1.62169
X1.85900 Y1.62069
X1.86000 Y1.62069
X1.86000 Y1.61969
X1.86100 Y1.61969
X1.86100 Y1.61869
X1.86200 Y1.61869
X1.86200 Y1.61769
X1.86300 Y1.61769
X1.86300 Y1.61669
X1.86400 Y1.61669
X1.86400 Y1.61569
X1.86500 Y1.61569
X1.86500 Y1.61469
X1.86600 Y1.61469
X1.86600 Y1.61369
X1.86700 Y1.61369
X1.86700 Y1.61269
X1.86800 Y1.61269
X1.86800 Y1.61169
X1.86900 Y1.61169
X1.86900 Y1.61069
X1.87000 Y1.61069
X1.87000 Y1.60969
X1.87100 Y1.60969
X1.87100 Y1.60869
X1.87200 Y1.60869
X1.87200 Y1.60769
X1.87300 Y1.60769
X1.87300 Y1.60669
X1.87400 Y1.60669
X1.87400 Y1.60569
X1.87500 Y1.60569
X1.87500 Y1.60469
X1.87600 Y1.60469
X1.87600 Y1.60369
X1.87700 Y1.60369
X1.87700 Y1.60269
X1.87800 Y1.60269
X1.87800 Y1.60169
X1.87900 Y1.60169
X1.87900 Y1.60069
X1.88000 Y1.60069
X1.88000 Y1.59969
X1.88100 Y1.59969
X1.88100 Y1.59869
X1.88200 Y1.59869
X1.88200 Y1.59769
X1.88300 Y1.59769
X1.88300 Y1.59669
X1.88400 Y1.59669
X1.88400 Y1.59569
X1.88500 Y1.59569
X1.88500 Y1.59469
X1.88600 Y1.59469
X1.88600 Y1.59369
X1.88700 Y1.59369
X1.88700 Y1.59269
X1.88800 Y1.59269
X1.88800 Y1.59169
X1.88900 Y1.59169
X1.88900 Y1.59069
X1.89000 Y1.59069
X1.89000 Y1.58969
X1.89100 Y1.58969
X1.89100 Y1.58869
X1.89200 Y1.58869
X1.89200 Y1.58769
X1.89300 Y1.58769
X1.89300 Y1.58669
X1.89400 Y1.58669
X1.89400 Y1.58569
X1.89500 Y1.58569
X1.89500 Y1.58469
X1.89600 Y1.58469
X1.89600 Y1.58369
X1.89700 Y1.58369
X1.89700 Y1.58269
X1.89800 Y1.58269
X1.89800 Y1.58169
X1.89900 Y1.58169
X1.89900 Y1.58069
X1.90000 Y1.58069
X1.90000 Y1.57969
X1.90100 Y1.57969
X1.90100 Y1.57869
X1.90200 Y1.57869
X1.90200 Y1.57769
X1.90300 Y1.57769
X1.90300 Y1.57669
X1.90400 Y1.57669
X1.90400 Y1.57569
X1.90500 Y1.57569
X1.90500 Y1.57469
X1.90600 Y1.57469
X1.90600 Y1.57369
X1.90700 Y1.57369
X1.90700 Y1.57269
X1.90800 Y1.57269
X1.90800 Y1.57169
X1.90900 Y1.57169
X1.90900 Y1.57069
X1.91000 Y1.57069
X1.91000 Y1.56969
X1.91100 Y1.56969
X1.91100 Y1.56869
X1.91200 Y1.56869
X1.91200 Y1.56769
X1.91300 Y1.56769
X1.91300 Y1.56669
X1.91400 Y1.56669
X1.91400 Y1.56569
X1.91500 Y1.56569
X1.91500 Y1.56469
X1.91600 Y1.56469
X1.91600 Y1.56369
X1.91700 Y1.56369
X1.91700 Y1.56269
X1.91800 Y1.56269
X1.91800 Y1.56169
X1.91900 Y1.56169
X1.91900 Y1.56069
X1.92000 Y1.56069
X1.92000 Y1.55969
X1.92100 Y1.55969
X1.92100 Y1.55869
X1.92200 Y1.55869
X1.92200 Y1.55769
X1.92300 Y1.55769
X1.92300 Y1.55669
X1.92400 Y1.55669
X1.92400 Y1.55569
X1.92500 Y1.55569
X1.92500 Y1.55469
X1.92600 Y1.55469
X1.92600 Y1.55369
X1.92700 Y1.55369
X1.92700 Y1.55269
X1.92800 Y1.55269
X1.92800 Y1.55169
X1.92900 Y1.55169
X1.92900 Y1.55069
X1.93000 Y1.55069
X1.93000 Y1.54969
X1.93100 Y1.54969
X1.93100 Y1.54869
X1.93200 Y1.54869
X1.93200 Y1.54769
X1.93300 Y1.54769
X1.93300 Y1.54669
X1.93400 Y1.54669
X1.93400 Y1.54569
X1.93500 Y1.54569
X1.93500 Y1.54469
X1.93600 Y1.54469
X1.93600 Y1.54369
X1.93700 Y1.54369
X1.93700 Y1.54269
X1.93800 Y1.54269
X1.93800 Y1.54169
X1.93900 Y1.54169
X1.93900 Y1.54069
X1.94000 Y1.54069
X1.94000 Y1.53969
X1.94100 Y1.53969
X1.94100 Y1.53869
X1.94200 Y1.53869
X1.94200 Y1.53769
X1.94300 Y1.53769
X1.94300 Y1.53669
X1.94400 Y1.53669
X1.94400 Y1.53569
X1.94500 Y1.53569
X1.94500 Y1.53469
X1.94600 Y1.53469
X1.94600 Y1.53369
X1.94700 Y1.53369
X1.94700 Y1.53269
X1.94800 Y1.53269
X1.94800 Y1.53169
X1.94900 Y1.53169
X1.94900 Y1.53069
X1.95000 Y1.53069
X1.95000 Y1.52969
X1.95100 Y1.52969
X1.95100 Y1.52869
X1.95200 Y1.52869
X1.95200 Y1.52769
X1.95300 Y1.52769
X1.95300 Y1.52669
X1.95400 Y1.52669
X1.95400 Y1.52569
X1.95500 Y1.52569
X1.95500 Y1.52469
X1.95600 Y1.52469
X1.95600 Y1.52369
X1.95700 Y1.52369
X1.95700 Y1.52269
X1.95800 Y1.52269
X1.95800 Y1.52169
X1.95900 Y1.52169
X1.95900 Y1.52069
X1.96000 Y1.52069
X1.96000 Y1.51969
X1.96100 Y1.51969
X1.96100 Y1.51869
X1.96200 Y1.51869
X1.96200 Y1.51769
X1.96300 Y1.51769
X1.96300 Y1.51669
X1.96400 Y1.51669
X1.96400 Y1.51569
X1.96500 Y1.51569
X1.96500 Y1.51469
X1.96600 Y1.51469
X1.96600 Y1.51369
X1.96700 Y1.51369
X1.96700 Y1.51269
X1.96800 Y1.51269
X1.96800 Y1.51169
X1.96900 Y1.51169
X1.96900 Y1.51069
X1.97000 Y1.51069
X1.97000 Y1.50969
X1.97100 Y1.50969
X1.97100 Y1.50869
X1.97200 Y1.50869
X1.97200 Y1.50769
X1.97300 Y1.50769
X1.97300 Y1.50669
X1.97400 Y1.50669
X1.97400 Y1.50569
X1.97500 Y1.50569
X1.97500 Y1.50469
X1.97600 Y1.50469
X1.97600 Y1.50369
X1.97700 Y1.50369
X1.97700 Y1.50269
X1.97800 Y1.50269
X1.97800 Y1.50169
X1.97900 Y1.50169
X1.97900 Y1.50069
X1.98000 Y1.50069
X1.98000 Y1.49969
X1.98100 Y1.49969
X1.98100 Y1.49869
X1.98200 Y1.49869
X1.98200 Y1.49769
X1.98300 Y1.49769
X1.98300 Y1.49669
X1.98400 Y1.49669
X1.98400 Y1.49569
X1.98500 Y1.49569
X1.98500 Y1.49469
X1.98600 Y1.49469
X1.98600 Y1.49369
X1.98700 Y1.49369
X1.98700 Y1.49269
X1.98800 Y1.49269
X1.98800 Y1.49169
X1.98900 Y1.49169
X1.98900 Y1.49069
X1.99000 Y1.49069
X1.99000 Y1.48969
X1.99100 Y1.48969
X1.99100 Y1.48869
X1.99200 Y1.48869
X1.99200 Y1.48769
X1.99300 Y1.48769
X1.99300 Y1.48669
X1.99400 Y1.48669
X1.99400 Y1.48569
X1.99500 Y1.48569
X1.99500 Y1.48469
X1.99600 Y1.48469
X1.99600 Y1.48369
X1.99700 Y1.48369
X1.99700 Y1.48269
X1.99800 Y1.48269
X1.99800 Y1.48169
X1.99900 Y1.48169
X1.99900 Y1.48069
X2.00000 Y1.48069
X2.00000 Y1.47969
X2.00100 Y1.47969
X2.00100 Y1.47869
X2.00200 Y1.47869
X2.00200 Y1.47769
X2.00300 Y1.47769
X2.00300 Y1.47669
X2.00400 Y1.47669
X2.00400 Y1.47569
X2.00500 Y1.47569
X2.00500 Y1.47469
X2.00600 Y1.47469
X2.00600 Y1.47369
X2.00700 Y1.47369
X2.00700 Y1.47269
X2.00800 Y1.47269
X2.00800 Y1.47169
X2.00900 Y1.47169
X2.00900 Y1.47069
X2.01000 Y1.47069
X2.01000 Y1.46969
X2.01100 Y1.46969
X2.01100 Y1.46869
X2.01200 Y1.46869
X2.01200 Y1.46769
X2.01300 Y1.46769
X2.01300 Y1.46669
X2.01400 Y1.46669
X2.01400 Y1.46569
X2.01500 Y1.46569
X2.01500 Y1.46469
X2.01600 Y1.46469
X2.01600 Y1.46369
X2.01700 Y1.46369
X2.01700 Y1.46269
X2.01800 Y1.46269
X2.01800 Y1.46169
X2.01900 Y1.46169
X2.01900 Y1.46069
X2.02000 Y1.46069
X2.02000 Y1.45969
X2.02100 Y1.45969
X2.02100 Y1.45869
X2.02200 Y1.45869
X2.02200 Y1.45769
X2.02300 Y1.45769
X2.02300 Y1.45669
X2.02400 Y1.45669
X2.02400 Y1.45569
X2.02500 Y1.45569
X2.02500 Y1.45469
X2.02600 Y1.45469
X2.02600 Y1.45369
X2.02700 Y1.45369
X2.02700 Y1.45269
X2.02800 Y1.45269
X2.02800 Y1.45169
X2.02900 Y1.45169
X2.02900 Y1.45069
X2.03000 Y1.45069
X2.03000 Y1.44969
X2.03100 Y1.44969
X2.03100 Y1.44869
X2.03200 Y1.44869
X2.03200 Y1.44769
X2.03300 Y1.44769
X2.03300 Y1.44669
X2.03400 Y1.44669
X2.03400 Y1.44569
X2.03500 Y1.44569
X2.03500 Y1.44469
X2.03600 Y1.44469
X2.03600 Y1.44369
X2.03700 Y1.44369
X2.03700 Y1.44269
X2.03800 Y1.44269
X2.03800 Y1.44169
X2.03900 Y1.44169
X2.03900 Y1.44069
X2.04000 Y1.44069
X2.04000 Y1.43969
X2.04100 Y1.43969
X2.04100 Y1.43869
X2.04200 Y1.43869
X2.04200 Y1.43769
X2.04300 Y1.43769
X2.04300 Y1.43669
X2.04400 Y1.43669
X2.04400 Y1.43569
X2.04500 Y1.43569
X2.04500 Y1.43469
X2.04600 Y1.43469
X2.04600 Y1.43369
X2.04700 Y1.43369
X2.04700 Y1.43269
X2.04800 Y1.43269
X2.04800 Y1.43169
X2.04900 Y1.43169
X2.04900 Y1.43069
X2.05000 Y1.43069
X2.05000 Y1.42969
X2.05100 Y1.42969
X2.05100 Y1.42869
X2.05200 Y1.42869
X2.05200 Y1.42769
X2.05300 Y1.42769
X2.05300 Y1.42669
X2.05400 Y1.42669
X2.05400 Y1.42569
X2.05500 Y1.42569
X2.05500 Y1.42469
X2.05600 Y1.42469
X2.05600 Y1.42369
X2.05700 Y1.42369
X2.05700 Y1.42269
X2.05800 Y1.42269
X2.05800 Y1.42169
X2.05900 Y1.42169
X2.05900 Y1.42069
X2.06000 Y1.42069
X2.06000 Y1.41969
X2.06100 Y1.41969
X2.06100 Y1.41869
X2.06200 Y1.41869
X2.06200 Y1.41769
X2.06300 Y1.41769
X2.06300 Y1.41669
X2.06400 Y1.41669
X2.06400 Y1.41569
X2.06500 Y1.41569
X2.06500 Y1.41469
X2.06600 Y1.41469
X2.06600 Y1.41369
X2.06700 Y1.41369
X2.06700 Y1.41269
X2.06800 Y1.41269
X2.06800 Y1.41169
X2.06900 Y1.41169
X2.06900 Y1.41069
X2.07000 Y1.41069
X2.07000 Y1.40969
X2.07100 Y1.40969
X2.07100 Y1.40869
X2.07200 Y1.40869
X2.07200 Y1.40769
X2.07300 Y1.40769
X2.07300 Y1.40669
X2.07400 Y1.40669
X2.07400 Y1.40569
X2.07500 Y1.40569
X2.07500 Y1.40469
X2.07600 Y1.40469
X2.07600 Y1.40369
X2.07700 Y1.40369
X2.07700 Y1.40269
X2.07800 Y1.40269
X2.07800 Y1.40169
X2.07900 Y1.40169
X2.07900 Y1.40069
X2.08000 Y1.40069
X2.08000 Y1.39969
X2.08100 Y1.39969
X2.08100 Y1.39869
X2.08200 Y1.39869
X2.08200 Y1.39769
X2.08300 Y1.39769
X2.08300 Y1.39669
X2.08400 Y1.39669
X2.08400 Y1.39569
X2.08500 Y1.39569
X2.08500 Y1.39469
X2.08600 Y1.39469
X2.08600 Y1.39369
X2.08700 Y1.39369
X2.08700 Y1.39269
X2.08800 Y1.39269
X2.08800 Y1.39169
X2.08900 Y1.39169
X2.08900 Y1.39069
X2.09000 Y1.39069
X2.09000 Y1.38969
X2.09100 Y1.38969
X2.09100 Y1.38869
X2.09200 Y1.38869
X2.09200 Y1.38769
X2.09300 Y1.38769
X2.09300 Y1.38669
X2.09400 Y1.38669
X2.09400 Y1.38569
X2.09500 Y1.38569
X2.09500 Y1.38469
X2.09600 Y1.38469
X2.09600 Y1.38369
X2.09700 Y1.38369
X2.09700 Y1.38269
X2.09800 Y1.38269
X2.09800 Y1.38169
X2.09900 Y1.38169
X2.09900 Y1.38069
X2.10000 Y1.38069
X2.10000 Y1.37969
X2.10100 Y1.37969
X2.10100 Y1.37869
X2.10200 Y1.37869
X2.10200 Y1.37769
X2.10300 Y1.37769
X2.10300 Y1.37669
X2.10400 Y1.37669
X2.10400 Y1.37569
X2.10500 Y1.37569
X2.10500 Y1.37469
X2.10600 Y1.37469
X2.10600 Y1.37369
X2.10700 Y1.37369
X2.10700 Y1.37269
X2.10800 Y1.37269
X2.10800 Y1.37169
X2.10900 Y1.37169
X2.10900 Y1.37069
X2.11000 Y1.37069
X2.11000 Y1.36969
X2.11100 Y1.36969
X2.11100 Y1.36869
X2.11200 Y1.36869
X2.11200 Y1.36769
X2.11300 Y1.36769
X2.11300 Y1.36669
X2.11400 Y1.36669
X2.11400 Y1.36569
X2.11500 Y1.36569
X2.11500 Y1.36469
X2.11600 Y1.36469
X2.11600 Y1.36369
X2.11700 Y1.36369
X2.11700 Y1.36269
X2.11800 Y1.36269
X2.11800 Y1.36169
X2.11900 Y1.36169
X2.11900 Y1.36069
X2.12000 Y1.36069
X2.12000 Y1.35969
X2.12100 Y1.35969
X2.12100 Y1.35869
X2.12200 Y1.35869
X2.12200 Y1.35769
X2.12300 Y1.35769
X2.12300 Y1.35669
X2.12400 Y1.35669
X2.12400 Y1.35569
X2.12500 Y1.35569
X2.12500 Y1.35469
X2.12600 Y1.35469
X2.12600 Y1.35369
X2.12700 Y1.35369
X2.12700 Y1.35269
X2.12800 Y1.35269
X2.12800 Y1.35169
X2.12900 Y1.35169
X2.12900 Y1.35069
X2.13000 Y1.35069
X2.13000 Y1.34969
X2.13100 Y1.34969
X2.13100 Y1.34869
X2.13200 Y1.34869
X2.13200 Y1.34769
X2.13300 Y1.34769
X2.13300 Y1.34669
X2.13400 Y1.34669
X2.13400 Y1.34569
X2.13500 Y1.34569
X2.13500 Y1.34469
X2.13600 Y1.34469
X2.13600 Y1.34369
X2.13700 Y1.34369
X2.13700 Y1.34269
X2.13800 Y1.34269
X2.13800 Y1.34169
X2.13900 Y1.34169
X2.13900 Y1.34069
X2.14000 Y1.34069
X2.14000 Y1.33969
X2.14100 Y1.33969
X2.14100 Y1.33869
X2.14200 Y1.33869
X2.14200 Y1.33769
X2.14300 Y1.33769
X2.14300 Y1.33669
X2.14400 Y1.33669
X2.14400 Y1.33569
X2.14500 Y1.33569
X2.14500 Y1.33469
X2.14600 Y1.33469
X2.14600 Y1.33369
X2.14700 Y1.33369
X2.14700 Y1.33269
X2.14800 Y1.33269
X2.14800 Y1.33169
X2.14900 Y1.33169
X2.14900 Y1.33069
X2.15000 Y1.33069
X2.15000 Y1.32969
X2.15100 Y1.32969
X2.15100 Y1.32869
X2.15200 Y1.32869
X2.15200 Y1.32769
X2.15300 Y1.32769
X2.15300 Y1.32669
X2.15400 Y1.32669
X2.15400 Y1.32569
X2.15500 Y1.32569
X2.15500 Y1.32469
X2.15600 Y1.32469
X2.15600 Y1.32369
X2.15700 Y1.32369
X2.15700 Y1.32269
X2.15800 Y1.32269
X2.15800 Y1.32169
X2.15900 Y1.32169
X2.15900 Y1.32069
X2.16000 Y1.32069
X2.16000 Y1.31969
X2.16100 Y1.31969
X2.16100 Y1.31869
X2.16200 Y1.31869
X2.16200 Y1.31769
X2.16300 Y1.31769
X2.16300 Y1.31669
X2.16400 Y1.31669
X2.16400 Y1.31569
X2.16500 Y1.31569
X2.16500 Y1.31469
X2.16600 Y1.31469
X2.16600 Y1.31369
X2.16700 Y1.31369
X2.16700 Y1.31269
X2.16800 Y1.31269
X2.16800 Y1.31169
X2.16900 Y1.31169
X2.16900 Y1.31069
X2.17000 Y1.31069
X2.17000 Y1.30969
X2.17100 Y1.30969
X2.17100 Y1.30869
X2.17200 Y1.30869
X2.17200 Y1.30769
X2.17300 Y1.30769
X2.17300 Y1.30669
X2.17400 Y1.30669
X2.17400 Y1.30569
X2.17500 Y1.30569
X2.17500 Y1.30469
X2.17600 Y1.30469
X2.17600 Y1.30369
X2.17700 Y1.30369
X2.17700 Y1.30269
X2.17800 Y1.30269
X2.17800 Y1.30169
X2.17900 Y1.30169
X2.17900 Y1.30069
X2.18000 Y1.30069
X2.18000 Y1.29969
X2.18100 Y1.29969
X2.18100 Y1.29869
X2.18200 Y1.29869
X2.18200 Y1.29769
X2.18300 Y1.29769
X2.18300 Y1.29669
X2.18400 Y1.29669
X2.18400 Y1.29569
X2.18500 Y1.29569
X2.18500 Y1.29469
X2.18600 Y1.29469
X2.18600 Y1.29369
X2.18700 Y1.29369
X2.18700 Y1.29269
X2.18800 Y1.29269
X2.18800 Y1.29169
X2.18900 Y1.29169
X2.18900 Y1.29069
X2.19000 Y1.29069
X2.19000 Y1.28969
X2.19100 Y1.28969
X2.19100 Y1.28869
X2.19200 Y1.28869
X2.19200 Y1.28769
X2.19300 Y1.28769
X2.19300 Y1.28669
X2.19400 Y1.28669
X2.19400 Y1.28569
X2.19500 Y1.28569
X2.19500 Y1.28469
X2.19600 Y1.28469
X2.19600 Y1.28369
X2.19700 Y1.28369
X2.19700 Y1.28269
X2.19800 Y1.28269
X2.19800 Y1.28169
X2.19900 Y1.28169
X2.19900 Y1.28069
X2.20000 Y1.28069
X2.20000 Y1.27969
X2.20100 Y1.27969
X2.20100 Y1.27869
X2.20200 Y1.27869
X2.20200 Y1.27769
X2.20300 Y1.27769
X2.20300 Y1.27669
X2.20400 Y1.27669
X2.20400 Y1.27569
X2.20500 Y1.27569
X2.20500 Y1.27469
X2.20600 Y1.27469
X2.20600 Y1.27369
X2.20700 Y1.27369
X2.20700 Y1.27269
X2.20800 Y1.27269
X2.20800 Y1.27169
X2.20900 Y1.27169
X2.20900 Y1.27069
X2.21000 Y1.27069
X2.21000 Y1.26969
X2.21100 Y1.26969
X2.21100 Y1.26869
X2.21200 Y1.26869
X2.21200 Y1.26769
X2.21300 Y1.26769
X2.21300 Y1.26669
X2.21400 Y1.26669
X2.21400 Y1.26569
X2.21500 Y1.26569
X2.21500 Y1.26469
X2.21600 Y1.26469
X2.21600 Y1.26369
X2.21700 Y1.26369
X2.21700 Y1.26269
X2.21800 Y1.26269
X2.21800 Y1.26169
X2.21900 Y1.26169
X2.21900 Y1.26069
X2.22000 Y1.26069
X2.22000 Y1.25969
X2.22100 Y1.25969
X2.22100 Y1.25869
X2.22200 Y1.25869
X2.22200 Y1.25769
X2.22300 Y1.25769
X2.22300 Y1.25669
X2.22400 Y1.25669
X2.22400 Y1.25569
X2.22500 Y1.25569
X2.22500 Y1.25469
X2.22600 Y1.25469
X2.22600 Y1.25369
X2.22700 Y1.25369
X2.22700 Y1.25269
X2.22800 Y1.25269
X2.22800 Y1.25169
X2.22900 Y1.25169
X2.22900 Y1.25069
X2.23000 Y1.25069
X2.23000 Y1.24969
X2.23100 Y1.24969
X2.23100 Y1.24869
X2.23200 Y1.24869
X2.23200 Y1.24769
X2.23300 Y1.24769
X2.23300 Y1.24669
X2.23400 Y1.24669
X2.23400 Y1.24569
X2.23500 Y1.24569
X2.23500 Y1.24469
X2.23600 Y1.24469
X2.23600 Y1.24369
X2.23700 Y1.24369
X2.23700 Y1.24269
X2.23800 Y1.24269
X2.23800 Y1.24169
X2.23900 Y1.24169
X2.23900 Y1.24069
X2.24000 Y1.24069
X2.24000 Y1.23969
X2.24100 Y1.23969
X2.24100 Y1.23869
X2.24200 Y1.23869
X2.24200 Y1.23769
X2.24300 Y1.23769
X2.24300 Y1.23669
X2.24400 Y1.23669
X2.24400 Y1.23569
X2.24500 Y1.23569
X2.24500 Y1.23469
X2.24600 Y1.23469
X2.24600 Y1.23369
X2.24700 Y1.23369
X2.24700 Y1.23269
X2.24800 Y1.23269
X2.24800 Y1.23169
X2.24900 Y1.23169
X2.24900 Y1.23069
X2.25000 Y1.23069
X2.25000 Y1.22969
X2.25100 Y1.22969
X2.25100 Y1.22869
X2.25200 Y1.22869
X2.25200 Y1.22769
X2.25300 Y1.22769
X2.25300 Y1.22669
X2.25400 Y1.22669
X2.25400 Y1.22569
X2.25500 Y1.22569
X2.25500 Y1.22469
X2.25600 Y1.22469
X2.25600 Y1.22369
X2.25700 Y1.22369
X2.25700 Y1.22269
X2.25800 Y1.22269
X2.25800 Y1.22169
X2.25900 Y1.22169
X2.25900 Y1.22069
X2.26000 Y1.22069
X2.26000 Y1.21969
X2.26100 Y1.21969
X2.26100 Y1.21869
X2.26200 Y1.21869
X2.26200 Y1.21769
X2.26300 Y1.21769
X2.26300 Y1.21669
X2.26400 Y1.21669
X2.26400 Y1.21569
X2.26500 Y1.21569
X2.26500 Y1.21469
X2.26600 Y1.21469
X2.26600 Y1.21369
X2.26700 Y1.21369
X2.26700 Y1.21269
X2.26800 Y1.21269
X2.26800 Y1.21169
X2.26900 Y1.21169
X2.26900 Y1.21069
X2.27000 Y1.21069
X2.27000 Y1.20969
X2.27100 Y1.20969
X2.27100 Y1.20869
X2.27200 Y1.20869
X2.27200 Y1.20769
X2.27300 Y1.20769
X2.27300 Y1.20669
X2.27400 Y1.20669
X2.27400 Y1.20569
X2.27500 Y1.20569
X2.27500 Y1.20469
X2.27600 Y1.20469
X2.27600 Y1.20369
X2.27700 Y1.20369
X2.27700 Y1.20269
X2.27800 Y1.20269
X2.27800 Y1.20169
X2.27900 Y1.20169
X2.27900 Y1.20069
X2.28000 Y1.20069
X2.28000 Y1.19969
X2.28100 Y1.19969
X2.28100 Y1.19869
X2.28200 Y1.19869
X2.28200 Y1.19769
X2.28300 Y1.19769
X2.28300 Y1.19669
X2.28400 Y1.19669
X2.28400 Y1.19569
X2.28500 Y1.19569
X2.28500 Y1.19469
X2.28600 Y1.19469
X2.28600 Y1.19369
X2.28700 Y1.19369
X2.28700 Y1.19269
X2.28800 Y1.19269
X2.28800 Y1.19169
X2.28900 Y1.19169
X2.28900 Y1.19069
X2.29000 Y1.19069
X2.29000 Y1.18969
X2.29100 Y1.18969
X2.29100 Y1.18869
X2.29200 Y1.18869
X2.29200 Y1.18769
X2.29300 Y1.18769
X2.29300 Y1.18669
X2.29400 Y1.18669
X2.29400 Y1.18569
X2.29500 Y1.18569
X2.29500 Y1.18469
X2.29600 Y1.18469
X2.29600 Y1.18369
X2.29700 Y1.18369
X2.29700 Y1.18269
X2.29800 Y1.18269
X2.29800 Y1.18169
X2.29900 Y1.18169
X2.29900 Y1.18069
X2.30000 Y1.18069
X2.30000 Y1.17969
X2.30100 Y1.17969
X2.30100 Y1.17869
X2.30200 Y1.17869
X2.30200 Y1.17769
X2.30300 Y1.17769
X2.30300 Y1.17669
X2.30400 Y1.17669
X2.30400 Y1.17569
X2.30500 Y1.17569
X2.30500 Y1.17469
X2.30600 Y1.17469
X2.30600 Y1.17369
X2.30700 Y1.17369
X2.30700 Y1.17269
X2.30800 Y1.17269
X2.30800 Y1.17169
X2.30900 Y1.17169
X2.30900 Y1.17069
X2.31000 Y1.17069
X2.31000 Y1.16969
X2.31100 Y1.16969
X2.31100 Y1.16869
X2.31200 Y1.16869
X2.31200 Y1.16769
X2.31300 Y1.16769
X2.31300 Y1.16669
X2.31400 Y1.16669
X2.31400 Y1.16569
X2.31500 Y1.16569
X2.31500 Y1.16469
X2.31600 Y1.16469
X2.31600 Y1.16369
X2.31700 Y1.16369
X2.31700 Y1.16269
X2.31800 Y1.16269
X2.31800 Y1.16169
X2.31900 Y1.16169
X2.31900 Y1.16069
X2.32000 Y1.16069
X2.32000 Y1.15969
X2.32100 Y1.15969
X2.32100 Y1.15869
X2.32200 Y1.15869
X2.32200 Y1.15769
X2.32300 Y1.15769
X2.32300 Y1.15669
X2.32400 Y1.15669
X2.32400 Y1.15569
X2.32500 Y1.15569
X2.32500 Y1.15469
X2.32600 Y1.15469
X2.32600 Y1.15369
X2.32700 Y1.15369
X2.32700 Y1.15269
X2.32800 Y1.15269
X2.32800 Y1.15169
X2.32900 Y1.15169
X2.32900 Y1.15069
X2.33000 Y1.15069
X2.33000 Y1.14969
X2.33100 Y1.14969
X2.33100 Y1.14869
X2.33200 Y1.14869
X2.33200 Y1.14769
X2.33300 Y1.14769
X2.33300 Y1.14669
X2.33400 Y1.14669
X2.33400 Y1.14569
X2.33500 Y1.14569
X2.33500 Y1.14469
X2.33600 Y1.14469
X2.33600 Y1.14369
X2.33700 Y1.14369
X2.33700 Y1.14269
X2.33800 Y1.14269
X2.33800 Y1.14169
X2.33900 Y1.14169
X2.33900 Y1.14069
X2.34000 Y1.14069
X2.34000 Y1.13969
X2.34100 Y1.13969
X2.34100 Y1.13869
X2.34200 Y1.13869
X2.34200 Y1.13769
X2.34300 Y1.13769
X2.34300 Y1.13669
X2.34400 Y1.13669
X2.34400 Y1.13569
X2.34500 Y1.13569
X2.34500 Y1.13469
X2.34600 Y1.13469
X2.34600 Y1.13369
X2.34700 Y1.13369
X2.34700 Y1.13269
X2.34800 Y1.13269
X2.34800 Y1.13169
X2.34900 Y1.13169
X2.34900 Y1.13069
X2.35000 Y1.13069
X2.35000 Y1.12969
X2.35100 Y1.12969
X2.35100 Y1.12869
X2.35200 Y1.12869
X2.35200 Y1.12769
X2.35300 Y1.12769
X2.35300 Y1.12669
X2.35400 Y1.12669
X2.35400 Y1.12569
X2.35500 Y1.12569
X2.35500 Y1.12469
X2.35600 Y1.12469
X2.35600 Y1.12369
X2.35700 Y1.12369
X2.35700 Y1.12269
X2.35800 Y1.12269
X2.35800 Y1.12169
X2.35900 Y1.12169
X2.35900 Y1.12069
X2.36000 Y1.12069
X2.36000 Y1.11969
X2.36100 Y1.11969
X2.36100 Y1.11869
X2.36200 Y1.11869
X2.36200 Y1.11769
X2.36300 Y1.11769
X2.36300 Y1.11669
X2.36400 Y1.11669
X2.36400 Y1.11569
X2.36500 Y1.11569
X2.36500 Y1.11469
X2.36600 Y1.11469
X2.36600 Y1.11369
X2.36700 Y1.11369
X2.36700 Y1.11269
X2.36800 Y1.11269
X2.36800 Y1.11169
X2.36900 Y1.11169
X2.36900 Y1.11069
X2.37000 Y1.11069
X2.37000 Y1.10969
X2.37100 Y1.10969
X2.37100 Y1.10869
X2.37200 Y1.10869
X2.37200 Y1.10769
X2.37300 Y1.10769
X2.37300 Y1.10669
X2.37400 Y1.10669
X2.37400 Y1.10569
X2.37500 Y1.10569
X2.37500 Y1.10469
X2.37600 Y1.10469
X2.37600 Y1.10369
X2.37700 Y1.10369
X2.37700 Y1.10269
X2.37800 Y1.10269
X2.37800 Y1.10169
X2.37900 Y1.10169
X2.37900 Y1.10069
X2.38000 Y1.10069
X2.38000 Y1.09969
X2.38100 Y1.09969
X2.38100 Y1.09869
X2.38200 Y1.09869
X2.38200 Y1.09769
X2.38300 Y1.09769
X2.38300 Y1.09669
X2.38400 Y1.09669
X2.38400 Y1.09569
X2.38500 Y1.09569
X2.38500 Y1.09469
X2.38600 Y1.09469
X2.38600 Y1.09369
X2.38700 Y1.09369
X2.38700 Y1.09269
X2.38800 Y1.09269
X2.38800 Y1.09169
X2.38900 Y1.09169
X2.38900 Y1.09069
X2.39000 Y1.09069
X2.39000 Y1.08969
X2.39100 Y1.08969
X2.39100 Y1.08869
X2.39200 Y1.08869
X2.39200 Y1.08769
X2.39300 Y1.08769
X2.39300 Y1.08669
X2.39400 Y1.08669
X2.39400 Y1.08569
X2.39500 Y1.08569
X2.39500 Y1.08469
X2.39600 Y1.08469
X2.39600 Y1.08369
X2.39700 Y1.08369
X2.39700 Y1.08269
X2.39800 Y1.08269
X2.39800 Y1.08169
X2.39900 Y1.08169
X2.39900 Y1.08069
X2.40000 Y1.08069
X2.40000 Y1.07969
X2.40100 Y1.07969
X2.40100 Y1.07869
X2.40200 Y1.07869
X2.40200 Y1.07769
X2.40300 Y1.07769
X2.40300 Y1.07669
X2.40400 Y1.07669
X2.40400 Y1.07569
X2.40500 Y1.07569
X2.40500 Y1.07469
X2.40600 Y1.07469
X2.40600 Y1.07369
X2.40700 Y1.07369
X2.40700 Y1.07269
X2.40800 Y1.07269
X2.40800 Y1.07169
X2.40900 Y1.07169
X2.40900 Y1.07069
X2.41000 Y1.07069
X2.41000 Y1.06969
X2.41100 Y1.06969
X2.41100 Y1.06869
X2.41200 Y1.06869
X2.41200 Y1.06769
X2.41300 Y1.06769
X2.41300 Y1.06669
X2.41400 Y1.06669
X2.41400 Y1.06569
X2.41500 Y1.06569
X2.41500 Y1.06469
X2.41600 Y1.06469
X2.41600 Y1.06369
X2.41700 Y1.06369
X2.41700 Y1.06269
X2.41800 Y1.06269
X2.41800 Y1.06169
X2.41900 Y1.06169
X2.41900 Y1.06069
X2.42000 Y1.06069
X2.42000 Y1.05969
X2.42100 Y1.05969
X2.42100 Y1.05869
X2.42200 Y1.05869
X2.42200 Y1.05769
X2.42300 Y1.05769
X2.42300 Y1.05669
X2.42400 Y1.05669
X2.42400 Y1.05569
X2.42500 Y1.05569
X2.42500 Y1.05469
X2.42600 Y1.05469
X2.42600 Y1.05369
X2.42700 Y1.05369
X2.42700 Y1.05269
X2.42800 Y1.05269
X2.42800 Y1.05169
X2.42900 Y1.05169
X2.42900 Y1.05069
X2.43000 Y1.05069
X2.43000 Y1.04969
X2.43100 Y1.04969
X2.43100 Y1.04869
X2.43200 Y1.04869
X2.43200 Y1.04769
X2.43300 Y1.04769
X2.43300 Y1.04669
X2.55200 Y1.04669
X2.55200 Y1.04769
X2.55500 Y1.04769
X2.55500 Y1.04669
X2.56100 Y1.04669
X2.56100 Y1.04569
X2.56300 Y1.04569
X2.56300 Y1.04469
X2.56500 Y1.04469
X2.56500 Y1.04369
X2.56600 Y1.04369
X2.56600 Y1.04269
X2.56800 Y1.04269
X2.56800 Y1.04069
X2.56900 Y1.04069
X2.56900 Y1.03969
X2.57000 Y1.03969
X2.57000 Y1.03869
X2.57100 Y1.03869
X2.57100 Y1.03669
X2.57200 Y1.03669
X2.57200 Y1.03469
X2.57300 Y1.03469
X2.57300 Y1.03069
X2.57400 Y1.03069
X2.57400 Y0.90969
X2.57500 Y0.90969
X2.57500 Y0.90869
X2.57600 Y0.90869
X2.57600 Y0.90769
X2.57700 Y0.90769
X2.57700 Y0.90669
X2.57800 Y0.90669
X2.57800 Y0.90569
X2.57900 Y0.90569
X2.57900 Y0.90469
X2.58000 Y0.90469
X2.58000 Y0.90369
X2.58100 Y0.90369
X2.58100 Y0.90269
X2.58300 Y0.90269
X2.58300 Y0.90169
X2.58400 Y0.90169
X2.58400 Y0.90069
X2.58500 Y0.90069
X2.58500 Y0.89969
X2.58600 Y0.89969
X2.58600 Y0.89869
X2.58700 Y0.89869
X2.58700 Y0.89769
X2.58800 Y0.89769
X2.58800 Y0.89669
X2.58900 Y0.89669
X2.58900 Y0.89569
X2.59000 Y0.89569
X2.59000 Y0.89469
X2.59100 Y0.89469
X2.59100 Y0.89369
X2.59200 Y0.89369
X2.59200 Y0.89269
X2.59300 Y0.89269
X2.59300 Y0.89169
X2.59400 Y0.89169
X2.59400 Y0.89069
X2.59500 Y0.89069
X2.59500 Y0.88969
X3.50500 Y0.88969
X3.50500 Y0.89069
X3.50600 Y0.89069
X3.50600 Y0.89169
X3.50700 Y0.89169
X3.50700 Y0.89269
X3.50800 Y0.89269
X3.50800 Y0.89369
X3.50900 Y0.89369
X3.50900 Y0.89469
X3.51000 Y0.89469
X3.51000 Y0.89569
X3.51100 Y0.89569
X3.51100 Y0.89669
X3.51200 Y0.89669
X3.51200 Y0.89769
X3.51300 Y0.89769
X3.51300 Y0.89869
X3.51400 Y0.89869
X3.51400 Y0.89969
X3.51500 Y0.89969
X3.51500 Y0.90069
X3.51600 Y0.90069
X3.51600 Y0.90169
X3.51700 Y0.90169
X3.51700 Y0.90269
X3.51800 Y0.90269
X3.51800 Y0.90369
X3.51900 Y0.90369
X3.51900 Y0.90469
X3.52000 Y0.90469
X3.52000 Y0.90569
X3.52100 Y0.90569
X3.52100 Y0.90669
X3.52200 Y0.90669
X3.52200 Y0.90769
X3.52300 Y0.90769
X3.52300 Y0.90869
X3.52400 Y0.90869
X3.52400 Y0.90969
X3.52500 Y0.90969
X3.52500 Y0.91069
X3.52600 Y0.91069
X3.52600 Y0.91169
X3.52700 Y0.91169
X3.52700 Y0.91269
X3.52800 Y0.91269
X3.52800 Y0.91369
X3.52900 Y0.91369
X3.52900 Y0.91469
X3.53000 Y0.91469
X3.53000 Y0.91569
X3.53100 Y0.91569
X3.53100 Y0.91669
X3.53200 Y0.91669
X3.53200 Y0.91769
X3.53300 Y0.91769
X3.53300 Y0.91869
X3.53400 Y0.91869
X3.53400 Y0.91969
X3.53500 Y0.91969
X3.53500 Y0.92069
X3.53600 Y0.92069
X3.53600 Y0.92169
X3.53700 Y0.92169
X3.53700 Y0.92269
X3.53800 Y0.92269
X3.53800 Y0.92369
X3.53900 Y0.92369
X3.53900 Y0.92469
X3.54000 Y0.92469
X3.54000 Y0.92569
X3.54100 Y0.92569
X3.54100 Y0.92669
X3.54200 Y0.92669
X3.54200 Y0.92769
X3.54300 Y0.92769
X3.54300 Y0.92869
X3.54400 Y0.92869
X3.54400 Y0.92969
X3.54500 Y0.92969
X3.54500 Y0.93069
X3.54600 Y0.93069
X3.54600 Y0.93169
X3.54700 Y0.93169
X3.54700 Y0.93269
X3.54800 Y0.93269
X3.54800 Y0.93369
X3.55000 Y0.93369
X3.55000 Y0.93469
X3.55100 Y0.93469
X3.55100 Y0.93569
X3.55200 Y0.93569
X3.55200 Y0.93669
X3.55300 Y0.93669
X3.55300 Y0.93769
X3.55400 Y0.93769
X3.55400 Y0.93869
X3.55500 Y0.93869
X3.55500 Y0.93969
X3.55600 Y0.93969
X3.55600 Y0.94069
X3.55700 Y0.94069
X3.55700 Y0.94169
X3.55800 Y0.94169
X3.55800 Y0.94269
X3.55900 Y0.94269
X3.55900 Y0.94369
X3.56000 Y0.94369
X3.56000 Y0.94469
X3.56100 Y0.94469
X3.56100 Y0.94569
X3.56200 Y0.94569
X3.56200 Y0.94669
X3.56300 Y0.94669
X3.56300 Y0.94769
X3.56400 Y0.94769
X3.56400 Y0.94869
X3.56500 Y0.94869
X3.56500 Y0.94969
X3.56600 Y0.94969
X3.56600 Y0.95069
X3.56700 Y0.95069
X3.56700 Y0.95169
X3.56800 Y0.95169
X3.56800 Y0.95269
X3.56900 Y0.95269
X3.56900 Y0.95369
X3.57000 Y0.95369
X3.57000 Y0.95469
X3.57100 Y0.95469
X3.57100 Y0.95569
X3.57200 Y0.95569
X3.57200 Y0.95669
X3.57300 Y0.95669
X3.57300 Y0.95769
X3.57400 Y0.95769
X3.57400 Y0.95869
X3.57500 Y0.95869
X3.57500 Y0.95969
X3.57600 Y0.95969
X3.57600 Y0.96069
X3.57700 Y0.96069
X3.57700 Y0.96169
X3.57800 Y0.96169
X3.57800 Y0.96269
X3.57900 Y0.96269
X3.57900 Y0.96369
X3.58000 Y0.96369
X3.58000 Y0.98169
X3.57900 Y0.98169
X3.57900 Y0.98369
X3.57800 Y0.98369
X3.57800 Y0.98469
X3.57700 Y0.98469
X3.57700 Y0.98569
X3.57600 Y0.98569
X3.57600 Y0.98769
X3.57500 Y0.98769
X3.57500 Y0.98869
X3.57400 Y0.98869
X3.57400 Y0.99169
X3.57300 Y0.99169
X3.57300 Y0.99669
X3.57200 Y0.99669
X3.57200 Y1.00769
X3.57300 Y1.00769
X3.57300 Y1.01269
X3.57400 Y1.01269
X3.57400 Y1.01569
X3.57500 Y1.01569
X3.57500 Y1.01669
X3.57600 Y1.01669
X3.57600 Y1.01869
X3.57700 Y1.01869
X3.57700 Y1.01969
X3.57800 Y1.01969
X3.57800 Y1.02069
X3.57900 Y1.02069
X3.57900 Y1.02269
X3.58000 Y1.02269
X3.58000 Y1.02369
X3.58200 Y1.02369
X3.58200 Y1.02469
X3.58300 Y1.02469
X3.58300 Y1.02569
X3.58500 Y1.02569
X3.58500 Y1.02669
X3.58700 Y1.02669
X3.58700 Y1.02769
X3.58800 Y1.02769
X3.58800 Y1.02869
X3.59300 Y1.02869
X3.59300 Y1.02969
X3.60600 Y1.02969
X3.60600 Y1.02869
X3.61100 Y1.02869
X3.61100 Y1.02769
X3.61200 Y1.02769
X3.61200 Y1.02669
X3.61400 Y1.02669
X3.61400 Y1.02569
X3.61600 Y1.02569
X3.61600 Y1.02469
X3.61700 Y1.02469
X3.61700 Y1.02369
X3.61900 Y1.02369
X3.61900 Y1.02269
X3.62000 Y1.02269
X3.62000 Y1.02069
X3.62100 Y1.02069
X3.62100 Y1.01969
X3.62200 Y1.01969
X3.62200 Y1.01869
X3.62300 Y1.01869
X3.62300 Y1.01669
X3.62400 Y1.01669
X3.62400 Y1.01569
X3.62500 Y1.01569
X3.62500 Y1.01269
X3.62600 Y1.01269
X3.62600 Y1.00769
X3.62700 Y1.00769
X3.62700 Y0.99669
X3.62600 Y0.99669
X3.62600 Y0.99169
X3.62500 Y0.99169
X3.62500 Y0.98869
X3.62400 Y0.98869
X3.62400 Y0.98769
X3.62300 Y0.98769
X3.62300 Y0.98569
X3.62200 Y0.98569
X3.62200 Y0.98469
X3.62100 Y0.98469
X3.62100 Y0.98369
X3.62000 Y0.98369
X3.62000 Y0.95169
X3.61900 Y0.95169
X3.61900 Y0.94769
X3.61800 Y0.94769
X3.61800 Y0.94569
X3.61700 Y0.94569
X3.61700 Y0.94369
X3.61600 Y0.94369
X3.61600 Y0.94269
X3.61500 Y0.94269
X3.61500 Y0.94169
X3.61400 Y0.94169
X3.61400 Y0.94069
X3.61300 Y0.94069
X3.61300 Y0.93969
X3.61200 Y0.93969
X3.61200 Y0.93869
X3.61100 Y0.93869
X3.61100 Y0.93769
X3.61000 Y0.93769
X3.61000 Y0.93669
X3.60900 Y0.93669
X3.60900 Y0.93569
X3.60800 Y0.93569
X3.60800 Y0.93469
X3.60700 Y0.93469
X3.60700 Y0.93369
X3.60600 Y0.93369
X3.60600 Y0.93269
X3.60500 Y0.93269
X3.60500 Y0.93169
X3.60400 Y0.93169
X3.60400 Y0.93069
X3.60300 Y0.93069
X3.60300 Y0.92969
X3.60200 Y0.92969
X3.60200 Y0.92869
X3.60100 Y0.92869
X3.60100 Y0.92769
X3.60000 Y0.92769
X3.60000 Y0.92669
X3.59900 Y0.92669
X3.59900 Y0.92569
X3.59800 Y0.92569
X3.59800 Y0.92469
X3.59700 Y0.92469
X3.59700 Y0.92369
X3.59600 Y0.92369
X3.59600 Y0.92269
X3.59500 Y0.92269
X3.59500 Y0.92169
X3.59400 Y0.92169
X3.59400 Y0.92069
X3.59300 Y0.92069
X3.59300 Y0.91969
X3.59200 Y0.91969
X3.59200 Y0.91869
X3.59100 Y0.91869
X3.59100 Y0.91769
X3.59000 Y0.91769
X3.59000 Y0.91669
X3.58900 Y0.91669
X3.58900 Y0.91569
X3.58800 Y0.91569
X3.58800 Y0.91469
X3.58700 Y0.91469
X3.58700 Y0.91369
X3.58600 Y0.91369
X3.58600 Y0.91269
X3.58500 Y0.91269
X3.58500 Y0.91169
X3.58400 Y0.91169
X3.58400 Y0.91069
X3.58300 Y0.91069
X3.58300 Y0.90969
X3.58200 Y0.90969
X3.58200 Y0.90869
X3.58100 Y0.90869
X3.58100 Y0.90769
X3.58000 Y0.90769
X3.58000 Y0.90669
X3.57900 Y0.90669
X3.57900 Y0.90569
X3.57800 Y0.90569
X3.57800 Y0.90469
X3.57700 Y0.90469
X3.57700 Y0.90369
X3.57600 Y0.90369
X3.57600 Y0.90269
X3.57500 Y0.90269
X3.57500 Y0.90169
X3.57400 Y0.90169
X3.57400 Y0.90069
X3.57300 Y0.90069
X3.57300 Y0.89969
X3.57200 Y0.89969
X3.57200 Y0.89869
X3.57100 Y0.89869
X3.57100 Y0.89769
X3.57000 Y0.89769
X3.57000 Y0.89669
X3.56900 Y0.89669
X3.56900 Y0.89569
X3.56800 Y0.89569
X3.56800 Y0.89469
X3.56700 Y0.89469
X3.56700 Y0.89369
X3.56600 Y0.89369
X3.56600 Y0.89269
X3.56500 Y0.89269
X3.56500 Y0.89169
X3.56300 Y0.89169
X3.56300 Y0.89069
X3.56200 Y0.89069
X3.56200 Y0.88969
X3.56100 Y0.88969
X3.56100 Y0.88869
X3.56000 Y0.88869
X3.56000 Y0.88769
X3.55900 Y0.88769
X3.55900 Y0.88669
X3.55800 Y0.88669
X3.55800 Y0.88569
X3.55700 Y0.88569
X3.55700 Y0.88469
X3.55600 Y0.88469
X3.55600 Y0.88369
X3.55500 Y0.88369
X3.55500 Y0.88269
X3.55400 Y0.88269
X3.55400 Y0.88169
X3.55300 Y0.88169
X3.55300 Y0.88069
X3.55200 Y0.88069
X3.55200 Y0.87969
X3.55100 Y0.87969
X3.55100 Y0.87869
X3.55000 Y0.87869
X3.55000 Y0.87769
X3.54900 Y0.87769
X3.54900 Y0.87669
X3.54800 Y0.87669
X3.54800 Y0.87569
X3.54700 Y0.87569
X3.54700 Y0.87469
X3.54600 Y0.87469
X3.54600 Y0.87369
X3.54500 Y0.87369
X3.54500 Y0.87269
X3.54400 Y0.87269
X3.54400 Y0.87169
X3.54300 Y0.87169
X3.54300 Y0.87069
X3.54200 Y0.87069
X3.54200 Y0.86969
X3.54100 Y0.86969
X3.54100 Y0.86869
X3.54000 Y0.86869
X3.54000 Y0.86769
X3.53900 Y0.86769
X3.53900 Y0.86669
X3.53800 Y0.86669
X3.53800 Y0.86569
X3.53700 Y0.86569
X3.53700 Y0.86469
X3.53600 Y0.86469
X3.53600 Y0.86369
X3.53500 Y0.86369
X3.53500 Y0.86269
X3.53400 Y0.86269
X3.53400 Y0.86169
X3.53300 Y0.86169
X3.53300 Y0.86069
X3.53200 Y0.86069
X3.53200 Y0.85969
X3.53100 Y0.85969
X3.53100 Y0.85869
X3.53000 Y0.85869
X3.53000 Y0.85769
X3.52900 Y0.85769
X3.52900 Y0.85669
X3.52800 Y0.85669
X3.52800 Y0.85569
X3.52700 Y0.85569
X3.52700 Y0.85469
X3.52600 Y0.85469
X3.52600 Y0.85369
X3.52500 Y0.85369
X3.52500 Y0.85269
X3.52300 Y0.85269
X3.52300 Y0.85169
X3.52100 Y0.85169
X3.52100 Y0.85069
X3.51700 Y0.85069
X3.51700 Y0.84969
X2.58300 Y0.84969
X2.58300 Y0.85069
X2.57900 Y0.85069
X2.57900 Y0.85169
X2.57700 Y0.85169
X2.57700 Y0.85269
X2.57500 Y0.85269
X2.57500 Y0.85369
X2.57400 Y0.85369
X2.57400 Y0.85469
X2.57300 Y0.85469
X2.57300 Y0.85569
X2.57200 Y0.85569
X2.57200 Y0.85669
X2.57100 Y0.85669
X2.57100 Y0.85769
X2.57000 Y0.85769
X2.57000 Y0.85869
X2.56900 Y0.85869
X2.56900 Y0.85969
X2.56800 Y0.85969
X2.56800 Y0.86069
X2.56700 Y0.86069
X2.56700 Y0.86169
X2.56600 Y0.86169
X2.56600 Y0.86269
X2.56500 Y0.86269
X2.56500 Y0.86369
X2.56400 Y0.86369
X2.56400 Y0.86469
X2.56300 Y0.86469
X2.56300 Y0.86569
X2.56200 Y0.86569
X2.56200 Y0.86669
X2.56100 Y0.86669
X2.56100 Y0.86769
X2.56000 Y0.86769
X2.56000 Y0.86869
X2.55800 Y0.86869
X2.55800 Y0.86969
X2.55700 Y0.86969
X2.55700 Y0.87069
X2.55600 Y0.87069
X2.55600 Y0.87169
X2.55500 Y0.87169
X2.55500 Y0.87269
X2.55400 Y0.87269
X2.55400 Y0.87369
X2.55300 Y0.87369
X2.55300 Y0.87469
X2.55200 Y0.87469
X2.55200 Y0.87569
X2.55100 Y0.87569
X2.55100 Y0.87669
X2.55000 Y0.87669
X2.55000 Y0.87769
X2.54900 Y0.87769
X2.54900 Y0.87869
X2.54800 Y0.87869
X2.54800 Y0.87969
X2.54700 Y0.87969
X2.54700 Y0.88069
X2.54600 Y0.88069
X2.54600 Y0.88169
X2.54500 Y0.88169
X2.54500 Y0.88269
X2.54400 Y0.88269
X2.54400 Y0.88369
X2.54300 Y0.88369
X2.54300 Y0.88469
X2.54200 Y0.88469
X2.54200 Y0.88569
X2.54100 Y0.88569
X2.54100 Y0.88669
X2.54000 Y0.88669
X2.54000 Y0.88769
X2.53900 Y0.88769
X2.53900 Y0.88869
X2.53800 Y0.88869
X2.53800 Y0.88969
X2.53700 Y0.88969
X2.53700 Y0.89169
X2.53600 Y0.89169
X2.53600 Y0.89369
X2.53500 Y0.89369
X2.53500 Y0.89769
X2.53400 Y0.89769
X2.53400 Y1.00669
X2.42100 Y1.00669
X2.42100 Y1.00769
X2.41700 Y1.00769
X2.41700 Y1.00869
X2.41500 Y1.00869
X2.41500 Y1.00969
X2.41300 Y1.00969
X2.41300 Y1.01069
X2.41200 Y1.01069
X2.41200 Y1.01169
X2.41100 Y1.01169
X2.41100 Y1.01269
X2.41000 Y1.01269
X2.41000 Y1.01369
X2.40900 Y1.01369
X2.40900 Y1.01469
X2.40800 Y1.01469
X2.40800 Y1.01569
X2.40700 Y1.01569
X2.40700 Y1.01669
X2.40600 Y1.01669
X2.40600 Y1.01769
X2.40500 Y1.01769
X2.40500 Y1.01869
X2.40400 Y1.01869
X2.40400 Y1.01969
X2.40300 Y1.01969
X2.40300 Y1.02069
X2.40200 Y1.02069
X2.40200 Y1.02169
X2.40100 Y1.02169
X2.40100 Y1.02269
X2.40000 Y1.02269
X2.40000 Y1.02369
X2.39900 Y1.02369
X2.39900 Y1.02469
X2.39800 Y1.02469
X2.39800 Y1.02569
X2.39700 Y1.02569
X2.39700 Y1.02669
X2.39600 Y1.02669
X2.39600 Y1.02769
X2.39500 Y1.02769
X2.39500 Y1.02869
X2.39400 Y1.02869
X2.39400 Y1.02969
X2.39300 Y1.02969
X2.39300 Y1.03069
X2.39200 Y1.03069
X2.39200 Y1.03169
X2.39100 Y1.03169
X2.39100 Y1.03269
X2.39000 Y1.03269
X2.39000 Y1.03369
X2.38900 Y1.03369
X2.38900 Y1.03469
X2.38800 Y1.03469
X2.38800 Y1.03569
X2.38700 Y1.03569
X2.38700 Y1.03669
X2.38600 Y1.03669
X2.38600 Y1.03769
X2.38500 Y1.03769
X2.38500 Y1.03869
X2.38400 Y1.03869
X2.38400 Y1.03969
X2.38300 Y1.03969
X2.38300 Y1.04069
X2.38200 Y1.04069
X2.38200 Y1.04169
X2.38100 Y1.04169
X2.38100 Y1.04269
X2.38000 Y1.04269
X2.38000 Y1.04369
X2.37900 Y1.04369
X2.37900 Y1.04469
X2.37800 Y1.04469
X2.37800 Y1.04569
X2.37700 Y1.04569
X2.37700 Y1.04669
X2.37600 Y1.04669
X2.37600 Y1.04769
X2.37500 Y1.04769
X2.37500 Y1.04869
X2.37400 Y1.04869
X2.37400 Y1.04969
X2.37300 Y1.04969
X2.37300 Y1.05069
X2.37200 Y1.05069
X2.37200 Y1.05169
X2.37100 Y1.05169
X2.37100 Y1.05269
X2.37000 Y1.05269
X2.37000 Y1.05369
X2.36900 Y1.05369
X2.36900 Y1.05469
X2.36800 Y1.05469
X2.36800 Y1.05569
X2.36700 Y1.05569
X2.36700 Y1.05669
X2.36600 Y1.05669
X2.36600 Y1.05769
X2.36500 Y1.05769
X2.36500 Y1.05869
X2.36400 Y1.05869
X2.36400 Y1.05969
X2.36300 Y1.05969
X2.36300 Y1.06069
X2.36200 Y1.06069
X2.36200 Y1.06169
X2.36100 Y1.06169
X2.36100 Y1.06269
X2.36000 Y1.06269
X2.36000 Y1.06369
X2.35900 Y1.06369
X2.35900 Y1.06469
X2.35800 Y1.06469
X2.35800 Y1.06569
X2.35700 Y1.06569
X2.35700 Y1.06669
X2.35600 Y1.06669
X2.35600 Y1.06769
X2.35500 Y1.06769
X2.35500 Y1.06869
X2.35400 Y1.06869
X2.35400 Y1.06969
X2.35300 Y1.06969
X2.35300 Y1.07069
X2.35200 Y1.07069
X2.35200 Y1.07169
X2.35100 Y1.07169
X2.35100 Y1.07269
X2.35000 Y1.07269
X2.35000 Y1.07369
X2.34900 Y1.07369
X2.34900 Y1.07469
X2.34800 Y1.07469
X2.34800 Y1.07569
X2.34700 Y1.07569
X2.34700 Y1.07669
X2.34600 Y1.07669
X2.34600 Y1.07769
X2.34500 Y1.07769
X2.34500 Y1.07869
X2.34400 Y1.07869
X2.34400 Y1.07969
X2.34300 Y1.07969
X2.34300 Y1.08069
X2.34200 Y1.08069
X2.34200 Y1.08169
X2.34100 Y1.08169
X2.34100 Y1.08269
X2.34000 Y1.08269
X2.34000 Y1.08369
X2.33900 Y1.08369
X2.33900 Y1.08469
X2.33800 Y1.08469
X2.33800 Y1.08569
X2.33700 Y1.08569
X2.33700 Y1.08669
X2.33600 Y1.08669
X2.33600 Y1.08769
X2.33500 Y1.08769
X2.33500 Y1.08869
X2.33400 Y1.08869
X2.33400 Y1.08969
X2.33300 Y1.08969
X2.33300 Y1.09069
X2.33200 Y1.09069
X2.33200 Y1.09169
X2.33100 Y1.09169
X2.33100 Y1.09269
X2.33000 Y1.09269
X2.33000 Y1.09369
X2.32900 Y1.09369
X2.32900 Y1.09469
X2.32800 Y1.09469
X2.32800 Y1.09569
X2.32700 Y1.09569
X2.32700 Y1.09669
X2.32600 Y1.09669
X2.32600 Y1.09769
X2.32500 Y1.09769
X2.32500 Y1.09869
X2.32400 Y1.09869
X2.32400 Y1.09969
X2.32300 Y1.09969
X2.32300 Y1.10069
X2.32200 Y1.10069
X2.32200 Y1.10169
X2.32100 Y1.10169
X2.32100 Y1.10269
X2.32000 Y1.10269
X2.32000 Y1.10369
X2.31900 Y1.10369
X2.31900 Y1.10469
X2.31800 Y1.10469
X2.31800 Y1.10569
X2.31700 Y1.10569
X2.31700 Y1.10669
X2.31600 Y1.10669
X2.31600 Y1.10769
X2.31500 Y1.10769
X2.31500 Y1.10869
X2.31400 Y1.10869
X2.31400 Y1.10969
X2.31300 Y1.10969
X2.31300 Y1.11069
X2.31200 Y1.11069
X2.31200 Y1.11169
X2.31100 Y1.11169
X2.31100 Y1.11269
X2.31000 Y1.11269
X2.31000 Y1.11369
X2.30900 Y1.11369
X2.30900 Y1.11469
X2.30800 Y1.11469
X2.30800 Y1.11569
X2.30700 Y1.11569
X2.30700 Y1.11669
X2.30600 Y1.11669
X2.30600 Y1.11769
X2.30500 Y1.11769
X2.30500 Y1.11869
X2.30400 Y1.11869
X2.30400 Y1.11969
X2.30300 Y1.11969
X2.30300 Y1.12069
X2.30200 Y1.12069
X2.30200 Y1.12169
X2.30100 Y1.12169
X2.30100 Y1.12269
X2.30000 Y1.12269
X2.30000 Y1.12369
X2.29900 Y1.12369
X2.29900 Y1.12469
X2.29800 Y1.12469
X2.29800 Y1.12569
X2.29700 Y1.12569
X2.29700 Y1.12669
X2.29600 Y1.12669
X2.29600 Y1.12769
X2.29500 Y1.12769
X2.29500 Y1.12869
X2.29400 Y1.12869
X2.29400 Y1.12969
X2.29300 Y1.12969
X2.29300 Y1.13069
X2.29200 Y1.13069
X2.29200 Y1.13169
X2.29100 Y1.13169
X2.29100 Y1.13269
X2.29000 Y1.13269
X2.29000 Y1.13369
X2.28900 Y1.13369
X2.28900 Y1.13469
X2.28800 Y1.13469
X2.28800 Y1.13569
X2.28700 Y1.13569
X2.28700 Y1.13669
X2.28600 Y1.13669
X2.28600 Y1.13769
X2.28500 Y1.13769
X2.28500 Y1.13869
X2.28400 Y1.13869
X2.28400 Y1.13969
X2.28300 Y1.13969
X2.28300 Y1.14069
X2.28200 Y1.14069
X2.28200 Y1.14169
X2.28100 Y1.14169
X2.28100 Y1.14269
X2.28000 Y1.14269
X2.28000 Y1.14369
X2.27900 Y1.14369
X2.27900 Y1.14469
X2.27800 Y1.14469
X2.27800 Y1.14569
X2.27700 Y1.14569
X2.27700 Y1.14669
X2.27600 Y1.14669
X2.27600 Y1.14769
X2.27500 Y1.14769
X2.27500 Y1.14869
X2.27400 Y1.14869
X2.27400 Y1.14969
X2.27300 Y1.14969
X2.27300 Y1.15069
X2.27200 Y1.15069
X2.27200 Y1.15169
X2.27100 Y1.15169
X2.27100 Y1.15269
X2.27000 Y1.15269
X2.27000 Y1.15369
X2.26900 Y1.15369
X2.26900 Y1.15469
X2.26800 Y1.15469
X2.26800 Y1.15569
X2.26700 Y1.15569
X2.26700 Y1.15669
X2.26600 Y1.15669
X2.26600 Y1.15769
X2.26500 Y1.15769
X2.26500 Y1.15869
X2.26400 Y1.15869
X2.26400 Y1.15969
X2.26300 Y1.15969
X2.26300 Y1.16069
X2.26200 Y1.16069
X2.26200 Y1.16169
X2.26100 Y1.16169
X2.26100 Y1.16269
X2.26000 Y1.16269
X2.26000 Y1.16369
X2.25900 Y1.16369
X2.25900 Y1.16469
X2.25800 Y1.16469
X2.25800 Y1.16569
X2.25700 Y1.16569
X2.25700 Y1.16669
X2.25600 Y1.16669
X2.25600 Y1.16769
X2.25500 Y1.16769
X2.25500 Y1.16869
X2.25400 Y1.16869
X2.25400 Y1.16969
X2.25300 Y1.16969
X2.25300 Y1.17069
X2.25200 Y1.17069
X2.25200 Y1.17169
X2.25100 Y1.17169
X2.25100 Y1.17269
X2.25000 Y1.17269
X2.25000 Y1.17369
X2.24900 Y1.17369
X2.24900 Y1.17469
X2.24800 Y1.17469
X2.24800 Y1.17569
X2.24700 Y1.17569
X2.24700 Y1.17669
X2.24600 Y1.17669
X2.24600 Y1.17769
X2.24500 Y1.17769
X2.24500 Y1.17869
X2.24400 Y1.17869
X2.24400 Y1.17969
X2.24300 Y1.17969
X2.24300 Y1.18069
X2.24200 Y1.18069
X2.24200 Y1.18169
X2.24100 Y1.18169
X2.24100 Y1.18269
X2.24000 Y1.18269
X2.24000 Y1.18369
X2.23900 Y1.18369
X2.23900 Y1.18469
X2.23800 Y1.18469
X2.23800 Y1.18569
X2.23700 Y1.18569
X2.23700 Y1.18669
X2.23600 Y1.18669
X2.23600 Y1.18769
X2.23500 Y1.18769
X2.23500 Y1.18869
X2.23400 Y1.18869
X2.23400 Y1.18969
X2.23300 Y1.18969
X2.23300 Y1.19069
X2.23200 Y1.19069
X2.23200 Y1.19169
X2.23100 Y1.19169
X2.23100 Y1.19269
X2.23000 Y1.19269
X2.23000 Y1.19369
X2.22900 Y1.19369
X2.22900 Y1.19469
X2.22800 Y1.19469
X2.22800 Y1.19569
X2.22700 Y1.19569
X2.22700 Y1.19669
X2.22600 Y1.19669
X2.22600 Y1.19769
X2.22500 Y1.19769
X2.22500 Y1.19869
X2.22400 Y1.19869
X2.22400 Y1.19969
X2.22300 Y1.19969
X2.22300 Y1.20069
X2.22200 Y1.20069
X2.22200 Y1.20169
X2.22100 Y1.20169
X2.22100 Y1.20269
X2.22000 Y1.20269
X2.22000 Y1.20369
X2.21900 Y1.20369
X2.21900 Y1.20469
X2.21800 Y1.20469
X2.21800 Y1.20569
X2.21700 Y1.20569
X2.21700 Y1.20669
X2.21600 Y1.20669
X2.21600 Y1.20769
X2.21500 Y1.20769
X2.21500 Y1.20869
X2.21400 Y1.20869
X2.21400 Y1.20969
X2.21300 Y1.20969
X2.21300 Y1.21069
X2.21200 Y1.21069
X2.21200 Y1.21169
X2.21100 Y1.21169
X2.21100 Y1.21269
X2.21000 Y1.21269
X2.21000 Y1.21369
X2.20900 Y1.21369
X2.20900 Y1.21469
X2.20800 Y1.21469
X2.20800 Y1.21569
X2.20700 Y1.21569
X2.20700 Y1.21669
X2.20600 Y1.21669
X2.20600 Y1.21769
X2.20500 Y1.21769
X2.20500 Y1.21869
X2.20400 Y1.21869
X2.20400 Y1.21969
X2.20300 Y1.21969
X2.20300 Y1.22069
X2.20200 Y1.22069
X2.20200 Y1.22169
X2.20100 Y1.22169
X2.20100 Y1.22269
X2.20000 Y1.22269
X2.20000 Y1.22369
X2.19900 Y1.22369
X2.19900 Y1.22469
X2.19800 Y1.22469
X2.19800 Y1.22569
X2.19700 Y1.22569
X2.19700 Y1.22669
X2.19600 Y1.22669
X2.19600 Y1.22769
X2.19500 Y1.22769
X2.19500 Y1.22869
X2.19400 Y1.22869
X2.19400 Y1.22969
X2.19300 Y1.22969
X2.19300 Y1.23069
X2.19200 Y1.23069
X2.19200 Y1.23169
X2.19100 Y1.23169
X2.19100 Y1.23269
X2.19000 Y1.23269
X2.19000 Y1.23369
X2.18900 Y1.23369
X2.18900 Y1.23469
X2.18800 Y1.23469
X2.18800 Y1.23569
X2.18700 Y1.23569
X2.18700 Y1.23669
X2.18600 Y1.23669
X2.18600 Y1.23769
X2.18500 Y1.23769
X2.18500 Y1.23869
X2.18400 Y1.23869
X2.18400 Y1.23969
X2.18300 Y1.23969
X2.18300 Y1.24069
X2.18200 Y1.24069
X2.18200 Y1.24169
X2.18100 Y1.24169
X2.18100 Y1.24269
X2.18000 Y1.24269
X2.18000 Y1.24369
X2.17900 Y1.24369
X2.17900 Y1.24469
X2.17800 Y1.24469
X2.17800 Y1.24569
X2.17700 Y1.24569
X2.17700 Y1.24669
X2.17600 Y1.24669
X2.17600 Y1.24769
X2.17500 Y1.24769
X2.17500 Y1.24869
X2.17400 Y1.24869
X2.17400 Y1.24969
X2.17300 Y1.24969
X2.17300 Y1.25069
X2.17200 Y1.25069
X2.17200 Y1.25169
X2.17100 Y1.25169
X2.17100 Y1.25269
X2.17000 Y1.25269
X2.17000 Y1.25369
X2.16900 Y1.25369
X2.16900 Y1.25469
X2.16800 Y1.25469
X2.16800 Y1.25569
X2.16700 Y1.25569
X2.16700 Y1.25669
X2.16600 Y1.25669
X2.16600 Y1.25769
X2.16500 Y1.25769
X2.16500 Y1.25869
X2.16400 Y1.25869
X2.16400 Y1.25969
X2.16300 Y1.25969
X2.16300 Y1.26069
X2.16200 Y1.26069
X2.16200 Y1.26169
X2.16100 Y1.26169
X2.16100 Y1.26269
X2.16000 Y1.26269
X2.16000 Y1.26369
X2.15900 Y1.26369
X2.15900 Y1.26469
X2.15800 Y1.26469
X2.15800 Y1.26569
X2.15700 Y1.26569
X2.15700 Y1.26669
X2.15600 Y1.26669
X2.15600 Y1.26769
X2.15500 Y1.26769
X2.15500 Y1.26869
X2.15400 Y1.26869
X2.15400 Y1.26969
X2.15300 Y1.26969
X2.15300 Y1.27069
X2.15200 Y1.27069
X2.15200 Y1.27169
X2.15100 Y1.27169
X2.15100 Y1.27269
X2.15000 Y1.27269
X2.15000 Y1.27369
X2.14900 Y1.27369
X2.14900 Y1.27469
X2.14800 Y1.27469
X2.14800 Y1.27569
X2.14700 Y1.27569
X2.14700 Y1.27669
X2.14600 Y1.27669
X2.14600 Y1.27769
X2.14500 Y1.27769
X2.14500 Y1.27869
X2.14400 Y1.27869
X2.14400 Y1.27969
X2.14300 Y1.27969
X2.14300 Y1.28069
X2.14200 Y1.28069
X2.14200 Y1.28169
X2.14100 Y1.28169
X2.14100 Y1.28269
X2.14000 Y1.28269
X2.14000 Y1.28369
X2.13900 Y1.28369
X2.13900 Y1.28469
X2.13800 Y1.28469
X2.13800 Y1.28569
X2.13700 Y1.28569
X2.13700 Y1.28669
X2.13600 Y1.28669
X2.13600 Y1.28769
X2.13500 Y1.28769
X2.13500 Y1.28869
X2.13400 Y1.28869
X2.13400 Y1.28969
X2.13300 Y1.28969
X2.13300 Y1.29069
X2.13200 Y1.29069
X2.13200 Y1.29169
X2.13100 Y1.29169
X2.13100 Y1.29269
X2.13000 Y1.29269
X2.13000 Y1.29369
X2.12900 Y1.29369
X2.12900 Y1.29469
X2.12800 Y1.29469
X2.12800 Y1.29569
X2.12700 Y1.29569
X2.12700 Y1.29669
X2.12600 Y1.29669
X2.12600 Y1.29769
X2.12500 Y1.29769
X2.12500 Y1.29869
X2.12400 Y1.29869
X2.12400 Y1.29969
X2.12300 Y1.29969
X2.12300 Y1.30069
X2.12200 Y1.30069
X2.12200 Y1.30169
X2.12100 Y1.30169
X2.12100 Y1.30269
X2.12000 Y1.30269
X2.12000 Y1.30369
X2.11900 Y1.30369
X2.11900 Y1.30469
X2.11800 Y1.30469
X2.11800 Y1.30569
X2.11700 Y1.30569
X2.11700 Y1.30669
X2.11600 Y1.30669
X2.11600 Y1.30769
X2.11500 Y1.30769
X2.11500 Y1.30869
X2.11400 Y1.30869
X2.11400 Y1.30969
X2.11300 Y1.30969
X2.11300 Y1.31069
X2.11200 Y1.31069
X2.11200 Y1.31169
X2.11100 Y1.31169
X2.11100 Y1.31269
X2.11000 Y1.31269
X2.11000 Y1.31369
X2.10900 Y1.31369
X2.10900 Y1.31469
X2.10800 Y1.31469
X2.10800 Y1.31569
X2.10700 Y1.31569
X2.10700 Y1.31669
X2.10600 Y1.31669
X2.10600 Y1.31769
X2.10500 Y1.31769
X2.10500 Y1.31869
X2.10400 Y1.31869
X2.10400 Y1.31969
X2.10300 Y1.31969
X2.10300 Y1.32069
X2.10200 Y1.32069
X2.10200 Y1.32169
X2.10100 Y1.32169
X2.10100 Y1.32269
X2.10000 Y1.32269
X2.10000 Y1.32369
X2.09900 Y1.32369
X2.09900 Y1.32469
X2.09800 Y1.32469
X2.09800 Y1.32569
X2.09700 Y1.32569
X2.09700 Y1.32669
X2.09600 Y1.32669
X2.09600 Y1.32769
X2.09500 Y1.32769
X2.09500 Y1.32869
X2.09400 Y1.32869
X2.09400 Y1.32969
X2.09300 Y1.32969
X2.09300 Y1.33069
X2.09200 Y1.33069
X2.09200 Y1.33169
X2.09100 Y1.33169
X2.09100 Y1.33269
X2.09000 Y1.33269
X2.09000 Y1.33369
X2.08900 Y1.33369
X2.08900 Y1.33469
X2.08800 Y1.33469
X2.08800 Y1.33569
X2.08700 Y1.33569
X2.08700 Y1.33669
X2.08600 Y1.33669
X2.08600 Y1.33769
X2.08500 Y1.33769
X2.08500 Y1.33869
X2.08400 Y1.33869
X2.08400 Y1.33969
X2.08300 Y1.33969
X2.08300 Y1.34069
X2.08200 Y1.34069
X2.08200 Y1.34169
X2.08100 Y1.34169
X2.08100 Y1.34269
X2.08000 Y1.34269
X2.08000 Y1.34369
X2.07900 Y1.34369
X2.07900 Y1.34469
X2.07800 Y1.34469
X2.07800 Y1.34569
X2.07700 Y1.34569
X2.07700 Y1.34669
X2.07600 Y1.34669
X2.07600 Y1.34769
X2.07500 Y1.34769
X2.07500 Y1.34869
X2.07400 Y1.34869
X2.07400 Y1.34969
X2.07300 Y1.34969
X2.07300 Y1.35069
X2.07200 Y1.35069
X2.07200 Y1.35169
X2.07100 Y1.35169
X2.07100 Y1.35269
X2.07000 Y1.35269
X2.07000 Y1.35369
X2.06900 Y1.35369
X2.06900 Y1.35469
X2.06800 Y1.35469
X2.06800 Y1.35569
X2.06700 Y1.35569
X2.06700 Y1.35669
X2.06600 Y1.35669
X2.06600 Y1.35769
X2.06500 Y1.35769
X2.06500 Y1.35869
X2.06400 Y1.35869
X2.06400 Y1.35969
X2.06300 Y1.35969
X2.06300 Y1.36069
X2.06200 Y1.36069
X2.06200 Y1.36169
X2.06100 Y1.36169
X2.06100 Y1.36269
X2.06000 Y1.36269
X2.06000 Y1.36369
X2.05900 Y1.36369
X2.05900 Y1.36469
X2.05800 Y1.36469
X2.05800 Y1.36569
X2.05700 Y1.36569
X2.05700 Y1.36669
X2.05600 Y1.36669
X2.05600 Y1.36769
X2.05500 Y1.36769
X2.05500 Y1.36869
X2.05400 Y1.36869
X2.05400 Y1.36969
X2.05300 Y1.36969
X2.05300 Y1.37069
X2.05200 Y1.37069
X2.05200 Y1.37169
X2.05100 Y1.37169
X2.05100 Y1.37269
X2.05000 Y1.37269
X2.05000 Y1.37369
X2.04900 Y1.37369
X2.04900 Y1.37469
X2.04800 Y1.37469
X2.04800 Y1.37569
X2.04700 Y1.37569
X2.04700 Y1.37669
X2.04600 Y1.37669
X2.04600 Y1.37769
X2.04500 Y1.37769
X2.04500 Y1.37869
X2.04400 Y1.37869
X2.04400 Y1.37969
X2.04300 Y1.37969
X2.04300 Y1.38069
X2.04200 Y1.38069
X2.04200 Y1.38169
X2.04100 Y1.38169
X2.04100 Y1.38269
X2.04000 Y1.38269
X2.04000 Y1.38369
X2.03900 Y1.38369
X2.03900 Y1.38469
X2.03800 Y1.38469
X2.03800 Y1.38569
X2.03700 Y1.38569
X2.03700 Y1.38669
X2.03600 Y1.38669
X2.03600 Y1.38769
X2.03500 Y1.38769
X2.03500 Y1.38869
X2.03400 Y1.38869
X2.03400 Y1.38969
X2.03300 Y1.38969
X2.03300 Y1.39069
X2.03200 Y1.39069
X2.03200 Y1.39169
X2.03100 Y1.39169
X2.03100 Y1.39269
X2.03000 Y1.39269
X2.03000 Y1.39369
X2.02900 Y1.39369
X2.02900 Y1.39469
X2.02800 Y1.39469
X2.02800 Y1.39569
X2.02700 Y1.39569
X2.02700 Y1.39669
X2.02600 Y1.39669
X2.02600 Y1.39769
X2.02500 Y1.39769
X2.02500 Y1.39869
X2.02400 Y1.39869
X2.02400 Y1.39969
X2.02300 Y1.39969
X2.02300 Y1.40069
X2.02200 Y1.40069
X2.02200 Y1.40169
X2.02100 Y1.40169
X2.02100 Y1.40269
X2.02000 Y1.40269
X2.02000 Y1.40369
X2.01900 Y1.40369
X2.01900 Y1.40469
X2.01800 Y1.40469
X2.01800 Y1.40569
X2.01700 Y1.40569
X2.01700 Y1.40669
X2.01600 Y1.40669
X2.01600 Y1.40769
X2.01500 Y1.40769
X2.01500 Y1.40869
X2.01400 Y1.40869
X2.01400 Y1.40969
X2.01300 Y1.40969
X2.01300 Y1.41069
X2.01200 Y1.41069
X2.01200 Y1.41169
X2.01100 Y1.41169
X2.01100 Y1.41269
X2.01000 Y1.41269
X2.01000 Y1.41369
X2.00900 Y1.41369
X2.00900 Y1.41469
X2.00800 Y1.41469
X2.00800 Y1.41569
X2.00700 Y1.41569
X2.00700 Y1.41669
X2.00600 Y1.41669
X2.00600 Y1.41769
X2.00500 Y1.41769
X2.00500 Y1.41869
X2.00400 Y1.41869
X2.00400 Y1.41969
X2.00300 Y1.41969
X2.00300 Y1.42069
X2.00200 Y1.42069
X2.00200 Y1.42169
X2.00100 Y1.42169
X2.00100 Y1.42269
X2.00000 Y1.42269
X2.00000 Y1.42369
X1.99900 Y1.42369
X1.99900 Y1.42469
X1.99800 Y1.42469
X1.99800 Y1.42569
X1.99700 Y1.42569
X1.99700 Y1.42669
X1.99600 Y1.42669
X1.99600 Y1.42769
X1.99500 Y1.42769
X1.99500 Y1.42869
X1.99400 Y1.42869
X1.99400 Y1.42969
X1.99300 Y1.42969
X1.99300 Y1.43069
X1.99200 Y1.43069
X1.99200 Y1.43169
X1.99100 Y1.43169
X1.99100 Y1.43269
X1.99000 Y1.43269
X1.99000 Y1.43369
X1.98900 Y1.43369
X1.98900 Y1.43469
X1.98800 Y1.43469
X1.98800 Y1.43569
X1.98700 Y1.43569
X1.98700 Y1.43669
X1.98600 Y1.43669
X1.98600 Y1.43769
X1.98500 Y1.43769
X1.98500 Y1.43869
X1.98400 Y1.43869
X1.98400 Y1.43969
X1.98300 Y1.43969
X1.98300 Y1.44069
X1.98200 Y1.44069
X1.98200 Y1.44169
X1.98100 Y1.44169
X1.98100 Y1.44269
X1.98000 Y1.44269
X1.98000 Y1.44369
X1.97900 Y1.44369
X1.97900 Y1.44469
X1.97800 Y1.44469
X1.97800 Y1.44569
X1.97700 Y1.44569
X1.97700 Y1.44669
X1.97600 Y1.44669
X1.97600 Y1.44769
X1.97500 Y1.44769
X1.97500 Y1.44869
X1.97400 Y1.44869
X1.97400 Y1.44969
X1.97300 Y1.44969
X1.97300 Y1.45069
X1.97200 Y1.45069
X1.97200 Y1.45169
X1.97100 Y1.45169
X1.97100 Y1.45269
X1.97000 Y1.45269
X1.97000 Y1.45369
X1.96900 Y1.45369
X1.96900 Y1.45469
X1.96800 Y1.45469
X1.96800 Y1.45569
X1.96700 Y1.45569
X1.96700 Y1.45669
X1.96600 Y1.45669
X1.96600 Y1.45769
X1.96500 Y1.45769
X1.96500 Y1.45869
X1.96400 Y1.45869
X1.96400 Y1.45969
X1.96300 Y1.45969
X1.96300 Y1.46069
X1.96200 Y1.46069
X1.96200 Y1.46169
X1.96100 Y1.46169
X1.96100 Y1.46269
X1.96000 Y1.46269
X1.96000 Y1.46369
X1.95900 Y1.46369
X1.95900 Y1.46469
X1.95800 Y1.46469
X1.95800 Y1.46569
X1.95700 Y1.46569
X1.95700 Y1.46669
X1.95600 Y1.46669
X1.95600 Y1.46769
X1.95500 Y1.46769
X1.95500 Y1.46869
X1.95400 Y1.46869
X1.95400 Y1.46969
X1.95300 Y1.46969
X1.95300 Y1.47069
X1.95200 Y1.47069
X1.95200 Y1.47169
X1.95100 Y1.47169
X1.95100 Y1.47269
X1.95000 Y1.47269
X1.95000 Y1.47369
X1.94900 Y1.47369
X1.94900 Y1.47469
X1.94800 Y1.47469
X1.94800 Y1.47569
X1.94700 Y1.47569
X1.94700 Y1.47669
X1.94600 Y1.47669
X1.94600 Y1.47769
X1.94500 Y1.47769
X1.94500 Y1.47869
X1.94400 Y1.47869
X1.94400 Y1.47969
X1.94300 Y1.47969
X1.94300 Y1.48069
X1.94200 Y1.48069
X1.94200 Y1.48169
X1.94100 Y1.48169
X1.94100 Y1.48269
X1.94000 Y1.48269
X1.94000 Y1.48369
X1.93900 Y1.48369
X1.93900 Y1.48469
X1.93800 Y1.48469
X1.93800 Y1.48569
X1.93700 Y1.48569
X1.93700 Y1.48669
X1.93600 Y1.48669
X1.93600 Y1.48769
X1.93500 Y1.48769
X1.93500 Y1.48869
X1.93400 Y1.48869
X1.93400 Y1.48969
X1.93300 Y1.48969
X1.93300 Y1.49069
X1.93200 Y1.49069
X1.93200 Y1.49169
X1.93100 Y1.49169
X1.93100 Y1.49269
X1.93000 Y1.49269
X1.93000 Y1.49369
X1.92900 Y1.49369
X1.92900 Y1.49469
X1.92800 Y1.49469
X1.92800 Y1.49569
X1.92700 Y1.49569
X1.92700 Y1.49669
X1.92600 Y1.49669
X1.92600 Y1.49769
X1.92500 Y1.49769
X1.92500 Y1.49869
X1.92400 Y1.49869
X1.92400 Y1.49969
X1.92300 Y1.49969
X1.92300 Y1.50069
X1.92200 Y1.50069
X1.92200 Y1.50169
X1.92100 Y1.50169
X1.92100 Y1.50269
X1.92000 Y1.50269
X1.92000 Y1.50369
X1.91900 Y1.50369
X1.91900 Y1.50469
X1.91800 Y1.50469
X1.91800 Y1.50569
X1.91700 Y1.50569
X1.91700 Y1.50669
X1.91600 Y1.50669
X1.91600 Y1.50769
X1.91500 Y1.50769
X1.91500 Y1.50869
X1.91400 Y1.50869
X1.91400 Y1.50969
X1.91300 Y1.50969
X1.91300 Y1.51069
X1.91200 Y1.51069
X1.91200 Y1.51169
X1.91100 Y1.51169
X1.91100 Y1.51269
X1.91000 Y1.51269
X1.91000 Y1.51369
X1.90900 Y1.51369
X1.90900 Y1.51469
X1.90800 Y1.51469
X1.90800 Y1.51569
X1.90700 Y1.51569
X1.90700 Y1.51669
X1.90600 Y1.51669
X1.90600 Y1.51769
X1.90500 Y1.51769
X1.90500 Y1.51869
X1.90400 Y1.51869
X1.90400 Y1.51969
X1.90300 Y1.51969
X1.90300 Y1.52069
X1.90200 Y1.52069
X1.90200 Y1.52169
X1.90100 Y1.52169
X1.90100 Y1.52269
X1.90000 Y1.52269
X1.90000 Y1.52369
X1.89900 Y1.52369
X1.89900 Y1.52469
X1.89800 Y1.52469
X1.89800 Y1.52569
X1.89700 Y1.52569
X1.89700 Y1.52669
X1.89600 Y1.52669
X1.89600 Y1.52769
X1.89500 Y1.52769
X1.89500 Y1.52869
X1.89400 Y1.52869
X1.89400 Y1.52969
X1.89300 Y1.52969
X1.89300 Y1.53069
X1.89200 Y1.53069
X1.89200 Y1.53169
X1.89100 Y1.53169
X1.89100 Y1.53269
X1.89000 Y1.53269
X1.89000 Y1.53369
X1.88900 Y1.53369
X1.88900 Y1.53469
X1.88800 Y1.53469
X1.88800 Y1.53569
X1.88700 Y1.53569
X1.88700 Y1.53669
X1.88600 Y1.53669
X1.88600 Y1.53769
X1.88500 Y1.53769
X1.88500 Y1.53869
X1.88400 Y1.53869
X1.88400 Y1.53969
X1.88300 Y1.53969
X1.88300 Y1.54069
X1.88200 Y1.54069
X1.88200 Y1.54169
X1.88100 Y1.54169
X1.88100 Y1.54269
X1.88000 Y1.54269
X1.88000 Y1.54369
X1.87900 Y1.54369
X1.87900 Y1.54469
X1.87800 Y1.54469
X1.87800 Y1.54569
X1.87700 Y1.54569
X1.87700 Y1.54669
X1.87600 Y1.54669
X1.87600 Y1.54769
X1.87500 Y1.54769
X1.87500 Y1.54869
X1.87400 Y1.54869
X1.87400 Y1.54969
X1.87300 Y1.54969
X1.87300 Y1.55069
X1.87200 Y1.55069
X1.87200 Y1.55169
X1.87100 Y1.55169
X1.87100 Y1.55269
X1.87000 Y1.55269
X1.87000 Y1.55369
X1.86900 Y1.55369
X1.86900 Y1.55469
X1.86800 Y1.55469
X1.86800 Y1.55569
X1.86700 Y1.55569
X1.86700 Y1.55669
X1.86600 Y1.55669
X1.86600 Y1.55769
X1.86500 Y1.55769
X1.86500 Y1.55869
X1.86400 Y1.55869
X1.86400 Y1.55969
X1.86300 Y1.55969
X1.86300 Y1.56069
X1.86200 Y1.56069
X1.86200 Y1.56169
X1.86100 Y1.56169
X1.86100 Y1.56269
X1.86000 Y1.56269
X1.86000 Y1.56369
X1.85900 Y1.56369
X1.85900 Y1.56469
X1.85800 Y1.56469
X1.85800 Y1.56569
X1.85700 Y1.56569
X1.85700 Y1.56669
X1.85600 Y1.56669
X1.85600 Y1.56769
X1.85500 Y1.56769
X1.85500 Y1.56869
X1.85400 Y1.56869
X1.85400 Y1.56969
X1.85300 Y1.56969
X1.85300 Y1.57069
X1.85200 Y1.57069
X1.85200 Y1.57169
X1.85100 Y1.57169
X1.85100 Y1.57269
X1.85000 Y1.57269
X1.85000 Y1.57369
X1.84900 Y1.57369
X1.84900 Y1.57469
X1.84800 Y1.57469
X1.84800 Y1.57569
X1.84700 Y1.57569
X1.84700 Y1.57669
X1.84600 Y1.57669
X1.84600 Y1.57769
X1.84500 Y1.57769
X1.84500 Y1.57869
X1.84400 Y1.57869
X1.84400 Y1.57969
X1.84300 Y1.57969
X1.84300 Y1.58069
X1.84200 Y1.58069
X1.84200 Y1.58169
X1.84100 Y1.58169
X1.84100 Y1.58269
X1.84000 Y1.58269
X1.84000 Y1.58369
X1.83900 Y1.58369
X1.83900 Y1.58469
X1.83800 Y1.58469
X1.83800 Y1.58569
X1.83700 Y1.58569
X1.83700 Y1.58669
X1.83600 Y1.58669
X1.83600 Y1.58769
X1.83500 Y1.58769
X1.83500 Y1.58869
X1.83400 Y1.58869
X1.83400 Y1.58969
X1.83300 Y1.58969
X1.83300 Y1.59069
X1.83200 Y1.59069
X1.83200 Y1.59169
X1.83100 Y1.59169
X1.83100 Y1.59269
X1.83000 Y1.59269
X1.83000 Y1.59369
X1.82900 Y1.59369
X1.82900 Y1.59469
X1.82800 Y1.59469
X1.82800 Y1.59569
X1.82700 Y1.59569
X1.82700 Y1.59669
X1.82600 Y1.59669
X1.82600 Y1.59769
X1.82500 Y1.59769
X1.82500 Y1.59869
X1.82400 Y1.59869
X1.82400 Y1.59969
X1.82300 Y1.59969
X1.82300 Y1.60069
X1.82200 Y1.60069
X1.82200 Y1.60169
X1.82100 Y1.60169
X1.82100 Y1.60269
X1.82000 Y1.60269
X1.82000 Y1.60369
X1.81900 Y1.60369
X1.81900 Y1.60469
X1.81800 Y1.60469
X1.81800 Y1.60569
X1.81700 Y1.60569
X1.81700 Y1.60669
X1.81600 Y1.60669
X1.81600 Y1.60769
X1.81500 Y1.60769
X1.81500 Y1.60869
X1.81400 Y1.60869
X1.81400 Y1.60969
X1.81300 Y1.60969
X1.81300 Y1.61069
X1.81200 Y1.61069
X1.81200 Y1.61169
X1.81100 Y1.61169
X1.81100 Y1.61269
X1.81000 Y1.61269
X1.81000 Y1.61369
X1.80900 Y1.61369
X1.80900 Y1.61469
X1.80800 Y1.61469
X1.80800 Y1.61569
X1.80700 Y1.61569
X1.80700 Y1.61669
X1.80600 Y1.61669
X1.80600 Y1.61769
X1.80500 Y1.61769
X1.80500 Y1.61869
X1.80400 Y1.61869
X1.80400 Y1.61969
X1.80300 Y1.61969
X1.80300 Y1.62069
X1.80200 Y1.62069
X1.80200 Y1.62169
X1.80100 Y1.62169
X1.80100 Y1.62269
X1.80000 Y1.62269
X1.80000 Y1.62369
X1.79900 Y1.62369
X1.79900 Y1.62469
X1.79800 Y1.62469
X1.79800 Y1.62569
X1.79700 Y1.62569
X1.79700 Y1.62669
X1.79600 Y1.62669
X1.79600 Y1.62769
X1.79500 Y1.62769
X1.79500 Y1.62869
X1.79400 Y1.62869
X1.79400 Y1.62969
X1.79300 Y1.62969
X1.79300 Y1.63069
X1.79200 Y1.63069
X1.79200 Y1.63169
X1.79100 Y1.63169
X1.79100 Y1.63269
X1.79000 Y1.63269
X1.79000 Y1.63369
X1.78900 Y1.63369
X1.78900 Y1.63469
X1.78800 Y1.63469
X1.78800 Y1.63569
X1.78700 Y1.63569
X1.78700 Y1.63669
X1.78600 Y1.63669
X1.78600 Y1.63769
X1.78500 Y1.63769
X1.78500 Y1.63869
X1.78400 Y1.63869
X1.78400 Y1.63969
X1.78300 Y1.63969
X1.78300 Y1.64069
X1.78200 Y1.64069
X1.78200 Y1.64169
X1.78100 Y1.64169
X1.78100 Y1.64269
X1.78000 Y1.64269
X1.78000 Y1.64369
X1.77900 Y1.64369
X1.77900 Y1.64469
X1.77800 Y1.64469
X1.77800 Y1.64569
X1.77700 Y1.64569
X1.77700 Y1.64669
X1.77600 Y1.64669
X1.77600 Y1.64769
X1.77500 Y1.64769
X1.77500 Y1.64869
X1.77400 Y1.64869
X1.77400 Y1.64969
X1.77300 Y1.64969
X1.77300 Y1.65069
X1.77200 Y1.65069
X1.77200 Y1.65169
X1.77100 Y1.65169
X1.77100 Y1.65269
X1.77000 Y1.65269
X1.77000 Y1.65369
X1.76900 Y1.65369
X1.76900 Y1.65469
X1.76800 Y1.65469
X1.76800 Y1.65569
X1.76700 Y1.65569
X1.76700 Y1.65669
X1.76600 Y1.65669
X1.76600 Y1.65769
X1.76500 Y1.65769
X1.76500 Y1.65869
X1.76400 Y1.65869
X1.76400 Y1.65969
X1.76300 Y1.65969
X1.76300 Y1.66069
X1.76200 Y1.66069
X1.76200 Y1.66169
X1.76100 Y1.66169
X1.76100 Y1.66269
X1.76000 Y1.66269
X1.76000 Y1.66369
X1.75900 Y1.66369
X1.75900 Y1.66469
X1.75800 Y1.66469
X1.75800 Y1.66569
X1.75700 Y1.66569
X1.75700 Y1.66669
X1.75600 Y1.66669
X1.75600 Y1.66769
X1.75500 Y1.66769
X1.75500 Y1.66869
X1.75400 Y1.66869
X1.75400 Y1.66969
X1.75300 Y1.66969
X1.75300 Y1.67069
X1.75200 Y1.67069
X1.75200 Y1.67169
X1.75100 Y1.67169
X1.75100 Y1.67269
X1.75000 Y1.67269
X1.75000 Y1.67369
X1.74900 Y1.67369
X1.74900 Y1.67469
X1.74800 Y1.67469
X1.74800 Y1.67569
X1.74700 Y1.67569
X1.74700 Y1.67669
X1.74600 Y1.67669
X1.74600 Y1.67769
X1.74500 Y1.67769
X1.74500 Y1.67869
X1.74400 Y1.67869
X1.74400 Y1.67969
X1.74300 Y1.67969
X1.74300 Y1.68069
X1.74200 Y1.68069
X1.74200 Y1.68169
X1.74100 Y1.68169
X1.74100 Y1.68269
X1.74000 Y1.68269
X1.74000 Y1.68369
X1.73900 Y1.68369
X1.73900 Y1.68469
X1.73800 Y1.68469
X1.73800 Y1.68569
X1.73700 Y1.68569
X1.73700 Y1.68669
X1.73600 Y1.68669
X1.73600 Y1.68769
X1.73500 Y1.68769
X1.73500 Y1.68869
X1.73400 Y1.68869
X1.73400 Y1.68969
X1.73300 Y1.68969
X1.73300 Y1.69069
X1.73200 Y1.69069
X1.73200 Y1.69169
X1.73100 Y1.69169
X1.73100 Y1.69269
X1.73000 Y1.69269
X1.73000 Y1.69369
X1.72900 Y1.69369
X1.72900 Y1.69469
X1.72800 Y1.69469
X1.72800 Y1.69569
X1.72700 Y1.69569
X1.72700 Y1.69669
X1.72600 Y1.69669
X1.72600 Y1.69769
X1.72500 Y1.69769
X1.72500 Y1.69869
X1.72400 Y1.69869
X1.72400 Y1.69969
X1.72300 Y1.69969
X1.72300 Y1.70069
X1.72200 Y1.70069
X1.72200 Y1.70169
X1.72100 Y1.70169
X1.72100 Y1.70269
X1.72000 Y1.70269
X1.72000 Y1.70369
X1.71900 Y1.70369
X1.71900 Y1.70469
X1.71800 Y1.70469
X1.71800 Y1.70569
X1.71700 Y1.70569
X1.71700 Y1.70669
X1.71600 Y1.70669
X1.71600 Y1.70769
X1.71500 Y1.70769
X1.71500 Y1.70869
X1.71400 Y1.70869
X1.71400 Y1.70969
X1.71300 Y1.70969
X1.71300 Y1.71069
X1.71200 Y1.71069
X1.71200 Y1.71169
X1.71100 Y1.71169
X1.71100 Y1.71269
X1.71000 Y1.71269
X1.71000 Y1.71369
X1.70900 Y1.71369
X1.70900 Y1.71469
X1.70800 Y1.71469
X1.70800 Y1.71569
X1.70700 Y1.71569
X1.70700 Y1.71669
X1.70600 Y1.71669
X1.70600 Y1.71769
X1.70500 Y1.71769
X1.70500 Y1.71869
X1.70400 Y1.71869
X1.70400 Y1.71969
X1.70300 Y1.71969
X1.70300 Y1.72069
X1.70200 Y1.72069
X1.70200 Y1.72169
X1.70100 Y1.72169
X1.70100 Y1.72269
X1.70000 Y1.72269
X1.70000 Y1.72369
X1.69900 Y1.72369
X1.69900 Y1.72469
X1.69800 Y1.72469
X1.69800 Y1.72569
X1.69700 Y1.72569
X1.69700 Y1.72669
X1.69600 Y1.72669
X1.69600 Y1.72769
X1.69500 Y1.72769
X1.69500 Y1.72869
X1.69400 Y1.72869
X1.69400 Y1.72969
X1.69300 Y1.72969
X1.69300 Y1.73069
X1.69200 Y1.73069
X1.69200 Y1.73169
X1.69100 Y1.73169
X1.69100 Y1.73269
X1.69000 Y1.73269
X1.69000 Y1.73369
X1.68900 Y1.73369
X1.68900 Y1.73469
X1.68800 Y1.73469
X1.68800 Y1.73569
X1.68700 Y1.73569
X1.68700 Y1.73669
X1.68600 Y1.73669
X1.68600 Y1.73769
X1.68500 Y1.73769
X1.68500 Y1.73869
X1.68400 Y1.73869
X1.68400 Y1.73969
X1.68300 Y1.73969
X1.68300 Y1.74069
X1.68200 Y1.74069
X1.68200 Y1.74169
X1.68100 Y1.74169
X1.68100 Y1.74269
X1.68000 Y1.74269
X1.68000 Y1.74369
X1.67900 Y1.74369
X1.67900 Y1.74469
X1.67800 Y1.74469
X1.67800 Y1.74569
X1.67700 Y1.74569
X1.67700 Y1.74669
X1.67600 Y1.74669
X1.67600 Y1.74769
X1.67500 Y1.74769
X1.67500 Y1.74769
X1.67300 Y1.74769
X1.67300 Y1.74669
X1.66900 Y1.74669
X1.66900 Y1.74569
X1.66600 Y1.74569
X1.66600 Y1.74469
X1.66300 Y1.74469
X1.66300 Y1.74369
X1.65600 Y1.74369
X1.65600 Y1.74269
X1.64300 Y1.74269
X1.64300 Y1.74369
X1.63600 Y1.74369
X1.63600 Y1.74469
X1.63300 Y1.74469
X1.63300 Y1.74569
X1.62900 Y1.74569
X1.62900 Y1.74669
X1.62600 Y1.74669
X1.62600 Y1.74769
X1.62400 Y1.74769
X1.62400 Y1.74869
X1.62200 Y1.74869
X1.62200 Y1.74969
X1.62100 Y1.74969
X1.62100 Y1.75069
X1.61900 Y1.75069
X1.61900 Y1.75169
X1.61700 Y1.75169
X1.61700 Y1.75269
X1.61500 Y1.75269
X1.61500 Y1.75369
X1.61400 Y1.75369
X1.61400 Y1.75469
X1.61300 Y1.75469
X1.61300 Y1.75569
X1.61200 Y1.75569
X1.61200 Y1.75669
X1.61100 Y1.75669
X1.61100 Y1.75769
X1.60900 Y1.75769
X1.60900 Y1.75869
X1.60800 Y1.75869
X1.60800 Y1.75969
X1.60700 Y1.75969
X1.60700 Y1.76069
X1.60600 Y1.76069
X1.60600 Y1.76169
X1.60500 Y1.76169
X1.60500 Y1.76369
X1.60400 Y1.76369
X1.60400 Y1.76469
X1.60300 Y1.76469
X1.60300 Y1.76569
X1.60200 Y1.76569
X1.60200 Y1.76669
X1.60100 Y1.76669
X1.60100 Y1.76769
X1.60000 Y1.76769
X1.60000 Y1.76969
X1.59900 Y1.76969
X1.59900 Y1.77169
X1.59800 Y1.77169
X1.59800 Y1.77369
X1.59700 Y1.77369
X1.59700 Y1.77469
X1.59600 Y1.77469
X1.59600 Y1.77669
X1.59500 Y1.77669
X1.59500 Y1.77869
X1.59400 Y1.77869
X1.59400 Y1.78169
X1.59300 Y1.78169
X1.59300 Y1.78569
X1.59200 Y1.78569
X1.59200 Y1.78869
X1.59100 Y1.78869
X1.59100 Y1.79569
X1.59000 Y1.79569
X1.59000 Y1.80869
X1.59100 Y1.80869
X1.59100 Y1.81569
X1.59200 Y1.81569
X1.59200 Y1.81869
X1.59300 Y1.81869
X1.59300 Y1.82269
X1.59400 Y1.82269
X1.59400 Y1.82569
X1.59500 Y1.82569
X1.59500 Y1.82769
X1.59600 Y1.82769
X1.59600 Y1.82969
X1.59700 Y1.82969
X1.59700 Y1.83069
X1.59800 Y1.83069
X1.59800 Y1.83269
X1.59900 Y1.83269
X1.59900 Y1.83469
X1.60000 Y1.83469
X1.60000 Y1.83669
X1.60100 Y1.83669
X1.60100 Y1.83769
X1.60200 Y1.83769
X1.60200 Y1.83869
X1.60300 Y1.83869
X1.60300 Y1.83969
X1.60400 Y1.83969
X1.60400 Y1.84069
X1.60500 Y1.84069
X1.60500 Y1.84269
X1.60600 Y1.84269
X1.60600 Y1.84369
X1.60700 Y1.84369
X1.60700 Y1.84469
X1.60800 Y1.84469
X1.60800 Y1.84569
X1.60900 Y1.84569
X1.60900 Y1.84669
X1.61100 Y1.84669
X1.61100 Y1.84769
X1.61200 Y1.84769
X1.61200 Y1.84869
X1.61300 Y1.84869
X1.61300 Y1.84969
X1.61400 Y1.84969
X1.61400 Y1.85069
X1.61500 Y1.85069
X1.61500 Y1.85169
X1.61700 Y1.85169
X1.61700 Y1.85269
X1.61900 Y1.85269
X1.61900 Y1.85369
X1.62100 Y1.85369
X1.62100 Y1.85469
X1.62200 Y1.85469
X1.62200 Y1.85569
X1.62400 Y1.85569
X1.62400 Y1.85669
X1.62600 Y1.85669
X1.62600 Y1.85769
X1.63000 Y1.85769
X1.63000 Y1.85869
X1.63300 Y1.85869
X1.63300 Y1.85969
X1.63600 Y1.85969
X1.63600 Y1.86069
X1.64400 Y1.86069
X1.64400 Y1.86169
X1.65500 Y1.86169
X1.65500 Y1.86069
G04 P0 ( dwell for no time -- G64 should not smooth over this point )
G00 Z0.11811 ( retract )

G00 X2.35500 Y1.86069 ( rapid move to begin. )
G01 Z-0.00197 F31.49606 ( plunge. )
G04 P0 ( dwell for no time -- G64 should not smooth over this point )
X2.35500 Y1.86069
X2.36300 Y1.86069
X2.36300 Y1.85969
X2.36600 Y1.85969
X2.36600 Y1.85869
X2.36900 Y1.85869
X2.36900 Y1.85769
X2.37300 Y1.85769
X2.37300 Y1.85669
X2.37500 Y1.85669
X2.37500 Y1.85569
X2.37700 Y1.85569
X2.37700 Y1.85469
X2.37800 Y1.85469
X2.37800 Y1.85369
X2.38000 Y1.85369
X2.38000 Y1.85269
X2.38200 Y1.85269
X2.38200 Y1.85169
X2.38400 Y1.85169
X2.38400 Y1.85069
X2.38500 Y1.85069
X2.38500 Y1.84969
X2.38600 Y1.84969
X2.38600 Y1.84869
X2.38700 Y1.84869
X2.38700 Y1.84769
X2.38800 Y1.84769
X2.38800 Y1.84669
X2.39000 Y1.84669
X2.39000 Y1.84569
X2.39100 Y1.84569
X2.39100 Y1.84469
X2.39200 Y1.84469
X2.39200 Y1.84369
X2.39300 Y1.84369
X2.39300 Y1.84269
X2.39400 Y1.84269
X2.39400 Y1.84069
X2.39500 Y1.84069
X2.39500 Y1.83969
X2.39600 Y1.83969
X2.39600 Y1.83869
X2.39700 Y1.83869
X2.39700 Y1.83769
X2.39800 Y1.83769
X2.39800 Y1.83669
X2.39900 Y1.83669
X2.39900 Y1.83469
X2.40000 Y1.83469
X2.40000 Y1.83269
X2.40100 Y1.83269
X2.40100 Y1.83069
X2.40200 Y1.83069
X2.40200 Y1.82969
X2.40300 Y1.82969
X2.40300 Y1.82769
X2.40400 Y1.82769
X2.40400 Y1.82569
X2.40500 Y1.82569
X2.40500 Y1.82169
X2.40600 Y1.82169
X2.40600 Y1.81869
X2.40700 Y1.81869
X2.40700 Y1.81569
X2.40800 Y1.81569
X2.40800 Y1.80769
X2.40900 Y1.80769
X2.40900 Y1.79669
X2.40800 Y1.79669
X2.40800 Y1.78869
X2.40700 Y1.78869
X2.40700 Y1.78569
X2.40600 Y1.78569
X2.40600 Y1.78269
X2.40500 Y1.78269
X2.40500 Y1.77869
X2.40400 Y1.77869
X2.40400 Y1.77669
X2.40300 Y1.77669
X2.40300 Y1.77469
X2.40200 Y1.77469
X2.40200 Y1.77369
X2.40100 Y1.77369
X2.40100 Y1.77169
X2.40000 Y1.77169
X2.40000 Y1.76969
X2.39900 Y1.76969
X2.39900 Y1.76769
X2.39800 Y1.76769
X2.39800 Y1.76669
X2.39700 Y1.76669
X2.39700 Y1.76569
X2.39600 Y1.76569
X2.39600 Y1.76469
X2.39500 Y1.76469
X2.39500 Y1.76369
X2.39400 Y1.76369
X2.39400 Y1.76169
X2.39300 Y1.76169
X2.39300 Y1.76069
X2.39200 Y1.76069
X2.39200 Y1.75969
X2.39100 Y1.75969
X2.39100 Y1.75869
X2.39000 Y1.75869
X2.39000 Y1.75769
X2.38800 Y1.75769
X2.38800 Y1.75669
X2.38700 Y1.75669
X2.38700 Y1.75569
X2.38600 Y1.75569
X2.38600 Y1.75469
X2.38500 Y1.75469
X2.38500 Y1.75369
X2.38400 Y1.75369
X2.38400 Y1.75269
X2.38200 Y1.75269
X2.38200 Y1.75169
X2.38000 Y1.75169
X2.38000 Y1.75069
X2.37800 Y1.75069
X2.37800 Y1.74969
X2.37700 Y1.74969
X2.37700 Y1.74869
X2.37500 Y1.74869
X2.37500 Y1.74769
X2.37300 Y1.74769
X2.37300 Y1.74669
X2.36900 Y1.74669
X2.36900 Y1.74569
X2.36600 Y1.74569
X2.36600 Y1.74469
X2.36300 Y1.74469
X2.36300 Y1.74369
X2.35600 Y1.74369
X2.35600 Y1.74269
X2.34300 Y1.74269
X2.34300 Y1.74369
X2.33600 Y1.74369
X2.33600 Y1.74469
X2.33300 Y1.74469
X2.33300 Y1.74569
X2.32900 Y1.74569
X2.32900 Y1.74669
X2.32600 Y1.74669
X2.32600 Y1.74769
X2.32400 Y1.74769
X2.32400 Y1.74869
X2.32200 Y1.74869
X2.32200 Y1.74969
X2.32100 Y1.74969
X2.32100 Y1.75069
X2.31900 Y1.75069
X2.31900 Y1.75169
X2.31700 Y1.75169
X2.31700 Y1.75269
X2.31500 Y1.75269
X2.31500 Y1.75369
X2.31400 Y1.75369
X2.31400 Y1.75469
X2.31300 Y1.75469
X2.31300 Y1.75569
X2.31200 Y1.75569
X2.31200 Y1.75669
X2.31100 Y1.75669
X2.31100 Y1.75769
X2.30900 Y1.75769
X2.30900 Y1.75869
X2.30800 Y1.75869
X2.30800 Y1.75969
X2.30700 Y1.75969
X2.30700 Y1.76069
X2.30600 Y1.76069
X2.30600 Y1.76169
X2.30500 Y1.76169
X2.30500 Y1.76369
X2.30400 Y1.76369
X2.30400 Y1.76469
X2.30300 Y1.76469
X2.30300 Y1.76569
X2.30200 Y1.76569
X2.30200 Y1.76669
X2.30100 Y1.76669
X2.30100 Y1.76769
X2.30000 Y1.76769
X2.30000 Y1.76969
X2.29900 Y1.76969
X2.29900 Y1.77169
X2.29800 Y1.77169
X2.29800 Y1.77369
X2.29700 Y1.77369
X2.29700 Y1.77469
X2.29600 Y1.77469
X2.29600 Y1.77669
X2.29500 Y1.77669
X2.29500 Y1.77869
X2.29400 Y1.77869
X2.29400 Y1.78169
X2.29300 Y1.78169
X2.29300 Y1.78569
X2.29200 Y1.78569
X2.29200 Y1.78869
X2.29100 Y1.78869
X2.29100 Y1.79569
X2.29000 Y1.79569
X2.29000 Y1.80869
X2.29100 Y1.80869
X2.29100 Y1.81569
X2.29200 Y1.81569
X2.29200 Y1.81869
X2.29300 Y1.81869
X2.29300 Y1.82269
X2.29400 Y1.82269
X2.29400 Y1.82569
X2.29500 Y1.82569
X2.29500 Y1.82769
X2.29600 Y1.82769
X2.29600 Y1.82969
X2.29700 Y1.82969
X2.29700 Y1.83069
X2.29800 Y1.83069
X2.29800 Y1.83269
X2.29900 Y1.83269
X2.29900 Y1.83469
X2.30000 Y1.83469
X2.30000 Y1.83669
X2.30100 Y1.83669
X2.30100 Y1.83769
X2.30200 Y1.83769
X2.30200 Y1.83869
X2.30300 Y1.83869
X2.30300 Y1.83969
X2.30400 Y1.83969
X2.30400 Y1.84069
X2.30500 Y1.84069
X2.30500 Y1.84269
X2.30600 Y1.84269
X2.30600 Y1.84369
X2.30700 Y1.84369
X2.30700 Y1.84469
X2.30800 Y1.84469
X2.30800 Y1.84569
X2.30900 Y1.84569
X2.30900 Y1.84669
X2.31100 Y1.84669
X2.31100 Y1.84769
X2.31200 Y1.84769
X2.31200 Y1.84869
X2.31300 Y1.84869
X2.31300 Y1.84969
X2.31400 Y1.84969
X2.31400 Y1.85069
X2.31500 Y1.85069
X2.31500 Y1.85169
X2.31700 Y1.85169
X2.31700 Y1.85269
X2.31900 Y1.85269
X2.31900 Y1.85369
X2.32100 Y1.85369
X2.32100 Y1.85469
X2.32200 Y1.85469
X2.32200 Y1.85569
X2.32400 Y1.85569
X2.32400 Y1.85669
X2.32600 Y1.85669
X2.32600 Y1.85769
X2.33000 Y1.85769
X2.33000 Y1.85869
X2.33300 Y1.85869
X2.33300 Y1.85969
X2.33600 Y1.85969
X2.33600 Y1.86069
X2.34400 Y1.86069
X2.34400 Y1.86169
X2.35500 Y1.86169
X2.35500 Y1.86069
G04 P0 ( dwell for no time -- G64 should not smooth over this point )
G00 Z0.11811 ( retract )

G00 X3.84000 Y1.78569 ( rapid move to begin. )
G01 Z-0.00197 F31.49606 ( plunge. )
G04 P0 ( dwell for no time -- G64 should not smooth over this point )
X3.84000 Y1.78569
X3.84000 Y1.71769
X3.75900 Y1.71769
X3.75900 Y1.78669
X3.84000 Y1.78669
X3.84000 Y1.78569
G04 P0 ( dwell for no time -- G64 should not smooth over this point )
G00 Z0.11811 ( retract )

G00 X2.70600 Y1.68569 ( rapid move to begin. )
G01 Z-0.00197 F31.49606 ( plunge. )
G04 P0 ( dwell for no time -- G64 should not smooth over this point )
X2.70600 Y1.68569
X2.71100 Y1.68569
X2.71100 Y1.68469
X2.71400 Y1.68469
X2.71400 Y1.68369
X2.71600 Y1.68369
X2.71600 Y1.68269
X2.71700 Y1.68269
X2.71700 Y1.68169
X2.71900 Y1.68169
X2.71900 Y1.68069
X2.72100 Y1.68069
X2.72100 Y1.67969
X2.72300 Y1.67969
X2.72300 Y1.67869
X2.72400 Y1.67869
X2.72400 Y1.67769
X2.72500 Y1.67769
X2.72500 Y1.67669
X2.72600 Y1.67669
X2.72600 Y1.67569
X2.72700 Y1.67569
X2.72700 Y1.67469
X2.72800 Y1.67469
X2.72800 Y1.67269
X2.72900 Y1.67269
X2.72900 Y1.67169
X2.73000 Y1.67169
X2.73000 Y1.66969
X2.73100 Y1.66969
X2.73100 Y1.66769
X2.73200 Y1.66769
X2.73200 Y1.66469
X2.73300 Y1.66469
X2.73300 Y1.66169
X2.73400 Y1.66169
X2.73400 Y1.64269
X2.73300 Y1.64269
X2.73300 Y1.63969
X2.73200 Y1.63969
X2.73200 Y1.63669
X2.73100 Y1.63669
X2.73100 Y1.63469
X2.73000 Y1.63469
X2.73000 Y1.63269
X2.72900 Y1.63269
X2.72900 Y1.63169
X2.72800 Y1.63169
X2.72800 Y1.62969
X2.72700 Y1.62969
X2.72700 Y1.62869
X2.72600 Y1.62869
X2.72600 Y1.62769
X2.72500 Y1.62769
X2.72500 Y1.62669
X2.72400 Y1.62669
X2.72400 Y1.62569
X2.72300 Y1.62569
X2.72300 Y1.62469
X2.72100 Y1.62469
X2.72100 Y1.62369
X2.71900 Y1.62369
X2.71900 Y1.62269
X2.71700 Y1.62269
X2.71700 Y1.62169
X2.71600 Y1.62169
X2.71600 Y1.62069
X2.71400 Y1.62069
X2.71400 Y1.61969
X2.71100 Y1.61969
X2.71100 Y1.61869
X2.70600 Y1.61869
X2.70600 Y1.61769
X2.69300 Y1.61769
X2.69300 Y1.61869
X2.68800 Y1.61869
X2.68800 Y1.61969
X2.68500 Y1.61969
X2.68500 Y1.62069
X2.68300 Y1.62069
X2.68300 Y1.62169
X2.68200 Y1.62169
X2.68200 Y1.62269
X2.68000 Y1.62269
X2.68000 Y1.62369
X2.67800 Y1.62369
X2.67800 Y1.62469
X2.67600 Y1.62469
X2.67600 Y1.62569
X2.67500 Y1.62569
X2.67500 Y1.62669
X2.67400 Y1.62669
X2.67400 Y1.62769
X2.67300 Y1.62769
X2.67300 Y1.62869
X2.67200 Y1.62869
X2.67200 Y1.62969
X2.67100 Y1.62969
X2.67100 Y1.63169
X2.67000 Y1.63169
X2.67000 Y1.63269
X2.66900 Y1.63269
X2.66900 Y1.63469
X2.66800 Y1.63469
X2.66800 Y1.63669
X2.66700 Y1.63669
X2.66700 Y1.63969
X2.66600 Y1.63969
X2.66600 Y1.64269
X2.66500 Y1.64269
X2.66500 Y1.66169
X2.66600 Y1.66169
X2.66600 Y1.66469
X2.66700 Y1.66469
X2.66700 Y1.66769
X2.66800 Y1.66769
X2.66800 Y1.66969
X2.66900 Y1.66969
X2.66900 Y1.67169
X2.67000 Y1.67169
X2.67000 Y1.67269
X2.67100 Y1.67269
X2.67100 Y1.67469
X2.67200 Y1.67469
X2.67200 Y1.67569
X2.67300 Y1.67569
X2.67300 Y1.67669
X2.67400 Y1.67669
X2.67400 Y1.67769
X2.67500 Y1.67769
X2.67500 Y1.67869
X2.67600 Y1.67869
X2.67600 Y1.67969
X2.67800 Y1.67969
X2.67800 Y1.68069
X2.68000 Y1.68069
X2.68000 Y1.68169
X2.68200 Y1.68169
X2.68200 Y1.68269
X2.68300 Y1.68269
X2.68300 Y1.68369
X2.68500 Y1.68369
X2.68500 Y1.68469
X2.68800 Y1.68469
X2.68800 Y1.68569
X2.69300 Y1.68569
X2.69300 Y1.68669
X2.70600 Y1.68669
X2.70600 Y1.68569
G04 P0 ( dwell for no time -- G64 should not smooth over this point )
G00 Z0.11811 ( retract )

G00 X3.40600 Y1.68569 ( rapid move to begin. )
G01 Z-0.00197 F31.49606 ( plunge. )
G04 P0 ( dwell for no time -- G64 should not smooth over this point )
X3.40600 Y1.68569
X3.41100 Y1.68569
X3.41100 Y1.68469
X3.41400 Y1.68469
X3.41400 Y1.68369
X3.41600 Y1.68369
X3.41600 Y1.68269
X3.41700 Y1.68269
X3.41700 Y1.68169
X3.41900 Y1.68169
X3.41900 Y1.68069
X3.42100 Y1.68069
X3.42100 Y1.67969
X3.42300 Y1.67969
X3.42300 Y1.67869
X3.42400 Y1.67869
X3.42400 Y1.67769
X3.42500 Y1.67769
X3.42500 Y1.67669
X3.42600 Y1.67669
X3.42600 Y1.67569
X3.42700 Y1.67569
X3.42700 Y1.67469
X3.42800 Y1.67469
X3.42800 Y1.67269
X3.42900 Y1.67269
X3.42900 Y1.67169
X3.43000 Y1.67169
X3.43000 Y1.66969
X3.43100 Y1.66969
X3.43100 Y1.66769
X3.43200 Y1.66769
X3.43200 Y1.66469
X3.43300 Y1.66469
X3.43300 Y1.66169
X3.43400 Y1.66169
X3.43400 Y1.64269
X3.43300 Y1.64269
X3.43300 Y1.63969
X3.43200 Y1.63969
X3.43200 Y1.63669
X3.43100 Y1.63669
X3.43100 Y1.63469
X3.43000 Y1.63469
X3.43000 Y1.63269
X3.42900 Y1.63269
X3.42900 Y1.63169
X3.42800 Y1.63169
X3.42800 Y1.62969
X3.42700 Y1.62969
X3.42700 Y1.62869
X3.42600 Y1.62869
X3.42600 Y1.62769
X3.42500 Y1.62769
X3.42500 Y1.62669
X3.42400 Y1.62669
X3.42400 Y1.62569
X3.42300 Y1.62569
X3.42300 Y1.62469
X3.42100 Y1.62469
X3.42100 Y1.62369
X3.41900 Y1.62369
X3.41900 Y1.62269
X3.41700 Y1.62269
X3.41700 Y1.62169
X3.41600 Y1.62169
X3.41600 Y1.62069
X3.41400 Y1.62069
X3.41400 Y1.61969
X3.41100 Y1.61969
X3.41100 Y1.61869
X3.40600 Y1.61869
X3.40600 Y1.61769
X3.39300 Y1.61769
X3.39300 Y1.61869
X3.38800 Y1.61869
X3.38800 Y1.61969
X3.38500 Y1.61969
X3.38500 Y1.62069
X3.38300 Y1.62069
X3.38300 Y1.62169
X3.38200 Y1.62169
X3.38200 Y1.62269
X3.38000 Y1.62269
X3.38000 Y1.62369
X3.37800 Y1.62369
X3.37800 Y1.62469
X3.37600 Y1.62469
X3.37600 Y1.62569
X3.37500 Y1.62569
X3.37500 Y1.62669
X3.37400 Y1.62669
X3.37400 Y1.62769
X3.37300 Y1.62769
X3.37300 Y1.62869
X3.37200 Y1.62869
X3.37200 Y1.62969
X3.37100 Y1.62969
X3.37100 Y1.63169
X3.37000 Y1.63169
X3.37000 Y1.63269
X3.36900 Y1.63269
X3.36900 Y1.63469
X3.36800 Y1.63469
X3.36800 Y1.63669
X3.36700 Y1.63669
X3.36700 Y1.63969
X3.36600 Y1.63969
X3.36600 Y1.64269
X3.36500 Y1.64269
X3.36500 Y1.66169
X3.36600 Y1.66169
X3.36600 Y1.66469
X3.36700 Y1.66469
X3.36700 Y1.66769
X3.36800 Y1.66769
X3.36800 Y1.66969
X3.36900 Y1.66969
X3.36900 Y1.67169
X3.37000 Y1.67169
X3.37000 Y1.67269
X3.37100 Y1.67269
X3.37100 Y1.67469
X3.37200 Y1.67469
X3.37200 Y1.67569
X3.37300 Y1.67569
X3.37300 Y1.67669
X3.37400 Y1.67669
X3.37400 Y1.67769
X3.37500 Y1.67769
X3.37500 Y1.67869
X3.37600 Y1.67869
X3.37600 Y1.67969
X3.37800 Y1.67969
X3.37800 Y1.68069
X3.38000 Y1.68069
X3.38000 Y1.68169
X3.38200 Y1.68169
X3.38200 Y1.68269
X3.38300 Y1.68269
X3.38300 Y1.68369
X3.38500 Y1.68369
X3.38500 Y1.68469
X3.38800 Y1.68469
X3.38800 Y1.68569
X3.39300 Y1.68569
X3.39300 Y1.68669
X3.40600 Y1.68669
X3.40600 Y1.68569
G04 P0 ( dwell for no time -- G64 should not smooth over this point )
G00 Z0.11811 ( retract )

G00 X3.81100 Y1.68569 ( rapid move to begin. )
G01 Z-0.00197 F31.49606 ( plunge. )
G04 P0 ( dwell for no time -- G64 should not smooth over this point )
X3.81100 Y1.68569
X3.81600 Y1.68569
X3.81600 Y1.68469
X3.82000 Y1.68469
X3.82000 Y1.68369
X3.82200 Y1.68369
X3.82200 Y1.68269
X3.82300 Y1.68269
X3.82300 Y1.68169
X3.82400 Y1.68169
X3.82400 Y1.68069
X3.82600 Y1.68069
X3.82600 Y1.67969
X3.82700 Y1.67969
X3.82700 Y1.67869
X3.82900 Y1.67869
X3.82900 Y1.67769
X3.83000 Y1.67769
X3.83000 Y1.67669
X3.83100 Y1.67669
X3.83100 Y1.67569
X3.83200 Y1.67569
X3.83200 Y1.67469
X3.83300 Y1.67469
X3.83300 Y1.67269
X3.83400 Y1.67269
X3.83400 Y1.67069
X3.83500 Y1.67069
X3.83500 Y1.66969
X3.83600 Y1.66969
X3.83600 Y1.66769
X3.83700 Y1.66769
X3.83700 Y1.66569
X3.83800 Y1.66569
X3.83800 Y1.66169
X3.83900 Y1.66169
X3.83900 Y1.65569
X3.84000 Y1.65569
X3.84000 Y1.64869
X3.83900 Y1.64869
X3.83900 Y1.64269
X3.83800 Y1.64269
X3.83800 Y1.63869
X3.83700 Y1.63869
X3.83700 Y1.63669
X3.83600 Y1.63669
X3.83600 Y1.63469
X3.83500 Y1.63469
X3.83500 Y1.63369
X3.83400 Y1.63369
X3.83400 Y1.63169
X3.83300 Y1.63169
X3.83300 Y1.62969
X3.83200 Y1.62969
X3.83200 Y1.62869
X3.83100 Y1.62869
X3.83100 Y1.62769
X3.83000 Y1.62769
X3.83000 Y1.62669
X3.82900 Y1.62669
X3.82900 Y1.62569
X3.82700 Y1.62569
X3.82700 Y1.62469
X3.82600 Y1.62469
X3.82600 Y1.62369
X3.82400 Y1.62369
X3.82400 Y1.62269
X3.82300 Y1.62269
X3.82300 Y1.62169
X3.82200 Y1.62169
X3.82200 Y1.62069
X3.82000 Y1.62069
X3.82000 Y1.61969
X3.81600 Y1.61969
X3.81600 Y1.61869
X3.81100 Y1.61869
X3.81100 Y1.61769
X3.78800 Y1.61769
X3.78800 Y1.61869
X3.78300 Y1.61869
X3.78300 Y1.61969
X3.77900 Y1.61969
X3.77900 Y1.62069
X3.77700 Y1.62069
X3.77700 Y1.62169
X3.77600 Y1.62169
X3.77600 Y1.62269
X3.77500 Y1.62269
X3.77500 Y1.62369
X3.77300 Y1.62369
X3.77300 Y1.62469
X3.77200 Y1.62469
X3.77200 Y1.62569
X3.77000 Y1.62569
X3.77000 Y1.62669
X3.76900 Y1.62669
X3.76900 Y1.62769
X3.76800 Y1.62769
X3.76800 Y1.62869
X3.76700 Y1.62869
X3.76700 Y1.62969
X3.76600 Y1.62969
X3.76600 Y1.63169
X3.76500 Y1.63169
X3.76500 Y1.63369
X3.76400 Y1.63369
X3.76400 Y1.63469
X3.76300 Y1.63469
X3.76300 Y1.63669
X3.76200 Y1.63669
X3.76200 Y1.63869
X3.76100 Y1.63869
X3.76100 Y1.64269
X3.76000 Y1.64269
X3.76000 Y1.64869
X3.75900 Y1.64869
X3.75900 Y1.65569
X3.76000 Y1.65569
X3.76000 Y1.66169
X3.76100 Y1.66169
X3.76100 Y1.66569
X3.76200 Y1.66569
X3.76200 Y1.66769
X3.76300 Y1.66769
X3.76300 Y1.66969
X3.76400 Y1.66969
X3.76400 Y1.67069
X3.76500 Y1.67069
X3.76500 Y1.67269
X3.76600 Y1.67269
X3.76600 Y1.67469
X3.76700 Y1.67469
X3.76700 Y1.67569
X3.76800 Y1.67569
X3.76800 Y1.67669
X3.76900 Y1.67669
X3.76900 Y1.67769
X3.77000 Y1.67769
X3.77000 Y1.67869
X3.77200 Y1.67869
X3.77200 Y1.67969
X3.77300 Y1.67969
X3.77300 Y1.68069
X3.77500 Y1.68069
X3.77500 Y1.68169
X3.77600 Y1.68169
X3.77600 Y1.68269
X3.77700 Y1.68269
X3.77700 Y1.68369
X3.77900 Y1.68369
X3.77900 Y1.68469
X3.78300 Y1.68469
X3.78300 Y1.68569
X3.78800 Y1.68569
X3.78800 Y1.68669
X3.81100 Y1.68669
X3.81100 Y1.68569
G04 P0 ( dwell for no time -- G64 should not smooth over this point )
G00 Z0.11811 ( retract )

G00 X2.70600 Y1.58569 ( rapid move to begin. )
G01 Z-0.00197 F31.49606 ( plunge. )
G04 P0 ( dwell for no time -- G64 should not smooth over this point )
X2.70600 Y1.58569
X2.71100 Y1.58569
X2.71100 Y1.58469
X2.71400 Y1.58469
X2.71400 Y1.58369
X2.71600 Y1.58369
X2.71600 Y1.58269
X2.71700 Y1.58269
X2.71700 Y1.58169
X2.71900 Y1.58169
X2.71900 Y1.58069
X2.72100 Y1.58069
X2.72100 Y1.57969
X2.72300 Y1.57969
X2.72300 Y1.57869
X2.72400 Y1.57869
X2.72400 Y1.57769
X2.72500 Y1.57769
X2.72500 Y1.57669
X2.72600 Y1.57669
X2.72600 Y1.57569
X2.72700 Y1.57569
X2.72700 Y1.57469
X2.72800 Y1.57469
X2.72800 Y1.57269
X2.72900 Y1.57269
X2.72900 Y1.57169
X2.73000 Y1.57169
X2.73000 Y1.56969
X2.73100 Y1.56969
X2.73100 Y1.56769
X2.73200 Y1.56769
X2.73200 Y1.56469
X2.73300 Y1.56469
X2.73300 Y1.56169
X2.73400 Y1.56169
X2.73400 Y1.54269
X2.73300 Y1.54269
X2.73300 Y1.53969
X2.73200 Y1.53969
X2.73200 Y1.53669
X2.73100 Y1.53669
X2.73100 Y1.53469
X2.73000 Y1.53469
X2.73000 Y1.53269
X2.72900 Y1.53269
X2.72900 Y1.53169
X2.72800 Y1.53169
X2.72800 Y1.52969
X2.72700 Y1.52969
X2.72700 Y1.52869
X2.72600 Y1.52869
X2.72600 Y1.52769
X2.72500 Y1.52769
X2.72500 Y1.52669
X2.72400 Y1.52669
X2.72400 Y1.52569
X2.72300 Y1.52569
X2.72300 Y1.52469
X2.72100 Y1.52469
X2.72100 Y1.52369
X2.71900 Y1.52369
X2.71900 Y1.52269
X2.71700 Y1.52269
X2.71700 Y1.52169
X2.71600 Y1.52169
X2.71600 Y1.52069
X2.71400 Y1.52069
X2.71400 Y1.51969
X2.71100 Y1.51969
X2.71100 Y1.51869
X2.70600 Y1.51869
X2.70600 Y1.51769
X2.69300 Y1.51769
X2.69300 Y1.51869
X2.68800 Y1.51869
X2.68800 Y1.51969
X2.68500 Y1.51969
X2.68500 Y1.52069
X2.68300 Y1.52069
X2.68300 Y1.52169
X2.68200 Y1.52169
X2.68200 Y1.52269
X2.68000 Y1.52269
X2.68000 Y1.52369
X2.67800 Y1.52369
X2.67800 Y1.52469
X2.67600 Y1.52469
X2.67600 Y1.52569
X2.67500 Y1.52569
X2.67500 Y1.52669
X2.67400 Y1.52669
X2.67400 Y1.52769
X2.67300 Y1.52769
X2.67300 Y1.52869
X2.67200 Y1.52869
X2.67200 Y1.52969
X2.67100 Y1.52969
X2.67100 Y1.53169
X2.67000 Y1.53169
X2.67000 Y1.53269
X2.66900 Y1.53269
X2.66900 Y1.53469
X2.66800 Y1.53469
X2.66800 Y1.53669
X2.66700 Y1.53669
X2.66700 Y1.53969
X2.66600 Y1.53969
X2.66600 Y1.54269
X2.66500 Y1.54269
X2.66500 Y1.56169
X2.66600 Y1.56169
X2.66600 Y1.56469
X2.66700 Y1.56469
X2.66700 Y1.56769
X2.66800 Y1.56769
X2.66800 Y1.56969
X2.66900 Y1.56969
X2.66900 Y1.57169
X2.67000 Y1.57169
X2.67000 Y1.57269
X2.67100 Y1.57269
X2.67100 Y1.57469
X2.67200 Y1.57469
X2.67200 Y1.57569
X2.67300 Y1.57569
X2.67300 Y1.57669
X2.67400 Y1.57669
X2.67400 Y1.57769
X2.67500 Y1.57769
X2.67500 Y1.57869
X2.67600 Y1.57869
X2.67600 Y1.57969
X2.67800 Y1.57969
X2.67800 Y1.58069
X2.68000 Y1.58069
X2.68000 Y1.58169
X2.68200 Y1.58169
X2.68200 Y1.58269
X2.68300 Y1.58269
X2.68300 Y1.58369
X2.68500 Y1.58369
X2.68500 Y1.58469
X2.68800 Y1.58469
X2.68800 Y1.58569
X2.69300 Y1.58569
X2.69300 Y1.58669
X2.70600 Y1.58669
X2.70600 Y1.58569
G04 P0 ( dwell for no time -- G64 should not smooth over this point )
G00 Z0.11811 ( retract )

G00 X3.40600 Y1.58569 ( rapid move to begin. )
G01 Z-0.00197 F31.49606 ( plunge. )
G04 P0 ( dwell for no time -- G64 should not smooth over this point )
X3.40600 Y1.58569
X3.41100 Y1.58569
X3.41100 Y1.58469
X3.41400 Y1.58469
X3.41400 Y1.58369
X3.41600 Y1.58369
X3.41600 Y1.58269
X3.41700 Y1.58269
X3.41700 Y1.58169
X3.41900 Y1.58169
X3.41900 Y1.58069
X3.42100 Y1.58069
X3.42100 Y1.57969
X3.42300 Y1.57969
X3.42300 Y1.57869
X3.42400 Y1.57869
X3.42400 Y1.57769
X3.42500 Y1.57769
X3.42500 Y1.57669
X3.42600 Y1.57669
X3.42600 Y1.57569
X3.42700 Y1.57569
X3.42700 Y1.57469
X3.42800 Y1.57469
X3.42800 Y1.57269
X3.42900 Y1.57269
X3.42900 Y1.57169
X3.43000 Y1.57169
X3.43000 Y1.56969
X3.43100 Y1.56969
X3.43100 Y1.56769
X3.43200 Y1.56769
X3.43200 Y1.56469
X3.43300 Y1.56469
X3.43300 Y1.56169
X3.43400 Y1.56169
X3.43400 Y1.54269
X3.43300 Y1.54269
X3.43300 Y1.53969
X3.43200 Y1.53969
X3.43200 Y1.53669
X3.43100 Y1.53669
X3.43100 Y1.53469
X3.43000 Y1.53469
X3.43000 Y1.53269
X3.42900 Y1.53269
X3.42900 Y1.53169
X3.42800 Y1.53169
X3.42800 Y1.52969
X3.42700 Y1.52969
X3.42700 Y1.52869
X3.42600 Y1.52869
X3.42600 Y1.52769
X3.42500 Y1.52769
X3.42500 Y1.52669
X3.42400 Y1.52669
X3.42400 Y1.52569
X3.42300 Y1.52569
X3.42300 Y1.52469
X3.42100 Y1.52469
X3.42100 Y1.52369
X3.41900 Y1.52369
X3.41900 Y1.52269
X3.41700 Y1.52269
X3.41700 Y1.52169
X3.41600 Y1.52169
X3.41600 Y1.52069
X3.41400 Y1.52069
X3.41400 Y1.51969
X3.41100 Y1.51969
X3.41100 Y1.51869
X3.40600 Y1.51869
X3.40600 Y1.51769
X3.39300 Y1.51769
X3.39300 Y1.51869
X3.38800 Y1.51869
X3.38800 Y1.51969
X3.38500 Y1.51969
X3.38500 Y1.52069
X3.38300 Y1.52069
X3.38300 Y1.52169
X3.38200 Y1.52169
X3.38200 Y1.52269
X3.38000 Y1.52269
X3.38000 Y1.52369
X3.37800 Y1.52369
X3.37800 Y1.52469
X3.37600 Y1.52469
X3.37600 Y1.52569
X3.37500 Y1.52569
X3.37500 Y1.52669
X3.37400 Y1.52669
X3.37400 Y1.52769
X3.37300 Y1.52769
